;FLAVOR:Repetier
;TIME:252
;Generated with Cura_SteamEngine 2.3.1
M104 S210
M109 S210
G28 ;Home
G1 Z15.0 F6000 ;Move the platform down 15mm
;Prime the extruder
G92 E0
;LAYER_COUNT:3
;LAYER:0
M107
G0 F9000 X.349 Y-.201 Z.3
;TYPE:WALL-INNER
G1 F900 X.349 Y.201 E0.02507
G1 X.00 Y.403 E0.05022
G1 X-.349 Y.201 E0.07536
G1 X-.349 Y-.201 E0.10043
G1 X.00 Y-.403 E0.12558
G1 X.349 Y-.201 E0.15073
G0 F9000 X.151 Y.048
G1 F6000 E-3.34927
G1 Z1.3
G0 F9000 X17.955 Y-2.977 Z1.3
;TYPE:WALL-OUTER
G1 Z.3
G1 F6000 E0.15073
G1 F900 X17.226 Y-5.874 E0.33703
G1 X16.04 Y-8.595 E0.52213
G1 X15.929 Y-8.85 E0.53948
G1 X15.688 Y-8.711 E0.55037
G1 X.849 Y-.144 E1.61892
G1 X.849 Y.144 E1.63688
G1 X15.688 Y8.711 E2.70543
G1 X15.929 Y8.85 E2.72278
G1 X16.04 Y8.595 E2.73367
G1 X17.226 Y5.874 E2.91878
G1 X17.955 Y2.977 E3.10507
G1 X18.201 Y.00 E3.29136
G1 X17.955 Y-2.977 E3.47765
G1 F6000 E-0.02235
G1 Z1.3
G0 F9000 X9.099 Y-15.762 Z1.3
G1 Z.3
G1 F6000 E3.47765
G1 F900 X6.399 Y-17.038 E3.66388
G1 X3.526 Y-17.855 E3.85015
G1 X.576 Y-18.19 E4.03531
G1 X.299 Y-18.221 E4.05269
G1 X.299 Y-17.943 E4.06357
G1 X.299 Y-17.942 E4.06363
G1 X.299 Y-.808 E5.13216
G1 X.549 Y-.663 E5.15018
G1 X15.388 Y-9.231 E6.21876
G1 X15.629 Y-9.37 E6.23611
G1 X15.464 Y-9.594 E6.247
G1 X13.7 Y-11.981 E6.4321
G1 X11.555 Y-14.061 E6.61843
G1 X9.099 Y-15.762 E6.80474
G1 F6000 E3.30474
G1 Z1.3
G0 F9000 X-13.7 Y-11.981 Z1.3
G1 Z.3
G1 F6000 E6.80474
G1 F900 X-15.464 Y-9.594 E6.98984
G1 X-15.629 Y-9.37 E7.00719
G1 X-15.388 Y-9.231 E7.01808
G1 X-.549 Y-.663 E8.08666
G1 X-.299 Y-.808 E8.10469
G1 X-.299 Y-17.942 E9.17321
G1 X-.299 Y-17.943 E9.17327
G1 X-.299 Y-18.221 E9.19061
G1 X-.576 Y-18.19 E9.20152
G1 X-3.526 Y-17.855 E9.38667
G1 X-6.399 Y-17.038 E9.57295
G1 X-9.099 Y-15.762 E9.75918
G1 X-11.555 Y-14.061 E9.94549
G1 X-13.7 Y-11.981 E10.13182
G1 F6000 E6.63182
G1 Z1.3
G0 F9000 X-17.226 Y-5.874 Z1.3
G1 Z.3
G1 F6000 E10.13182
G1 F900 X-17.955 Y-2.977 E10.31812
G1 X-18.201 Y.00 E10.50441
G1 X-17.955 Y2.977 E10.6907
G1 X-17.226 Y5.874 E10.87699
G1 X-16.04 Y8.595 E11.0621
G1 X-15.929 Y8.85 E11.07944
G1 X-15.688 Y8.711 E11.09033
G1 X-.849 Y.144 E12.15889
G1 X-.849 Y-.144 E12.17685
G1 X-15.688 Y-8.711 E13.2454
G1 X-15.929 Y-8.85 E13.26275
G1 X-16.04 Y-8.595 E13.27363
G1 X-17.226 Y-5.874 E13.45874
G1 F6000 E9.95874
G1 Z1.3
G0 F9000 X-13.7 Y11.981 Z1.3
G1 Z.3
G1 F6000 E13.45874
G1 F900 X-11.555 Y14.061 E13.64507
G1 X-9.099 Y15.762 E13.83138
G1 X-6.399 Y17.038 E14.01762
G1 X-3.526 Y17.855 E14.20389
G1 X-.576 Y18.19 E14.38905
G1 X-.299 Y18.221 E14.40643
G1 X-.299 Y17.943 E14.41731
G1 X-.299 Y17.942 E14.41737
G1 X-.299 Y.808 E15.4859
G1 X-.549 Y.663 E15.50392
G1 X-15.388 Y9.231 E16.5725
G1 X-15.629 Y9.37 E16.58985
G1 X-15.464 Y9.594 E16.60074
G1 X-13.7 Y11.981 E16.78584
G1 F6000 E13.28584
G1 Z1.3
G0 F9000 X15.464 Y9.594 Z1.3
G1 Z.3
G1 F6000 E16.78584
G1 F900 X15.629 Y9.37 E16.80319
G1 X15.388 Y9.231 E16.81408
G1 X.549 Y.663 E17.88266
G1 X.299 Y.808 E17.90069
G1 X.299 Y17.942 E18.96921
G1 X.299 Y17.943 E18.96927
G1 X.299 Y18.221 E18.98661
G1 X.576 Y18.19 E18.99752
G1 X3.526 Y17.855 E19.18267
G1 X6.399 Y17.038 E19.36894
G1 X9.099 Y15.762 E19.55518
G1 X11.555 Y14.061 E19.74149
G1 X13.7 Y11.981 E19.92782
G1 X15.464 Y9.594 E20.11292
G1 F6000 E16.61292
G1 Z1.3
G0 F9000 X11.944 Y14.518 Z1.3
G1 Z.3
G1 F6000 E20.11292
G1 F900 X9.403 Y16.278 E20.30568
G1 X6.601 Y17.601 E20.49892
G1 X3.615 Y18.448 E20.69248
G1 X.299 Y18.818 E20.90056
G1 X.299 Y49.696 E22.8262
G1 X.299 Y49.697 E22.82626
G1 X.299 Y49.962 E22.84279
G1 X.564 Y49.946 E22.85332
G1 X5.66 Y49.628 E23.17173
G1 X10.709 Y48.789 E23.49092
G1 X15.645 Y47.437 E23.81008
G1 X20.417 Y45.586 E24.12928
G1 X24.975 Y43.258 E24.44846
G1 X29.27 Y40.475 E24.76762
G1 X33.258 Y37.268 E25.08676
G1 X36.897 Y33.669 E25.40594
G1 X40.148 Y29.716 E25.72512
G1 X42.971 Y25.462 E26.04352
G1 X43.118 Y25.241 E26.06007
G1 X42.888 Y25.108 E26.07059
G1 X16.146 Y9.669 E27.99627
G1 X14.165 Y12.358 E28.20456
G1 X11.944 Y14.518 E28.39777
G1 F6000 E24.89777
G1 Z1.3
G0 F9000 X18.544 Y-3.088 Z1.3
G1 Z.3
G1 F6000 E28.39777
G1 F900 X18.798 Y.00 E28.59099
G1 X18.544 Y3.088 E28.78422
G1 X17.787 Y6.086 E28.97705
G1 X16.446 Y9.149 E29.18557
G1 X43.188 Y24.589 E31.11129
G1 X43.418 Y24.722 E31.12786
G1 X43.536 Y24.484 E31.13837
G1 X45.81 Y19.912 E31.45682
G1 X47.607 Y15.119 E31.77604
G1 X48.904 Y10.168 E32.09522
G1 X49.688 Y5.111 E32.41435
G1 X49.95 Y.00 E32.73351
G1 X49.688 Y-5.111 E33.05266
G1 X48.904 Y-10.168 E33.3718
G1 X47.607 Y-15.119 E33.69097
G1 X45.81 Y-19.912 E34.0102
G1 X43.536 Y-24.484 E34.32864
G1 X43.418 Y-24.722 E34.34521
G1 X43.188 Y-24.589 E34.35572
G1 X16.446 Y-9.149 E36.28144
G1 X17.787 Y-6.086 E36.48996
G1 X18.544 Y-3.088 E36.68279
G1 F6000 E33.18279
G1 Z1.3
G0 F9000 X.299 Y-49.696 Z1.3
G1 Z.3
G1 F6000 E36.68279
G1 F900 X.299 Y-18.818 E38.60843
G1 X3.615 Y-18.448 E38.81651
G1 X6.601 Y-17.601 E39.01007
G1 X9.403 Y-16.278 E39.20331
G1 X11.944 Y-14.518 E39.39607
G1 X14.165 Y-12.358 E39.58928
G1 X16.146 Y-9.669 E39.79757
G1 X42.888 Y-25.108 E41.72325
G1 X43.118 Y-25.241 E41.73982
G1 X42.971 Y-25.462 E41.75033
G1 X40.148 Y-29.716 E42.06872
G1 X36.897 Y-33.669 E42.3879
G1 X33.258 Y-37.268 E42.70708
G1 X29.27 Y-40.475 E43.02622
G1 X24.975 Y-43.258 E43.34539
G1 X20.417 Y-45.586 E43.66456
G1 X15.645 Y-47.437 E43.98376
G1 X10.709 Y-48.789 E44.30292
G1 X5.66 Y-49.628 E44.62211
G1 X.564 Y-49.946 E44.94053
G1 X.299 Y-49.962 E44.95709
G1 X.299 Y-49.697 E44.96759
G1 X.299 Y-49.696 E44.96766
G1 F6000 E41.46766
G1 Z1.3
G0 F9000 X-6.601 Y-17.601 Z1.3
G1 Z.3
G1 F6000 E44.96766
G1 F900 X-3.615 Y-18.448 E45.16122
G1 X-.299 Y-18.818 E45.3693
G1 X-.299 Y-49.696 E47.29493
G1 X-.299 Y-49.697 E47.295
G1 X-.299 Y-49.962 E47.31152
G1 X-.564 Y-49.946 E47.32205
G1 X-5.66 Y-49.628 E47.64047
G1 X-10.709 Y-48.789 E47.95966
G1 X-15.645 Y-47.437 E48.27882
G1 X-20.417 Y-45.586 E48.59801
G1 X-24.975 Y-43.258 E48.91719
G1 X-29.27 Y-40.475 E49.23636
G1 X-33.258 Y-37.268 E49.5555
G1 X-36.897 Y-33.669 E49.87468
G1 X-40.148 Y-29.716 E50.19386
G1 X-42.971 Y-25.462 E50.51225
G1 X-43.118 Y-25.241 E50.5288
G1 X-42.888 Y-25.108 E50.53932
G1 X-16.146 Y-9.669 E52.46501
G1 X-14.165 Y-12.358 E52.67329
G1 X-11.944 Y-14.518 E52.8665
G1 X-9.403 Y-16.278 E53.05926
G1 X-6.601 Y-17.601 E53.2525
G1 F6000 E49.7525
G1 Z1.3
G0 F9000 X-48.904 Y10.168 Z1.3
G1 Z.3
G1 F6000 E53.2525
G1 F900 X-47.607 Y15.119 E53.57168
G1 X-45.81 Y19.912 E53.8909
G1 X-43.536 Y24.484 E54.20934
G1 X-43.418 Y24.722 E54.22591
G1 X-43.188 Y24.589 E54.23643
G1 X-16.446 Y9.149 E56.16215
G1 X-17.787 Y6.086 E56.37067
G1 X-18.544 Y3.088 E56.5635
G1 X-18.798 Y.00 E56.75673
G1 X-18.544 Y-3.088 E56.94995
G1 X-17.787 Y-6.086 E57.14278
G1 X-16.446 Y-9.149 E57.35131
G1 X-43.188 Y-24.589 E59.27702
G1 X-43.418 Y-24.722 E59.29359
G1 X-43.536 Y-24.484 E59.30411
G1 X-45.81 Y-19.912 E59.62255
G1 X-47.607 Y-15.119 E59.94177
G1 X-48.904 Y-10.168 E60.26095
G1 X-49.688 Y-5.111 E60.58008
G1 X-49.95 Y.00 E60.89924
G1 X-49.688 Y5.111 E61.21839
G1 X-48.904 Y10.168 E61.53753
G1 F6000 E58.03753
G1 Z1.3
G0 F9000 X-29.27 Y40.475 Z1.3
G1 Z.3
G1 F6000 E61.53753
G1 F900 X-24.975 Y43.258 E61.85669
G1 X-20.417 Y45.586 E62.17587
G1 X-15.645 Y47.437 E62.49507
G1 X-10.709 Y48.789 E62.81423
G1 X-5.66 Y49.628 E63.13342
G1 X-.564 Y49.946 E63.45184
G1 X-.299 Y49.962 E63.46839
G1 X-.299 Y49.697 E63.4789
G1 X-.299 Y49.696 E63.47896
G1 X-.299 Y18.818 E65.4046
G1 X-3.615 Y18.448 E65.61268
G1 X-6.601 Y17.601 E65.80624
G1 X-9.403 Y16.278 E65.99948
G1 X-11.944 Y14.518 E66.19224
G1 X-14.165 Y12.358 E66.38545
G1 X-16.146 Y9.669 E66.59374
G1 X-42.888 Y25.108 E68.51942
G1 X-43.118 Y25.241 E68.53599
G1 X-42.971 Y25.462 E68.5465
G1 X-40.148 Y29.716 E68.86489
G1 X-36.897 Y33.669 E69.18407
G1 X-33.258 Y37.268 E69.50325
G1 X-29.27 Y40.475 E69.82239
G1 F6000 E66.32239
G1 Z1.3
G0 F9000 X-34.831 Y36.633 Z1.3
G1 Z.3
G1 F6000 E69.82239
G1 F900 X-38.351 Y32.93 E70.14101
G1 X-41.491 Y28.873 E70.46094
G1 X-44.198 Y24.53 E70.78009
G1 X-46.453 Y19.935 E71.09929
G1 X-48.23 Y15.136 E71.41843
G1 X-49.516 Y10.168 E71.73846
G1 X-50.29 Y5.111 E72.0575
G1 X-50.548 Y.00 E72.37664
G1 X-50.289 Y-5.118 E72.69622
G1 X-49.515 Y-10.173 E73.01514
G1 X-48.23 Y-15.136 E73.33485
G1 X-46.453 Y-19.935 E73.65399
G1 X-44.198 Y-24.53 E73.97319
G1 X-41.491 Y-28.873 E74.29234
G1 X-38.351 Y-32.93 E74.61227
G1 X-34.831 Y-36.633 E74.93089
G1 X-30.938 Y-39.975 E75.25085
G1 X-26.741 Y-42.897 E75.56978
G1 X-22.263 Y-45.382 E75.88915
G1 X-17.557 Y-47.402 E76.20853
G1 X-12.666 Y-48.937 E76.52821
G1 X-7.656 Y-49.966 E76.84717
G1 X-2.557 Y-50.484 E77.1668
G1 X2.557 Y-50.484 E77.48572
G1 X7.656 Y-49.966 E77.80534
G1 X12.666 Y-48.937 E78.1243
G1 X17.557 Y-47.402 E78.44399
G1 X22.263 Y-45.382 E78.76336
G1 X26.741 Y-42.897 E79.08274
G1 X30.938 Y-39.975 E79.40166
G1 X34.831 Y-36.633 E79.72163
G1 X38.351 Y-32.93 E80.04024
G1 X41.491 Y-28.873 E80.36018
G1 X44.198 Y-24.53 E80.67932
G1 X46.453 Y-19.935 E80.99853
G1 X48.23 Y-15.136 E81.31766
G1 X49.515 Y-10.173 E81.63738
G1 X50.289 Y-5.118 E81.95629
G1 X50.548 Y.00 E82.27587
G1 X50.29 Y5.111 E82.59502
G1 X49.516 Y10.168 E82.91406
G1 X48.23 Y15.136 E83.23409
G1 X46.453 Y19.935 E83.55322
G1 X44.198 Y24.53 E83.87243
G1 X41.491 Y28.873 E84.19157
G1 X38.351 Y32.93 E84.51151
G1 X34.831 Y36.633 E84.83012
G1 X30.938 Y39.975 E85.15009
G1 X26.741 Y42.897 E85.46901
G1 X22.263 Y45.382 E85.78839
G1 X17.557 Y47.402 E86.10776
G1 X12.666 Y48.937 E86.42745
G1 X7.656 Y49.966 E86.74641
G1 X2.557 Y50.484 E87.06603
G1 X-2.557 Y50.484 E87.38496
G1 X-7.656 Y49.966 E87.70458
G1 X-12.666 Y48.937 E88.02354
G1 X-17.557 Y47.402 E88.34322
G1 X-22.263 Y45.382 E88.6626
G1 X-26.741 Y42.897 E88.98198
G1 X-30.938 Y39.975 E89.3009
G1 X-34.831 Y36.633 E89.62086
;TIME_ELAPSED:100.213603
;LAYER:1
G1 F6000 E86.12086
G1 Z1.3
G0 F12000 X-.349 Y.201 Z1.5
;TYPE:WALL-INNER
G1 Z.5
G1 F6000 E89.62086
G1 F1500 X-.349 Y-.201 E89.63758
G1 X.00 Y-.403 E89.65434
G1 X.349 Y-.201 E89.67111
G1 X.349 Y.201 E89.68782
G1 X.00 Y.403 E89.70459
G1 X-.349 Y.201 E89.72135
G0 F12000 X-.151 Y-.048
G1 F6000 E86.22135
G1 Z1.5
G0 F12000 X-17.226 Y-5.874 Z1.5
;TYPE:WALL-OUTER
G1 Z.5
G1 F6000 E89.72135
G1 F1200 X-17.955 Y-2.977 E89.84555
G1 X-18.201 Y.00 E89.96974
G1 X-17.955 Y2.977 E90.09393
G1 X-17.226 Y5.874 E90.21813
G1 X-16.04 Y8.595 E90.34153
G1 X-15.929 Y8.85 E90.3531
G1 X-15.688 Y8.711 E90.36036
G1 X-.849 Y.144 E91.07272
G1 X-.849 Y-.144 E91.0847
G1 X-15.688 Y-8.711 E91.79707
G1 X-15.929 Y-8.85 E91.80863
G1 X-16.04 Y-8.595 E91.81589
G1 X-17.226 Y-5.874 E91.9393
G1 F6000 E88.4393
G1 Z1.5
G0 F12000 X-.299 Y17.943 Z1.5
G1 Z.5
G1 F6000 E91.9393
G1 F1200 X-.299 Y17.942 E91.93934
G1 X-.299 Y.808 E92.65169
G1 X-.549 Y.663 E92.6637
G1 X-15.388 Y9.231 E93.37609
G1 X-15.629 Y9.37 E93.38766
G1 X-15.464 Y9.594 E93.39492
G1 X-13.7 Y11.981 E93.51832
G1 X-11.555 Y14.061 E93.64254
G1 X-9.099 Y15.762 E93.76674
G1 X-6.399 Y17.038 E93.8909
G1 X-3.526 Y17.855 E94.01508
G1 X-.576 Y18.19 E94.13852
G1 X-.299 Y18.221 E94.15011
G1 X-.299 Y17.943 E94.15736
G1 F6000 E90.65736
G1 Z1.5
G0 F12000 X11.555 Y14.061 Z1.5
G1 Z.5
G1 F6000 E94.15736
G1 F1200 X13.7 Y11.981 E94.28158
G1 X15.464 Y9.594 E94.40498
G1 X15.629 Y9.37 E94.41655
G1 X15.388 Y9.231 E94.42381
G1 X.549 Y.663 E95.1362
G1 X.299 Y.808 E95.14821
G1 X.299 Y17.942 E95.86056
G1 X.299 Y17.943 E95.8606
G1 X.299 Y18.221 E95.87216
G1 X.576 Y18.19 E95.87943
G1 X3.526 Y17.855 E96.00287
G1 X6.399 Y17.038 E96.12705
G1 X9.099 Y15.762 E96.25121
G1 X11.555 Y14.061 E96.37541
G1 F6000 E92.87541
G1 Z1.5
G0 F12000 X17.226 Y-5.874 Z1.5
G1 Z.5
G1 F6000 E96.37541
G1 F1200 X16.04 Y-8.595 E96.49882
G1 X15.929 Y-8.85 E96.51038
G1 X15.688 Y-8.711 E96.51764
G1 X.849 Y-.144 E97.23001
G1 X.849 Y.144 E97.24198
G1 X15.688 Y8.711 E97.95435
G1 X15.929 Y8.85 E97.96592
G1 X16.04 Y8.595 E97.97318
G1 X17.226 Y5.874 E98.09658
G1 X17.955 Y2.977 E98.22078
G1 X18.201 Y.00 E98.34497
G1 X17.955 Y-2.977 E98.46916
G1 X17.226 Y-5.874 E98.59336
G1 F6000 E95.09336
G1 Z1.5
G0 F12000 X.299 Y-.808 Z1.5
G1 Z.5
G1 F6000 E98.59336
G1 F1200 X.549 Y-.663 E98.60537
G1 X15.388 Y-9.231 E99.31776
G1 X15.629 Y-9.37 E99.32933
G1 X15.464 Y-9.594 E99.33659
G1 X13.7 Y-11.981 E99.45999
G1 X11.555 Y-14.061 E99.58421
G1 X9.099 Y-15.762 E99.70842
G1 X6.399 Y-17.038 E99.83257
G1 X3.526 Y-17.855 E99.95676
G1 X.576 Y-18.19 E100.08019
G1 X.299 Y-18.221 E100.09178
G1 X.299 Y-17.943 E100.09903
G1 X.299 Y-17.942 E100.09907
G1 X.299 Y-.808 E100.81142
G0 F12000 X.151 Y.057
G1 F6000 E97.31142
G1 Z1.5
G0 F12000 X-9.099 Y-15.762 Z1.5
G1 Z.5
G1 F6000 E100.81142
G1 F1200 X-11.555 Y-14.061 E100.93563
G1 X-13.7 Y-11.981 E101.05985
G1 X-15.464 Y-9.594 E101.18325
G1 X-15.629 Y-9.37 E101.19482
G1 X-15.388 Y-9.231 E101.20208
G1 X-.549 Y-.663 E101.91447
G1 X-.299 Y-.808 E101.92648
G1 X-.299 Y-17.942 E102.63883
G1 X-.299 Y-17.943 E102.63887
G1 X-.299 Y-18.221 E102.65043
G1 X-.576 Y-18.19 E102.6577
G1 X-3.526 Y-17.855 E102.78114
G1 X-6.399 Y-17.038 E102.90532
G1 X-9.099 Y-15.762 E103.02948
G1 F6000 E99.52948
G1 Z1.5
G0 F12000 X-43.118 Y-25.241 Z1.5
G1 Z.5
G1 F6000 E103.02948
G1 F1200 X-42.888 Y-25.108 E103.04052
G1 X-16.146 Y-9.669 E104.32431
G1 X-14.165 Y-12.358 E104.46317
G1 X-11.944 Y-14.518 E104.59198
G1 X-9.403 Y-16.278 E104.72048
G1 X-6.601 Y-17.601 E104.84931
G1 X-3.615 Y-18.448 E104.97835
G1 X-.299 Y-18.818 E105.11707
G1 X-.299 Y-49.696 E106.40083
G1 X-.299 Y-49.697 E106.40087
G1 X-.299 Y-49.962 E106.41189
G1 X-.564 Y-49.946 E106.41891
G1 X-5.66 Y-49.628 E106.63119
G1 X-10.709 Y-48.789 E106.84398
G1 X-15.645 Y-47.437 E107.05675
G1 X-20.417 Y-45.586 E107.26955
G1 X-24.975 Y-43.258 E107.48234
G1 X-29.27 Y-40.475 E107.69511
G1 X-33.258 Y-37.268 E107.90787
G1 X-36.897 Y-33.669 E108.12066
G1 X-40.148 Y-29.716 E108.33345
G1 X-42.971 Y-25.462 E108.54571
G1 X-43.118 Y-25.241 E108.55271
G1 F6000 E105.05271
G1 Z1.5
G0 F12000 X-49.95 Y.00 Z1.5
G1 Z.5
G1 F6000 E108.55271
G1 F1200 X-49.688 Y5.111 E108.76548
G1 X-48.904 Y10.168 E108.97824
G1 X-47.607 Y15.119 E109.19102
G1 X-45.81 Y19.912 E109.40384
G1 X-43.536 Y24.484 E109.61613
G1 X-43.418 Y24.722 E109.62718
G1 X-43.188 Y24.589 E109.63419
G1 X-16.446 Y9.149 E110.918
G1 X-17.787 Y6.086 E111.05702
G1 X-18.544 Y3.088 E111.18557
G1 X-18.798 Y.00 E111.31439
G1 X-18.544 Y-3.088 E111.44321
G1 X-17.787 Y-6.086 E111.57176
G1 X-16.446 Y-9.149 E111.71077
G1 X-43.188 Y-24.589 E112.99458
G1 X-43.418 Y-24.722 E113.00563
G1 X-43.536 Y-24.484 E113.01264
G1 X-45.81 Y-19.912 E113.22494
G1 X-47.607 Y-15.119 E113.43775
G1 X-48.904 Y-10.168 E113.65054
G1 X-49.688 Y-5.111 E113.86329
G1 X-49.95 Y.00 E114.07606
G1 F6000 E110.57606
G1 Z1.5
G0 F12000 X-40.148 Y29.716 Z1.5
G1 Z.5
G1 F6000 E114.07606
G1 F1200 X-36.897 Y33.669 E114.28885
G1 X-33.258 Y37.268 E114.50164
G1 X-29.27 Y40.475 E114.7144
G1 X-24.975 Y43.258 E114.92717
G1 X-20.417 Y45.586 E115.13996
G1 X-15.645 Y47.437 E115.35276
G1 X-10.709 Y48.789 E115.56553
G1 X-5.66 Y49.628 E115.77832
G1 X-.564 Y49.946 E115.9906
G1 X-.299 Y49.962 E116.00164
G1 X-.299 Y49.697 E116.00865
G1 X-.299 Y49.696 E116.00869
G1 X-.299 Y18.818 E117.29245
G1 X-3.615 Y18.448 E117.43116
G1 X-6.601 Y17.601 E117.56021
G1 X-9.403 Y16.278 E117.68903
G1 X-11.944 Y14.518 E117.81754
G1 X-14.165 Y12.358 E117.94635
G1 X-16.146 Y9.669 E118.0852
G1 X-42.888 Y25.108 E119.36899
G1 X-43.118 Y25.241 E119.38004
G1 X-42.971 Y25.462 E119.38705
G1 X-40.148 Y29.716 E119.59931
G1 F6000 E116.09931
G1 Z1.5
G0 F12000 X11.944 Y14.518 Z1.5
G1 Z.5
G1 F6000 E119.59931
G1 F1200 X9.403 Y16.278 E119.72781
G1 X6.601 Y17.601 E119.85664
G1 X3.615 Y18.448 E119.98568
G1 X.299 Y18.818 E120.1244
G1 X.299 Y49.696 E121.40816
G1 X.299 Y49.697 E121.4082
G1 X.299 Y49.962 E121.41922
G1 X.564 Y49.946 E121.42624
G1 X5.66 Y49.628 E121.63852
G1 X10.709 Y48.789 E121.85131
G1 X15.645 Y47.437 E122.06408
G1 X20.417 Y45.586 E122.27688
G1 X24.975 Y43.258 E122.48967
G1 X29.27 Y40.475 E122.70244
G1 X33.258 Y37.268 E122.9152
G1 X36.897 Y33.669 E123.12799
G1 X40.148 Y29.716 E123.34078
G1 X42.971 Y25.462 E123.55304
G1 X43.118 Y25.241 E123.56407
G1 X42.888 Y25.108 E123.57108
G1 X16.146 Y9.669 E124.85487
G1 X14.165 Y12.358 E124.99373
G1 X11.944 Y14.518 E125.12254
G1 F6000 E121.62254
G1 Z1.5
G0 F12000 X17.787 Y6.086 Z1.5
G1 Z.5
