;FLAVOR:Repetier
;TIME:168
;Generated with Cura_SteamEngine 2.3.1
M190 S60
M104 S205
M109 S205
G28 ;Home
G1 Z15.0 F6000 ;Move the platform down 15mm
;Prime the extruder
G92 E0
G1 F200 E3
G92 E0
;LAYER_COUNT:1
;LAYER:0
M107
G0 F9000 X.016 Y.00 Z.3
;TYPE:WALL-INNER
G1 F1500 X.764 Y.432 E0.05387
G1 X22.141 Y12.79 E1.59373
G1 X24.11 Y8.264 E1.90154
G1 X24.122 Y8.236 E1.90344
G1 X25.139 Y4.187 E2.16379
G1 X25.143 Y4.174 E2.16464
G1 X25.487 Y.00 E2.42582
G1 X25.143 Y-4.174 E2.68701
G1 X25.14 Y-4.186 E2.68778
G1 X24.122 Y-8.236 E2.9482
G1 X24.111 Y-8.262 E2.94996
G1 X22.141 Y-12.79 E3.25791
G1 X.765 Y-.433 E4.79769
G1 X.016 Y.00 E4.85164
G0 F9000 X-.016 Y.00
G1 F1500 X-.764 Y-.432 E4.90551
G1 X-22.141 Y-12.79 E6.44537
G1 X-24.11 Y-8.264 E6.75318
G1 X-24.122 Y-8.236 E6.75508
G1 X-25.139 Y-4.187 E7.01543
G1 X-25.143 Y-4.174 E7.01628
G1 X-25.487 Y.00 E7.27746
G1 X-25.143 Y4.174 E7.53865
G1 X-25.14 Y4.186 E7.53942
G1 X-24.122 Y8.236 E7.79984
G1 X-24.111 Y8.262 E7.8016
G1 X-22.141 Y12.79 E8.10955
G1 X-.765 Y.433 E9.64933
G1 X-.016 Y.00 E9.70328
G0 F9000 X-.757 Y.447
G1 F1500 X-22.132 Y12.805 E9.75409
G1 X-19.201 Y16.777 E10.06194
G1 X-19.185 Y16.798 E10.06358
G1 X-16.193 Y19.704 E10.3237
G1 X-16.182 Y19.714 E10.32462
G1 X-12.744 Y22.099 E10.58557
G1 X-8.961 Y23.889 E10.84656
G1 X-8.943 Y23.894 E10.84773
G1 X-4.937 Y25.034 E11.10747
G1 X-4.913 Y25.036 E11.10897
G1 X-.007 Y25.594 E11.4169
G1 X-.007 Y.882 E12.958
G1 X-.757 Y.447 E13.01207
G0 F9000 X-.757 Y-.447
G1 F1500 X-.007 Y-.882 E13.06614
G1 X-.007 Y-25.594 E14.60725
G1 X-4.912 Y-25.037 E14.91511
G1 X-4.937 Y-25.034 E14.91668
G1 X-8.942 Y-23.895 E15.17634
G1 X-8.961 Y-23.889 E15.17759
G1 X-12.744 Y-22.099 E15.43858
G1 X-16.182 Y-19.714 E15.69952
G1 X-16.192 Y-19.704 E15.70041
G1 X-19.185 Y-16.798 E15.96056
G1 X-19.201 Y-16.777 E15.96221
G1 X-22.132 Y-12.805 E16.27005
G1 X-.757 Y-.447 E16.32081
G0 F9000 X.007 Y-.882
G1 F1500 X.757 Y-.447 E16.37488
G1 X22.132 Y-12.805 E16.42569
G1 X19.201 Y-16.777 E16.73353
G1 X19.185 Y-16.798 E16.73518
G1 X16.193 Y-19.704 E16.99529
G1 X16.182 Y-19.714 E16.99622
G1 X12.744 Y-22.099 E17.25716
G1 X8.961 Y-23.889 E17.51816
G1 X8.943 Y-23.894 E17.51932
G1 X4.937 Y-25.034 E17.77906
G1 X4.913 Y-25.036 E17.78057
G1 X.007 Y-25.594 E18.08849
G1 X.007 Y-.882 E18.13164
G1 F2700 E14.63164
G1 Z1.3
G0 F9000 X.757 Y.447 Z1.3
G1 Z.3
G1 F2700 E18.13164
G1 F1500 X.007 Y.882 E18.18571
G1 X.007 Y25.594 E18.22886
G1 X4.912 Y25.037 E18.53672
G1 X4.937 Y25.034 E18.53829
G1 X8.942 Y23.895 E18.79796
G1 X8.961 Y23.889 E18.7992
G1 X12.744 Y22.099 E19.06019
G1 X16.182 Y19.714 E19.32114
G1 X16.192 Y19.704 E19.32202
G1 X19.185 Y16.798 E19.58217
G1 X19.201 Y16.777 E19.58382
G1 X22.132 Y12.805 E19.89167
G1 X.757 Y.447 E19.94242
G1 F2700 E16.44242
G1 Z1.3
G0 F9000 X22.146 Y12.793 Z1.3
G1 Z.3
G1 F2700 E19.94242
G1 F1500 X59.934 Y34.637 E22.66439
G1 X59.924 Y34.653 E22.66556
G1 X22.138 Y12.808 E22.7608
G1 X19.213 Y16.785 E22.76696
G0 X19.193 Y16.805
G1 X16.202 Y19.713 E22.77294
G0 X16.189 Y19.722
G1 X12.749 Y22.111 E22.77881
G1 X8.966 Y23.898 E22.78449
G0 X8.946 Y23.908
G1 X4.94 Y25.044 E22.7904
G0 X4.913 Y25.052
G1 X.007 Y25.601 E22.79717
G1 X.007 Y69.25 E25.51924
G1 X-.007 Y69.25 E25.52012
G1 X-.007 Y25.601 E25.59634
G1 X-4.913 Y25.052 E25.60342
G0 X-4.939 Y25.045
G1 X-8.946 Y23.908 E25.60997
G0 X-8.964 Y23.9
G1 X-12.749 Y22.111 E25.61633
G1 X-16.188 Y19.723 E25.62246
G0 X-16.202 Y19.713
G1 X-19.192 Y16.805 E25.62786
G0 X-19.213 Y16.785
G1 X-22.138 Y12.808 E25.63401
G1 X-59.924 Y34.653 E28.35591
G1 X-59.934 Y34.637 E28.35708
G1 X-22.146 Y12.793 E28.45238
G1 X-24.124 Y8.269 E28.45823
G0 X-24.131 Y8.239
G1 X-25.152 Y4.19 E28.46367
G0 X-25.153 Y4.176
G1 X-25.498 Y.00 E28.46922
G1 X-25.154 Y-4.175 E28.475
G0 X-25.152 Y-4.19
G1 X-24.132 Y-8.238 E28.48096
G0 X-24.124 Y-8.269
G1 X-22.146 Y-12.793 E28.48684
G1 X-59.934 Y-34.637 E31.20881
G1 X-59.924 Y-34.653 E31.20998
G1 X-22.138 Y-12.808 E31.30522
G1 X-19.213 Y-16.785 E31.31138
G0 X-19.193 Y-16.805
G1 X-16.202 Y-19.713 E31.31736
G0 X-16.189 Y-19.722
G1 X-12.749 Y-22.111 E31.32323
G1 X-8.966 Y-23.898 E31.32891
G0 X-8.946 Y-23.908
G1 X-4.94 Y-25.044 E31.33482
G0 X-4.913 Y-25.052
G1 X-.007 Y-25.601 E31.34159
G1 X-.007 Y-69.25 E34.06367
G1 X.007 Y-69.25 E34.06454
G1 X.007 Y-25.601 E34.14076
G1 X4.913 Y-25.052 E34.14784
G0 X4.939 Y-25.045
G1 X8.946 Y-23.908 E34.15439
G0 X8.964 Y-23.9
G1 X12.749 Y-22.111 E34.16075
G1 X16.188 Y-19.723 E34.16688
G0 X16.202 Y-19.713
G1 X19.192 Y-16.805 E34.17228
G0 X19.213 Y-16.785
G1 X22.138 Y-12.808 E34.17844
G1 X59.924 Y-34.653 E36.90033
G1 X59.934 Y-34.637 E36.90151
G1 X22.146 Y-12.793 E36.9968
G1 X24.124 Y-8.269 E37.00266
G0 X24.131 Y-8.239
G1 X25.152 Y-4.19 E37.00809
G0 X25.153 Y-4.176
G1 X25.498 Y.00 E37.01364
G1 X25.154 Y4.175 E37.01942
G0 X25.152 Y4.19
G1 X24.132 Y8.238 E37.02538
G0 X24.124 Y8.269
G1 X22.146 Y12.793 E37.03126
G1 F2700 E33.53126
G1 Z1.3
G0 F9000 X63.368 Y-27.893 Z1.3
G1 Z.3
G1 F2700 E37.03126
G1 F1500 X60.512 Y-33.646 E37.43181
G1 X60.353 Y-33.965 E37.45404
G0 X60.542 Y-33.661
G1 X63.368 Y-27.893 E37.46729
G1 F2700 E33.96729
G1 Z1.3
G0 F9000 X58.493 Y-36.952 Z1.3
G1 Z.3
G1 F2700 E37.46729
G1 F1500 X56.772 Y-39.55 E37.66163
G1 X56.102 Y-40.56 E37.73721
G1 X56.844 Y-39.599 E37.74391
G1 X58.493 Y-36.952 E37.76089
G1 F2700 E34.26089
G1 Z1.3
G0 F9000 X54.382 Y-42.785 Z1.3
G1 Z.3
G1 F2700 E37.76089
G1 F1500 X52.468 Y-45.114 E37.94889
G1 X51.673 Y-46.081 E38.02696
G1 X52.537 Y-45.172 E38.03411
G1 X54.382 Y-42.785 E38.0511
G1 F2700 E34.5511
G1 Z1.3
G0 F9000 X49.758 Y-48.098 Z1.3
G1 Z.3
G1 F2700 E38.0511
G1 F1500 X47.648 Y-50.188 E38.23631
G1 X46.729 Y-51.099 E38.31701
G1 X47.712 Y-50.253 E38.32445
G1 X49.758 Y-48.098 E38.34137
G1 F2700 E34.84137
G1 Z1.3
G0 F9000 X44.585 Y-52.941 Z1.3
G1 Z.3
G1 F2700 E38.34137
G1 F1500 X42.326 Y-54.761 E38.52228
G1 X41.286 Y-55.599 E38.60558
G1 X42.384 Y-54.834 E38.61345
G1 X44.585 Y-52.941 E38.63037
G1 F2700 E35.13037
G1 Z1.3
G0 F9000 X38.972 Y-57.212 Z1.3
G1 Z.3
G1 F2700 E38.63037
G1 F1500 X36.582 Y-58.762 E38.80802
G1 X35.411 Y-59.521 E38.89504
G1 X36.633 Y-58.842 E38.90332
G1 X38.972 Y-57.212 E38.92009
G1 F2700 E35.42009
G1 Z1.3
G0 F9000 X32.961 Y-60.882 Z1.3
G1 Z.3
G1 F2700 E38.92009
G1 F1500 X30.449 Y-62.167 E39.09606
G1 X29.15 Y-62.831 E39.18703
G1 X30.493 Y-62.254 E39.19599
G1 X32.961 Y-60.882 E39.21313
G1 F2700 E35.71313
G1 Z1.3
G0 F9000 X26.633 Y-63.913 Z1.3
G1 Z.3
G1 F2700 E39.21313
G1 F1500 X24.02 Y-64.928 E39.38794
G1 X22.612 Y-65.475 E39.48214
G1 X24.056 Y-65.021 E39.4916
G1 X26.633 Y-63.913 E39.509
G1 F2700 E36.009
G1 Z1.3
G0 F9000 X19.963 Y-66.306 Z1.3
G1 Z.3
G1 F2700 E39.509
G1 F1500 X17.329 Y-67.029 E39.67934
G1 X15.838 Y-67.438 E39.77576
G1 X17.355 Y-67.126 E39.7855
G1 X19.963 Y-66.306 E39.80261
G1 F2700 E36.30261
G1 Z1.3
G0 F9000 X13.098 Y-68.001 Z1.3
G1 Z.3
G1 F2700 E39.80261
G1 F1500 X10.463 Y-68.439 E39.96919
G1 X8.901 Y-68.7 E40.06795
G1 X10.48 Y-68.539 E40.07809
G1 X13.098 Y-68.001 E40.09498
G1 F2700 E36.59498
G1 Z1.3
G0 F9000 X6.117 Y-68.984 Z1.3
G1 Z.3
G1 F2700 E40.09498
G1 F1500 X3.502 Y-69.147 E40.25837
G1 X1.863 Y-69.25 E40.36079
G1 X3.508 Y-69.25 E40.37149
G1 X6.117 Y-68.984 E40.38842
G1 F2700 E36.88842
G1 Z1.3
G0 F9000 X-1.863 Y-69.25 Z1.3
G1 Z.3
G1 F2700 E40.38842
G1 F1500 X-3.5 Y-69.148 E40.49071
G1 X-6.117 Y-68.984 E40.65423
G1 X-3.508 Y-69.25 E40.67094
G1 X-1.863 Y-69.25 E40.6816
G1 F2700 E37.1816
G1 Z1.3
G0 F9000 X-8.901 Y-68.7 Z1.3
G1 Z.3
G1 F2700 E40.6816
G1 F1500 X-10.463 Y-68.44 E40.78035
G1 X-13.098 Y-68.001 E40.94694
G1 X-10.48 Y-68.539 E40.96364
G1 X-8.901 Y-68.7 E40.97368
G1 F2700 E37.47368
G1 Z1.3
G0 F9000 X-17.328 Y-67.03 Z1.3
G1 Z.3
G1 F2700 E40.97368
G1 F1500 X-19.963 Y-66.306 E41.14409
G1 X-17.355 Y-67.126 E41.161
G1 X-15.838 Y-67.438 E41.25759
G1 X-17.328 Y-67.03 E41.26704
G1 F2700 E37.76704
G1 Z1.3
G0 F9000 X-24.019 Y-64.929 Z1.3
G1 Z.3
G1 F2700 E41.26704
G1 F1500 X-26.633 Y-63.913 E41.44194
G1 X-24.056 Y-65.021 E41.45931
G1 X-22.612 Y-65.475 E41.55371
G1 X-24.019 Y-64.929 E41.56294
G1 F2700 E38.06294
G1 Z1.3
G0 F9000 X-30.448 Y-62.168 Z1.3
G1 Z.3
G1 F2700 E41.56294
G1 F1500 X-32.961 Y-60.882 E41.73899
G1 X-30.493 Y-62.254 E41.7561
G1 X-29.15 Y-62.831 E41.84725
G1 X-30.448 Y-62.168 E41.85599
G1 F2700 E38.35599
G1 Z1.3
G0 F9000 X-36.58 Y-58.763 Z1.3
G1 Z.3
G1 F2700 E41.85599
G1 F1500 X-38.972 Y-57.212 E42.03377
G1 X-36.633 Y-58.842 E42.05066
G1 X-35.411 Y-59.521 E42.13784
G1 X-36.58 Y-58.763 E42.14601
G1 F2700 E38.64601
G1 Z1.3
G0 F9000 X-42.325 Y-54.762 Z1.3
G1 Z.3
G1 F2700 E42.14601
G1 F1500 X-44.585 Y-52.941 E42.32701
G1 X-42.384 Y-54.834 E42.34391
G1 X-41.286 Y-55.599 E42.42736
G1 X-42.325 Y-54.762 E42.43504
G1 F2700 E38.93504
G1 Z1.3
G0 F9000 X-47.648 Y-50.189 Z1.3
G1 Z.3
G1 F2700 E42.43504
G1 F1500 X-49.758 Y-48.098 E42.6203
G1 X-47.712 Y-50.253 E42.637
G1 X-46.729 Y-51.099 E42.71788
G1 X-47.648 Y-50.189 E42.72508
G1 F2700 E39.22508
G1 Z1.3
G0 F9000 X-52.466 Y-45.116 Z1.3
G1 Z.3
G1 F2700 E42.72508
G1 F1500 X-54.382 Y-42.785 E42.91326
G1 X-52.537 Y-45.172 E42.93016
G1 X-51.673 Y-46.081 E43.00837
G1 X-52.466 Y-45.116 E43.0153
G1 F2700 E39.5153
G1 Z1.3
G0 F9000 X-56.771 Y-39.551 Z1.3
G1 Z.3
G1 F2700 E43.0153
G1 F1500 X-58.493 Y-36.952 E43.20972
G1 X-56.844 Y-39.599 E43.22667
G1 X-56.102 Y-40.56 E43.30239
G1 X-56.771 Y-39.551 E43.30887
G1 F2700 E39.80887
G1 Z1.3
G0 F9000 X-60.511 Y-33.647 Z1.3
G1 Z.3
G1 F2700 E43.30887
G1 F1500 X-63.368 Y-27.893 E43.70951
G1 X-60.542 Y-33.661 E43.72309
G1 X-60.353 Y-33.965 E43.74542
G0 X-60.511 Y-33.647
G1 F2700 E40.24542
G1 Z1.3
G0 F9000 X-63.613 Y-27.323 Z1.3
G1 Z.3
G1 F2700 E43.74542
G1 F1500 X-65.987 Y-20.983 E44.16761
G1 X-66.046 Y-20.755 E44.18229
G1 X-67.785 Y-14.112 E44.61053
G1 X-67.809 Y-13.953 E44.62056
G1 X-68.871 Y-7.093 E45.05346
G1 X-68.874 Y-7.018 E45.05814
G1 X-69.235 Y.00 E45.49638
G1 X-68.875 Y7.016 E45.9345
G1 X-68.871 Y7.093 E45.93931
G1 X-67.81 Y13.952 E46.37214
G1 X-67.785 Y14.112 E46.38224
G1 X-66.047 Y20.754 E46.8104
G1 X-65.987 Y20.983 E46.82516
G1 X-63.614 Y27.321 E47.24721
G1 X-63.502 Y27.619 E47.26706
G0 X-63.642 Y27.332
G1 X-65.988 Y20.984 E47.28015
G0 X-66.071 Y20.761
G1 X-67.791 Y14.114 E47.29339
G0 X-67.832 Y13.956
G1 X-68.88 Y7.095 E47.30681
G0 X-68.892 Y7.017
G1 X-69.249 Y.00 E47.31998
G1 X-68.892 Y-7.017 E47.33363
G0 X-68.881 Y-7.094
G1 X-67.832 Y-13.956 E47.34791
G0 X-67.792 Y-14.112
G1 X-66.071 Y-20.761 E47.36171
G0 X-65.989 Y-20.983
G1 X-63.642 Y-27.332 E47.37516
G1 X-63.502 Y-27.619 E47.39507
G0 X-63.613 Y-27.323
G1 F2700 E43.89507
G1 Z1.3
G0 F9000 X-63.368 Y27.893 Z1.3
G1 Z.3
G1 F2700 E47.39507
G1 F1500 X-60.512 Y33.646 E47.79562
G1 X-60.353 Y33.965 E47.81785
G0 X-60.542 Y33.661
G1 X-63.368 Y27.893 E47.8311
G1 F2700 E44.3311
G1 Z1.3
G0 F9000 X-58.493 Y36.952 Z1.3
G1 Z.3
G1 F2700 E47.8311
G1 F1500 X-56.772 Y39.55 E48.02544
G1 X-56.102 Y40.56 E48.10103
G1 X-56.844 Y39.599 E48.10773
G1 X-58.493 Y36.952 E48.1247
G1 F2700 E44.6247
G1 Z1.3
G0 F9000 X-54.382 Y42.785 Z1.3
G1 Z.3
G1 F2700 E48.1247
G1 F1500 X-52.468 Y45.114 E48.3127
G1 X-51.673 Y46.081 E48.39077
G1 X-52.537 Y45.172 E48.39792
G1 X-54.382 Y42.785 E48.41491
G1 F2700 E44.91491
G1 Z1.3
G0 F9000 X-49.758 Y48.098 Z1.3
G1 Z.3
G1 F2700 E48.41491
G1 F1500 X-47.648 Y50.188 E48.60012
G1 X-46.729 Y51.099 E48.68082
G1 X-47.712 Y50.253 E48.68827
G1 X-49.758 Y48.098 E48.70519
G1 F2700 E45.20519
G1 Z1.3
G0 F9000 X-44.585 Y52.941 Z1.3
G1 Z.3
G1 F2700 E48.70519
G1 F1500 X-42.326 Y54.761 E48.8861
G1 X-41.286 Y55.599 E48.96939
G1 X-42.384 Y54.834 E48.97726
G1 X-44.585 Y52.941 E48.99419
G1 F2700 E45.49419
G1 Z1.3
G0 F9000 X-38.972 Y57.212 Z1.3
G1 Z.3
G1 F2700 E48.99419
G1 F1500 X-36.582 Y58.762 E49.17183
G1 X-35.411 Y59.521 E49.25886
G1 X-36.633 Y58.842 E49.26714
G1 X-38.972 Y57.212 E49.28391
G1 F2700 E45.78391
G1 Z1.3
G0 F9000 X-32.961 Y60.882 Z1.3
G1 Z.3
G1 F2700 E49.28391
G1 F1500 X-30.449 Y62.167 E49.45987
G1 X-29.15 Y62.831 E49.55085
G1 X-30.493 Y62.254 E49.5598
G1 X-32.961 Y60.882 E49.57694
G1 F2700 E46.07694
G1 Z1.3
G0 F9000 X-26.633 Y63.913 Z1.3
G1 Z.3
G1 F2700 E49.57694
G1 F1500 X-24.02 Y64.928 E49.75176
G1 X-22.612 Y65.475 E49.84596
G1 X-24.056 Y65.021 E49.85541
G1 X-26.633 Y63.913 E49.87282
G1 F2700 E46.37282
G1 Z1.3
G0 F9000 X-19.963 Y66.306 Z1.3
G1 Z.3
G1 F2700 E49.87282
G1 F1500 X-17.329 Y67.029 E50.04316
G1 X-15.838 Y67.438 E50.13957
G1 X-17.355 Y67.126 E50.14932
G1 X-19.963 Y66.306 E50.16642
G1 F2700 E46.66642
G1 Z1.3
G0 F9000 X-13.098 Y68.001 Z1.3
G1 Z.3
G1 F2700 E50.16642
G1 F1500 X-10.463 Y68.439 E50.333
G1 X-8.901 Y68.7 E50.43176
G1 X-10.48 Y68.539 E50.4419
G1 X-13.098 Y68.001 E50.45879
G1 F2700 E46.95879
G1 Z1.3
G0 F9000 X-6.117 Y68.984 Z1.3
G1 Z.3
G1 F2700 E50.45879
G1 F1500 X-3.502 Y69.147 E50.62219
G1 X-1.863 Y69.25 E50.7246
G1 X-3.508 Y69.25 E50.73531
G1 X-6.117 Y68.984 E50.75224
G1 F2700 E47.25224
G1 Z1.3
G0 F9000 X1.863 Y69.25 Z1.3
G1 Z.3
G1 F2700 E50.75224
G1 F1500 X3.5 Y69.148 E50.85452
G1 X6.117 Y68.984 E51.01805
G1 X3.508 Y69.25 E51.03476
G1 X1.863 Y69.25 E51.04542
G1 F2700 E47.54542
G1 Z1.3
G0 F9000 X8.901 Y68.7 Z1.3
G1 Z.3
G1 F2700 E51.04542
G1 F1500 X10.463 Y68.44 E51.14417
G1 X13.098 Y68.001 E51.31076
G1 X10.48 Y68.539 E51.32745
G1 X8.901 Y68.7 E51.33749
G1 F2700 E47.83749
G1 Z1.3
G0 F9000 X17.328 Y67.03 Z1.3
G1 Z.3
G1 F2700 E51.33749
G1 F1500 X19.963 Y66.306 E51.50791
G1 X17.355 Y67.126 E51.52481
G1 X15.838 Y67.438 E51.6214
G1 X17.328 Y67.03 E51.63085
G1 F2700 E48.13085
G1 Z1.3
G0 F9000 X24.019 Y64.929 Z1.3
G1 Z.3
G1 F2700 E51.63085
G1 F1500 X26.633 Y63.913 E51.80575
G1 X24.056 Y65.021 E51.82312
G1 X22.612 Y65.475 E51.91752
G1 X24.019 Y64.929 E51.92676
G1 F2700 E48.42676
G1 Z1.3
G0 F9000 X30.448 Y62.168 Z1.3
G1 Z.3
G1 F2700 E51.92676
G1 F1500 X32.961 Y60.882 E52.1028
G1 X30.493 Y62.254 E52.11991
G1 X29.15 Y62.831 E52.21107
G1 X30.448 Y62.168 E52.2198
G1 F2700 E48.7198
G1 Z1.3
G0 F9000 X36.58 Y58.763 Z1.3
G1 Z.3
G1 F2700 E52.2198
G1 F1500 X38.972 Y57.212 E52.39759
G1 X36.633 Y58.842 E52.41448
G1 X35.411 Y59.521 E52.50166
G1 X36.58 Y58.763 E52.50983
G1 F2700 E49.00983
G1 Z1.3
G0 F9000 X42.325 Y54.762 Z1.3
G1 Z.3
G1 F2700 E52.50983
G1 F1500 X44.585 Y52.941 E52.69083
G1 X42.384 Y54.834 E52.70772
G1 X41.286 Y55.599 E52.79117
G1 X42.325 Y54.762 E52.79886
G1 F2700 E49.29886
G1 Z1.3
G0 F9000 X47.648 Y50.189 Z1.3
G1 Z.3
G1 F2700 E52.79886
G1 F1500 X49.758 Y48.098 E52.98411
G1 X47.712 Y50.253 E53.00082
G1 X46.729 Y51.099 E53.0817
G1 X47.648 Y50.189 E53.0889
G1 F2700 E49.5889
G1 Z1.3
G0 F9000 X52.466 Y45.116 Z1.3
G1 Z.3
G1 F2700 E53.0889
G1 F1500 X54.382 Y42.785 E53.27707
G1 X52.537 Y45.172 E53.29397
G1 X51.673 Y46.081 E53.37218
G1 X52.466 Y45.116 E53.37911
G1 F2700 E49.87911
G1 Z1.3
G0 F9000 X56.771 Y39.551 Z1.3
G1 Z.3
G1 F2700 E53.37911
G1 F1500 X58.493 Y36.952 E53.57354
G1 X56.844 Y39.599 E53.59049
G1 X56.102 Y40.56 E53.6662
G1 X56.771 Y39.551 E53.67269
G1 F2700 E50.17269
G1 Z1.3
G0 F9000 X60.511 Y33.647 Z1.3
G1 Z.3
G1 F2700 E53.67269
G1 F1500 X63.368 Y27.893 E54.07332
G1 X60.542 Y33.661 E54.08691
G1 X60.353 Y33.965 E54.10923
G0 X60.511 Y33.647
G1 F2700 E50.60923
G1 Z1.3
G0 F9000 X63.613 Y27.323 Z1.3
G1 Z.3
G1 F2700 E54.10923
G1 F1500 X65.987 Y20.983 E54.53142
G1 X66.046 Y20.755 E54.54611
G1 X67.785 Y14.112 E54.97434
G1 X67.809 Y13.953 E54.98437
G1 X68.871 Y7.093 E55.41728
G1 X68.874 Y7.018 E55.42196
G1 X69.235 Y.00 E55.8602
G1 X68.875 Y-7.016 E56.29831
G1 X68.871 Y-7.093 E56.30312
G1 X67.81 Y-13.952 E56.73595
G1 X67.785 Y-14.112 E56.74605
G1 X66.047 Y-20.754 E57.17421
G1 X65.987 Y-20.983 E57.18897
G1 X63.614 Y-27.321 E57.61102
G1 X63.502 Y-27.619 E57.63088
G0 X63.642 Y-27.332
G1 X65.988 Y-20.984 E57.64396
G0 X66.071 Y-20.761
G1 X67.791 Y-14.114 E57.6572
G0 X67.832 Y-13.956
G1 X68.88 Y-7.095 E57.67062
G0 X68.892 Y-7.017
G1 X69.249 Y.00 E57.68424
G1 X68.892 Y7.017 E57.69832
G0 X68.881 Y7.094
G1 X67.832 Y13.956 E57.7126
G0 X67.792 Y14.112
G1 X66.071 Y20.761 E57.7264
G0 X65.989 Y20.983
G1 X63.642 Y27.332 E57.73985
G1 X63.502 Y27.619 E57.75976
G0 X63.613 Y27.323
G1 F2700 E54.25976
G1 Z1.3
G0 F9000 X-42.691 Y55.229 Z1.3
;TYPE:WALL-OUTER
G1 Z.3
G1 F2700 E57.75976
G1 F1500 X-48.059 Y50.614 E58.20123
G1 X-52.92 Y45.495 E58.64147
