;FLAVOR:Repetier
;TIME:102
;Generated with Cura_SteamEngine 2.3.1
M190 S60
M104 S210
M109 S210
G28 ;Home
G1 Z15.0 F6000 ;Move the platform down 15mm
;Prime the extruder
G92 E0
G1 F200 E3
G92 E0
;LAYER_COUNT:1
;LAYER:0
M107
G1 F2700 E-3.5
G1 Z21
G0 F9000 X1.623 Y1.61 Z1.3
;TYPE:WALL-INNER
G1 Z.3
G1 F2700 E0
G1 F1500 X1.323 Y1.865 E0.02455
G1 X.981 Y2.066 E0.04929
G1 X.62 Y2.201 E0.07333
G1 X.00 Y2.318 E0.11268
G1 X-.62 Y2.201 E0.15202
G1 X-.981 Y2.066 E0.17606
G1 X-1.323 Y1.865 E0.2008
G1 X-1.623 Y1.61 E0.22535
G1 X-1.88 Y1.305 E0.25022
G1 X-2.067 Y.98 E0.27361
G1 X-2.208 Y.593 E0.29929
G1 X-2.277 Y.211 E0.3235
G1 X-2.281 Y-.18 E0.34789
G1 X-2.216 Y-.564 E0.37218
G1 X-2.007 Y-1.161 E0.41162
G1 X-1.601 Y-1.634 E0.4505
G1 X-1.291 Y-1.888 E0.47549
G1 X-.959 Y-2.076 E0.49928
G1 X-.585 Y-2.211 E0.52408
G1 X-.195 Y-2.278 E0.54876
G1 X.192 Y-2.278 E0.57289
G1 X.585 Y-2.209 E0.59777
G1 X.963 Y-2.074 E0.62281
G1 X1.291 Y-1.888 E0.64632
G1 X1.601 Y-1.634 E0.67131
G1 X2.007 Y-1.161 E0.71019
G1 X2.216 Y-.564 E0.74963
G1 X2.281 Y-.18 E0.77392
G1 X2.277 Y.211 E0.79831
G1 X2.208 Y.593 E0.82252
G1 X2.067 Y.98 E0.8482
G1 X1.88 Y1.305 E0.87158
G1 X1.623 Y1.61 E0.89646
G0 F9000 X1.98 Y1.963
G1 F1500 X1.613 Y2.275 E0.9265
G1 X1.2 Y2.518 E0.95638
G1 X.755 Y2.684 E0.986
G1 X.00 Y2.826 E1.03391
G1 X-.755 Y2.684 E1.08182
G1 X-1.2 Y2.518 E1.11144
G1 X-1.613 Y2.275 E1.14132
G1 X-1.98 Y1.963 E1.17136
G1 X-2.288 Y1.597 E1.20119
G1 X-2.524 Y1.187 E1.2307
G1 X-2.692 Y.727 E1.26124
G1 X-2.777 Y.258 E1.29096
G1 X-2.781 Y-.219 E1.32071
G1 X-2.702 Y-.691 E1.35055
G1 X-2.448 Y-1.414 E1.39834
G1 X-1.951 Y-1.993 E1.44593
G1 X-1.577 Y-2.301 E1.47614
G1 X-1.168 Y-2.532 E1.50544
G1 X-.711 Y-2.697 E1.53574
G1 X-.238 Y-2.778 E1.56566
G1 X.238 Y-2.778 E1.59535
G1 X.713 Y-2.695 E1.62542
G1 X1.168 Y-2.532 E1.65556
G1 X1.577 Y-2.301 E1.68485
G1 X1.951 Y-1.993 E1.71507
G1 X2.448 Y-1.414 E1.76266
G1 X2.702 Y-.691 E1.81044
G1 X2.781 Y-.219 E1.84029
G1 X2.777 Y.258 E1.87004
G1 X2.692 Y.727 E1.89976
G1 X2.524 Y1.187 E1.9303
G1 X2.288 Y1.597 E1.9598
G1 X1.98 Y1.963 E1.98964
G1 F2700 E-1.51036
G1 Z1.3
G0 F9000 X41.93 Y-3.242 Z1.3
;TYPE:WALL-OUTER
G1 Z.3
G1 F2700 E1.98964
G1 F1500 X41.79 Y-4.169 E2.0481
G1 X41.012 Y-9.305 E2.37205
G1 X40.832 Y-9.895 E2.41052
G1 X39.223 Y-15.169 E2.75439
G1 X39.095 Y-15.44 E2.77308
G1 X36.49 Y-20.94 E3.1526
G1 X2.924 Y-1.568 E5.56947
G1 X3.187 Y-.819 E5.61897
G1 X3.281 Y-.257 E5.65451
G1 X3.277 Y.305 E5.68956
G1 X3.176 Y.861 E5.7248
G1 X2.98 Y1.397 E5.76039
G1 X2.7 Y1.883 E5.79537
G1 X2.337 Y2.316 E5.8306
G1 X1.902 Y2.685 E5.86618
G1 X1.415 Y2.971 E5.9014
G1 X.887 Y3.169 E5.93657
G1 X.104 Y3.315 E5.98624
G1 X.104 Y42.061 E8.40254
G1 X6.163 Y41.567 E8.78165
G1 X6.469 Y41.542 E8.8008
G1 X11.843 Y40.298 E9.1448
G1 X12.444 Y40.159 E9.18327
G1 X17.286 Y38.263 E9.50755
G1 X18.155 Y37.922 E9.56577
G1 X22.391 Y35.502 E9.87001
G1 X23.48 Y34.879 E9.94825
G1 X27.079 Y32.056 E10.2335
G1 X28.305 Y31.094 E10.33069
G1 X31.233 Y28.011 E10.59584
G1 X32.528 Y26.648 E10.71309
G1 X34.799 Y23.425 E10.95897
G1 X36.193 Y21.446 E11.10993
G1 X35.908 Y21.244 E11.13172
G1 X35.88 Y21.216 E11.13419
G1 X35.849 Y21.184 E11.13696
G1 X35.808 Y21.125 E11.14144
G1 X35.774 Y21.05 E11.14658
G1 X35.753 Y20.971 E11.15168
G1 X35.747 Y20.893 E11.15656
G1 X35.754 Y20.813 E11.16156
G1 X35.774 Y20.738 E11.1664
G1 X35.807 Y20.668 E11.17123
G1 X35.852 Y20.604 E11.17611
G1 X35.91 Y20.546 E11.18123
G1 X35.978 Y20.498 E11.18642
G1 X36.043 Y20.467 E11.19091
G1 X36.124 Y20.445 E11.19614
G1 X36.202 Y20.438 E11.20103
G1 X36.278 Y20.444 E11.20578
G1 X36.319 Y20.455 E11.20843
G1 X36.355 Y20.464 E11.21074
G1 X36.675 Y20.609 E11.23265
G1 X37.691 Y18.416 E11.38338
G1 X39.35 Y14.836 E11.62944
G1 X39.884 Y13.032 E11.74677
G1 X41.09 Y8.957 E12.01179
G1 X41.309 Y7.418 E12.10874
G1 X41.956 Y2.887 E12.39417
G1 X41.951 Y1.638 E12.47206
G1 X41.93 Y-3.242 E12.77639
G1 F2700 E9.27639
G1 Z1.3
G0 F9000 X-41.012 Y-9.305 Z1.3
G1 Z.3
G1 F2700 E12.77639
G1 F1500 X-41.789 Y-4.171 E13.10021
G1 X-41.93 Y-3.242 E13.15881
G1 X-41.95 Y1.637 E13.46308
G1 X-41.956 Y2.887 E13.54103
G1 X-41.31 Y7.416 E13.82633
G1 X-41.09 Y8.957 E13.92341
G1 X-39.885 Y13.03 E14.18829
G1 X-39.35 Y14.836 E14.30576
G1 X-37.692 Y18.415 E14.55174
G1 X-36.675 Y20.609 E14.70255
G1 X-36.355 Y20.464 E14.72446
G1 X-36.317 Y20.455 E14.7269
G1 X-36.278 Y20.444 E14.72942
G1 X-36.202 Y20.438 E14.73418
G1 X-36.124 Y20.445 E14.73906
G1 X-36.043 Y20.467 E14.74429
G1 X-35.978 Y20.498 E14.74879
G1 X-35.91 Y20.546 E14.75398
G1 X-35.852 Y20.604 E14.75909
G1 X-35.807 Y20.668 E14.76397
G1 X-35.774 Y20.738 E14.7688
G1 X-35.754 Y20.813 E14.77364
G1 X-35.747 Y20.893 E14.77865
G1 X-35.753 Y20.971 E14.78352
G1 X-35.774 Y21.05 E14.78862
G1 X-35.808 Y21.125 E14.79376
G1 X-35.849 Y21.184 E14.79824
G1 X-35.88 Y21.215 E14.80097
G1 X-35.908 Y21.244 E14.80349
G1 X-36.193 Y21.446 E14.82527
G1 X-34.8 Y23.424 E14.97614
G1 X-32.528 Y26.648 E15.22211
G1 X-31.234 Y28.011 E15.33932
G1 X-28.305 Y31.094 E15.60452
G1 X-27.08 Y32.055 E15.70161
G1 X-23.48 Y34.879 E15.98695
G1 X-22.393 Y35.5 E16.06502
G1 X-18.155 Y37.922 E16.36943
G1 X-17.287 Y38.262 E16.42757
G1 X-12.444 Y40.159 E16.75193
G1 X-11.843 Y40.298 E16.7904
G1 X-6.469 Y41.542 E17.1344
G1 X-6.165 Y41.566 E17.15342
G1 X-.104 Y42.061 E17.53266
G1 X-.104 Y3.315 E18.53784
G1 X-.887 Y3.169 E18.58751
G1 X-1.415 Y2.971 E18.62268
G1 X-1.902 Y2.685 E18.6579
G1 X-2.337 Y2.316 E18.69347
G1 X-2.7 Y1.883 E18.72871
G1 X-2.98 Y1.397 E18.76369
G1 X-3.176 Y.861 E18.79928
G1 X-3.277 Y.305 E18.83452
G1 X-3.281 Y-.257 E18.86957
G1 X-3.187 Y-.819 E18.90511
G1 X-2.924 Y-1.568 E18.95461
G1 X-36.49 Y-20.94 E21.37148
G1 X-39.094 Y-15.441 E21.75092
G1 X-39.223 Y-15.169 E21.76969
G1 X-40.832 Y-9.895 E22.11356
G1 X-41.012 Y-9.305 E22.15203
G1 F2700 E18.65203
G1 Z1.3
G0 F9000 X18.476 Y-37.767 Z1.3
G1 Z.3
G1 F2700 E22.15203
G1 F1500 X14.23 Y-39.471 E22.43735
G1 X12.784 Y-40.052 E22.53453
G1 X8.654 Y-41.044 E22.79941
G1 X6.821 Y-41.485 E22.91699
G1 X2.893 Y-41.838 E23.16294
G1 X.483 Y-42.056 E23.31384
G1 X.449 Y-41.705 E23.33584
G1 X.439 Y-41.67 E23.33811
G1 X.43 Y-41.637 E23.34024
G1 X.394 Y-41.561 E23.34548
G1 X.347 Y-41.494 E23.35059
G1 X.289 Y-41.436 E23.3557
G1 X.228 Y-41.395 E23.36029
G1 X.155 Y-41.36 E23.36533
G1 X.08 Y-41.34 E23.37017
G1 X.00 Y-41.334 E23.37518
G1 X-.08 Y-41.34 E23.38018
G1 X-.155 Y-41.36 E23.38502
G1 X-.228 Y-41.395 E23.39007
G1 X-.289 Y-41.436 E23.39465
G1 X-.347 Y-41.494 E23.39977
G1 X-.394 Y-41.561 E23.40487
G1 X-.43 Y-41.637 E23.41012
G1 X-.439 Y-41.67 E23.41225
G1 X-.449 Y-41.705 E23.41452
G1 X-.483 Y-42.056 E23.43651
G1 X-2.893 Y-41.839 E23.58741
G1 X-6.821 Y-41.485 E23.83337
G1 X-8.653 Y-41.045 E23.95087
G1 X-12.784 Y-40.052 E24.21582
G1 X-14.229 Y-39.472 E24.31293
G1 X-18.476 Y-37.767 E24.59833
G1 X-19.552 Y-37.14 E24.67599
G1 X-23.775 Y-34.679 E24.98081
G1 X-24.507 Y-34.095 E25.0392
G1 X-28.567 Y-30.853 E25.36322
G1 X-28.986 Y-30.404 E25.40151
G1 X-32.753 Y-26.371 E25.74567
G1 X-32.929 Y-26.116 E25.76499
G1 X-36.386 Y-21.12 E26.14387
G1 X-2.82 Y-1.748 E27.1445
G1 X-2.301 Y-2.352 E27.19416
G1 X-1.863 Y-2.713 E27.22955
G1 X-1.374 Y-2.99 E27.2646
G1 X-.84 Y-3.182 E27.29999
G1 X-.282 Y-3.278 E27.3353
G1 X.284 Y-3.278 E27.3706
G1 X.841 Y-3.181 E27.40586
G1 X1.374 Y-2.99 E27.44117
G1 X1.863 Y-2.713 E27.47621
G1 X2.301 Y-2.352 E27.51161
G1 X2.82 Y-1.748 E27.56127
G1 X36.386 Y-21.12 E28.56189
G1 X32.931 Y-26.114 E28.9406
G1 X32.753 Y-26.371 E28.9601
G1 X28.987 Y-30.403 E29.30417
G1 X28.567 Y-30.853 E29.34255
G1 X24.509 Y-34.093 E29.66639
G1 X23.775 Y-34.679 E29.72496
G1 X19.554 Y-37.139 E30.02964
G1 X18.476 Y-37.767 E30.10744
G1 F2700 E26.60744
G1 Z1.3
G0 F9000 X23.854 Y-34.808 Z1.3
G1 Z.3
G1 F2700 E30.10744
G1 F1500 X24.673 Y-34.301 E30.13286
G1 X28.674 Y-30.983 E30.27297
G1 X29.169 Y-30.573 E30.29021
G1 X32.89 Y-26.496 E30.43964
G0 X33.119 Y-26.245
G1 X36.554 Y-21.237 E30.60364
G1 X36.564 Y-21.223 E30.60472
G1 X52.068 Y-30.172 E31.72109
G1 X52.237 Y-30.269 E31.73325
G1 X52.916 Y-30.661 E31.78214
G1 X52.984 Y-30.797 E31.79162
G1 X52.984 Y-33.041 E31.93156
G1 X53.494 Y-33.041 E31.96337
G1 X53.494 Y-31.426 E32.06408
G1 X53.494 Y-31.425 E32.06415
G1 X53.494 Y-30.994 E32.09103
G1 X53.868 Y-31.209 E32.10629
G1 X72.971 Y-42.237 E33.48186
G1 X73.199 Y-42.368 E33.49826
G1 X73.124 Y-42.483 E33.50683
G1 X73.055 Y-42.588 E33.51466
G1 X72.708 Y-43.118 E33.55417
G1 X70.077 Y-47.136 E33.85368
G1 X68.271 Y-49.893 E34.05922
G1 X64.854 Y-54.092 E34.39683
G1 X62.752 Y-56.675 E34.60451
G1 X58.95 Y-60.467 E34.93938
G1 X56.561 Y-62.85 E35.14982
G1 X52.416 Y-66.207 E35.48245
G1 X49.766 Y-68.353 E35.69511
G1 X45.329 Y-71.244 E36.02536
G1 X42.439 Y-73.127 E36.24047
G1 X37.755 Y-75.528 E36.56872
G1 X34.657 Y-77.116 E36.78582
G1 X29.79 Y-79.005 E37.1114
G1 X26.504 Y-80.282 E37.33126
G1 X21.511 Y-81.648 E37.65408
G1 X18.068 Y-82.59 E37.87668
G1 X12.996 Y-83.426 E38.19725
G1 X9.44 Y-84.013 E38.42202
G1 X4.339 Y-84.319 E38.7407
G1 X.481 Y-84.552 E38.98173
G1 X.466 Y-84.386 E38.99213
G1 X.45 Y-84.208 E39.00327
G1 X.43 Y-84.136 E39.00793
G1 X.396 Y-84.063 E39.01296
G1 X.349 Y-83.997 E39.01801
G1 X.293 Y-83.941 E39.02295
G1 X.225 Y-83.893 E39.02814
G1 X.156 Y-83.861 E39.03288
G1 X.078 Y-83.841 E39.0379
G1 X.00 Y-83.834 E39.04279
G1 X-.078 Y-83.841 E39.04767
G1 X-.156 Y-83.861 E39.05269
G1 X-.225 Y-83.893 E39.05744
G1 X-.293 Y-83.941 E39.06263
G1 X-.349 Y-83.997 E39.06757
G1 X-.396 Y-84.063 E39.07262
G1 X-.43 Y-84.136 E39.07764
G1 X-.45 Y-84.208 E39.0823
G1 X-.466 Y-84.386 E39.09345
G1 X-.481 Y-84.552 E39.10384
G1 X-4.337 Y-84.321 E39.34474
G1 X-9.44 Y-84.013 E39.66356
G1 X-12.995 Y-83.427 E39.88825
G1 X-18.068 Y-82.59 E40.20889
G1 X-21.509 Y-81.649 E40.43136
G1 X-26.504 Y-80.282 E40.75432
G1 X-29.789 Y-79.007 E40.97407
G1 X-34.657 Y-77.116 E41.29975
G1 X-37.755 Y-75.528 E41.51686
G1 X-42.439 Y-73.127 E41.8451
G1 X-45.327 Y-71.245 E42.06007
G1 X-49.766 Y-68.353 E42.39047
G1 X-52.416 Y-66.207 E42.60312
G1 X-56.561 Y-62.85 E42.93576
G1 X-58.949 Y-60.468 E43.1461
G1 X-62.752 Y-56.675 E43.48107
G1 X-64.854 Y-54.092 E43.68875
G1 X-68.271 Y-49.893 E44.02636
G1 X-70.075 Y-47.138 E44.23172
G1 X-73.199 Y-42.368 E44.58731
G1 X-54.303 Y-31.462 E45.94791
G1 X-54.032 Y-31.748 E45.97248
G1 X-54.836 Y-32.983 E46.06438
G1 X-55.012 Y-33.254 E46.08453
G1 X-54.42 Y-33.254 E46.10532
G1 X-53.616 Y-32.019 E46.19648
G1 X-52.988 Y-31.054 E46.26828
G1 X-51.554 Y-33.254 E46.43205
G1 X-50.96 Y-33.254 E46.4691
G1 X-51.137 Y-32.983 E46.4731
G1 X-52.572 Y-30.783 E46.63576
G1 X-52.724 Y-30.55 E46.65311
G1 X-51.534 Y-29.863 E46.7388
G1 X-36.564 Y-21.223 E47.8167
G1 X-36.556 Y-21.235 E47.81733
G1 X-33.119 Y-26.245 E47.98183
G1 X-32.891 Y-26.495 E47.98699
G1 X-29.169 Y-30.573 E48.13647
G1 X-28.675 Y-30.982 E48.15369
G1 X-24.673 Y-34.301 E48.29384
G1 X-23.855 Y-34.807 E48.31918
G1 X-19.694 Y-37.381 E48.45017
G1 X-18.532 Y-37.893 E48.4836
G1 X-14.338 Y-39.743 E48.60637
G1 X-12.82 Y-40.174 E48.64807
G1 X-8.724 Y-41.338 E48.76192
G1 X-6.838 Y-41.601 E48.81201
G1 X-2.921 Y-42.148 E48.91758
G1 X-.483 Y-42.148 E48.97915
G0 X-.449 Y-42.148
G1 X-.412 Y-42.148 E48.98135
G1 X.412 Y-42.148 E49.03274
G1 X.449 Y-42.148 E49.03495
G0 X.483 Y-42.148
G1 X2.921 Y-42.148 E49.09667
G1 X6.837 Y-41.602 E49.20264
G1 X8.724 Y-41.338 E49.25298
G1 X12.819 Y-40.175 E49.36705
G1 X14.338 Y-39.743 E49.40877
G1 X18.532 Y-37.894 E49.53184
G1 X19.694 Y-37.381 E49.56536
G1 X23.854 Y-34.808 E49.69664
G1 F2700 E46.19664
G1 Z1.3
G0 F9000 X73.022 Y41.688 Z1.3
G1 Z.3
G1 F2700 E49.69664
G1 F1500 X73.101 Y41.694 E49.70158
G1 X73.152 Y41.708 E49.70488
G1 X73.172 Y41.713 E49.70616
G1 X73.49 Y41.857 E49.72793
G1 X76.521 Y35.793 E50.15071
G1 X77.501 Y33.833 E50.28737
G1 X79.796 Y27.738 E50.69352
G1 X80.583 Y25.651 E50.83262
G1 X82.225 Y19.392 E51.23615
G1 X82.802 Y17.194 E51.37787
G1 X83.783 Y10.833 E51.77925
G1 X84.135 Y8.554 E51.92306
G1 X84.452 Y2.17 E52.32167
G1 X84.569 Y-.178 E52.46828
G1 X84.228 Y-6.524 E52.86461
G1 X84.099 Y-8.907 E53.01344
G1 X83.109 Y-15.15 E53.40763
G1 X82.729 Y-17.542 E53.55867
G1 X81.11 Y-23.607 E53.95015
G1 X80.474 Y-25.989 E54.1039
G1 X78.25 Y-31.821 E54.49315
G1 X77.359 Y-34.158 E54.64912
G1 X74.564 Y-39.692 E55.03576
G1 X73.303 Y-42.187 E55.2101
G1 X73.184 Y-42.118 E55.21868
G1 X73.077 Y-42.057 E55.22636
G1 X53.972 Y-31.029 E56.60204
G1 X53.599 Y-30.814 E56.62105
G1 X53.511 Y-30.763 E56.62739
G1 X54.774 Y-28.281 E56.80107
G1 X54.958 Y-27.919 E56.82639
G1 X54.552 Y-27.919 E56.84092
G1 X54.551 Y-27.919 E56.84098
G1 X54.396 Y-27.919 E56.85065
G1 X53.478 Y-29.722 E56.97683
G1 X53.392 Y-29.891 E56.98865
G1 X53.086 Y-29.891 E57.00773
G1 X53 Y-29.722 E57.01956
G1 X52.082 Y-27.919 E57.14573
G1 X51.927 Y-27.919 E57.1554
G1 X51.926 Y-27.919 E57.15546
G1 X51.52 Y-27.919 E57.18078
G1 X51.704 Y-28.281 E57.19532
G1 X52.443 Y-29.735 E57.29703
G1 X52.314 Y-29.858 E57.30815
G1 X52.173 Y-29.992 E57.31743
G1 X36.669 Y-21.043 E57.78188
G1 X36.675 Y-21.03 E57.78277
G1 X39.301 Y-15.538 E57.94717
G1 X39.4 Y-15.226 E57.95205
G1 X41.07 Y-9.968 E58.10106
G1 X41.178 Y-9.335 E58.11823
G1 X42.052 Y-4.21 E58.25867
G1 X42.081 Y-3.248 E58.28415
G1 X42.231 Y1.636 E58.41561
G1 X42.094 Y2.901 E58.44927
G1 X41.599 Y7.458 E58.57231
G1 X41.214 Y8.988 E58.61402
G1 X40.175 Y13.117 E58.72836
G1 X39.46 Y14.88 E58.77876
G1 X37.973 Y18.546 E58.88458
G1 X36.756 Y20.656 E58.94623
G0 X36.739 Y20.685
G1 X36.721 Y20.717 E58.94841
G1 X36.309 Y21.43 E58.99977
G1 X36.289 Y21.464 E59.00211
G0 X36.272 Y21.492
G1 X35.052 Y23.603 E59.06336
G1 X32.622 Y26.72 E59.16882
G1 X31.453 Y28.22 E59.2192
G1 X28.394 Y31.186 E59.3339
G1 X27.26 Y32.285 E59.37562
G1 X23.562 Y34.99 E59.49834
G1 X22.531 Y35.745 E59.53212
G1 X18.228 Y38.056 E59.66382
G1 X17.383 Y38.51 E59.68929
G1 X12.503 Y40.316 E59.82954
G1 X11.899 Y40.54 E59.84676
G1 X6.508 Y41.722 E59.99552
G1 X6.182 Y41.794 E59.9967
G1 X.12 Y42.265 E60.16015
G1 X.104 Y42.267 E60.16115
G1 X.104 Y60.812 E61.31767
G1 X1.371 Y60.812 E61.39668
G1 X1.371 Y61.321 E61.42843
G1 X-.249 Y61.321 E61.52945
G1 X-.25 Y61.321 E61.52952
G1 X-.63 Y61.321 E61.55321
G1 X-.478 Y61.67 E61.56702
G1 X.924 Y64.882 E61.78558
G1 X1.075 Y65.23 E61.80924
G1 X1.383 Y65.934 E61.85716
G1 X.104 Y65.934 E61.93692
G1 X.104 Y84.554 E63.09812
G1 X8.706 Y84.074 E63.63539
G1 X9.087 Y84.052 E63.65919
G1 X17.301 Y82.733 E64.178
G1 X17.721 Y82.665 E64.20454
G1 X25.725 Y80.512 E64.72143
G1 X26.166 Y80.393 E64.74992
G1 X33.863 Y77.443 E65.26397
G1 X34.333 Y77.262 E65.29538
G1 X41.656 Y73.545 E65.80752
G1 X42.131 Y73.304 E65.84074
G1 X48.994 Y68.874 E66.35016
G1 X49.478 Y68.562 E66.38607
G1 X55.819 Y63.471 E66.89319
G1 X56.297 Y63.087 E66.93143
G1 X62.046 Y57.4 E67.43573
G1 X62.513 Y56.938 E67.4767
G1 X67.621 Y50.715 E67.97877
G1 X68.061 Y50.18 E68.02197
G1 X72.474 Y43.499 E68.5213
G1 X73.008 Y42.692 E68.58165
G1 X72.726 Y42.493 E68.60318
G1 X72.724 Y42.491 E68.60335
G1 X72.667 Y42.434 E68.60838
G1 X72.628 Y42.377 E68.61269
G1 X72.591 Y42.298 E68.61813
G1 X72.571 Y42.225 E68.62285
G1 X72.565 Y42.144 E68.62791
G1 X72.572 Y42.064 E68.63292
G1 X72.592 Y41.991 E68.63764
G1 X72.629 Y41.912 E68.64308
G1 X72.668 Y41.855 E68.64739
G1 X72.727 Y41.796 E68.65259
G1 X72.795 Y41.748 E68.65778
G1 X72.867 Y41.715 E68.66272
G1 X72.94 Y41.695 E68.66744
G1 X73.022 Y41.688 E68.67257
G1 F2700 E65.17257
G1 Z1.3
G0 F9000 X-74.563 Y-39.693 Z1.3
G1 Z.3
G1 F2700 E68.67257
G1 F1500 X-77.359 Y-34.158 E69.05929
G1 X-78.249 Y-31.822 E69.21519
G1 X-80.474 Y-25.989 E69.60451
G1 X-81.11 Y-23.607 E69.75827
G1 X-82.729 Y-17.542 E70.14974
G1 X-83.108 Y-15.152 E70.30065
G1 X-84.099 Y-8.907 E70.69498
G1 X-84.227 Y-6.525 E70.84374
G1 X-84.569 Y-.178 E71.24013
G1 X-84.453 Y2.17 E71.38674
G1 X-84.135 Y8.554 E71.78535
G1 X-83.784 Y10.831 E71.92903
G1 X-82.802 Y17.194 E72.33054
G1 X-82.226 Y19.39 E72.47213
G1 X-80.583 Y25.651 E72.8758
G1 X-79.798 Y27.736 E73.01474
G1 X-77.501 Y33.833 E73.42105
G1 X-76.522 Y35.792 E73.55762
G1 X-73.49 Y41.857 E73.98048
G1 X-73.172 Y41.713 E74.00225
G1 X-73.151 Y41.708 E74.0036
G1 X-73.101 Y41.694 E74.00684
G1 X-73.022 Y41.688 E74.01178
G1 X-72.94 Y41.695 E74.01691
G1 X-72.867 Y41.715 E74.02163
G1 X-72.795 Y41.748 E74.02657
