;FLAVOR:Repetier
;TIME:392
;Generated with Cura_SteamEngine master
M190 S60
M104 S200
M109 S200
G28

;LAYER_COUNT:3
;LAYER:0
M107
G1 F2700 E-3.5
G1 Z21
G0 F9000 X65.58 Y-4.211 Z1.3
G0 X65.59 Y-4.073 Z1.3
;TYPE:SKIRT
G1 Z0.3
G1 F2700 E0
G1 F1500 X65.729 Y-.825 E0.20274
G1 X65.731 Y-.687 E0.21135
G1 X65.656 Y3.287 E0.45922
G1 X65.644 Y3.476 E0.47103
G1 X64.971 Y10.002 E0.88017
G1 X64.935 Y10.231 E0.89462
G1 X63.6 Y16.624 E1.30191
G1 X63.541 Y16.849 E1.31642
G1 X61.551 Y23.079 E1.72427
G1 X61.47 Y23.295 E1.73866
G1 X58.852 Y29.285 E2.14633
G1 X58.748 Y29.492 E2.16078
G1 X55.527 Y35.185 E2.5687
G1 X55.403 Y35.381 E2.58316
G1 X51.614 Y40.709 E2.99088
G1 X51.47 Y40.89 E3.00531
G1 X47.164 Y45.789 E3.41206
G1 X46.998 Y45.959 E3.42688
G1 X42.001 Y50.562 E3.85057
G1 X41.825 Y50.708 E3.86483
G1 X36.778 Y54.486 E4.25799
G1 X36.588 Y54.614 E4.27228
G1 X31.001 Y57.967 E4.67863
G1 X30.792 Y58.078 E4.69339
G1 X24.627 Y60.945 E5.11739
G1 X24.409 Y61.033 E5.13205
G1 X18.245 Y63.15 E5.5385
G1 X18.029 Y63.212 E5.55251
G1 X11.917 Y64.648 E5.94405
G1 X11.685 Y64.69 E5.95875
G1 X4.937 Y65.546 E6.38295
G1 X4.709 Y65.563 E6.39721
G1 X-1.588 Y65.716 E6.79002
G1 X-1.816 Y65.71 E6.80425
G1 X-8.307 Y65.209 E7.21025
G1 X-8.537 Y65.18 E7.2247
G1 X-14.995 Y64.004 E7.63407
G1 X-15.221 Y63.95 E7.64856
G1 X-21.482 Y62.128 E8.05521
G1 X-21.711 Y62.048 E8.07033
G1 X-28.157 Y59.389 E8.50518
G1 X-28.371 Y59.287 E8.51997
G1 X-34.154 Y56.153 E8.93016
G1 X-34.346 Y56.036 E8.94419
G1 X-39.554 Y52.5 E9.33676
G1 X-39.738 Y52.361 E9.35114
G1 X-44.748 Y48.149 E9.75932
G1 X-44.914 Y47.995 E9.77344
G1 X-49.305 Y43.477 E10.16634
G1 X-49.455 Y43.306 E10.18053
G1 X-53.505 Y38.191 E10.5874
G1 X-53.643 Y37.996 E10.6023
G1 X-57.283 Y32.236 E11.02722
G1 X-57.395 Y32.037 E11.04146
G1 X-60.189 Y26.429 E11.43219
G1 X-60.247 Y26.303 E11.44084
G1 X-60.338 Y26.088 E11.4554
G1 X-60.373 Y26.002 E11.46119
G1 X-62.592 Y20.09 E11.855
G1 X-62.661 Y19.871 E11.86932
G1 X-64.325 Y13.545 E12.27724
G1 X-64.372 Y13.319 E12.29164
G1 X-65.377 Y6.862 E12.69916
G1 X-65.401 Y6.632 E12.71358
G1 X-65.737 Y0.112 E13.12073
G1 X-65.737 Y-.12 E13.1352
G1 X-65.4 Y-6.644 E13.54259
G1 X-65.374 Y-6.889 E13.55796
G1 X-64.232 Y-13.905 E14.00125
G1 X-64.183 Y-14.131 E14.01568
G1 X-62.527 Y-20.263 E14.41178
G1 X-62.457 Y-20.479 E14.42594
G1 X-60.173 Y-26.457 E14.82503
G1 X-60.08 Y-26.668 E14.83941
G1 X-57.132 Y-32.507 E15.24733
G1 X-57.02 Y-32.703 E15.2614
G1 X-53.638 Y-38.003 E15.65349
G1 X-53.505 Y-38.189 E15.66775
G1 X-49.477 Y-43.279 E16.07254
G1 X-49.32 Y-43.457 E16.08734
G1 X-44.528 Y-48.349 E16.5144
G1 X-44.36 Y-48.505 E16.5287
G1 X-39.545 Y-52.511 E16.91931
G1 X-39.362 Y-52.648 E16.93357
G1 X-33.944 Y-56.294 E17.34083
G1 X-33.736 Y-56.418 E17.35593
G1 X-27.58 Y-59.66 E17.78982
G1 X-27.366 Y-59.759 E17.80453
G1 X-21.287 Y-62.184 E18.21268
G1 X-21.065 Y-62.259 E18.2273
G1 X-14.723 Y-64.053 E18.63832
G1 X-14.505 Y-64.103 E18.65227
G1 X-8.292 Y-65.207 E19.0458
G1 X-8.062 Y-65.236 E19.06025
G1 X-1.537 Y-65.714 E19.46826
G1 X-1.306 Y-65.719 E19.48267
G1 X5.198 Y-65.526 E19.88846
G1 X5.428 Y-65.507 E19.90285
G1 X11.92 Y-64.642 E20.31129
G1 X12.149 Y-64.6 E20.3258
G1 X18.535 Y-63.065 E20.7354
G1 X18.751 Y-63.001 E20.74945
G1 X24.662 Y-60.935 E21.13994
G1 X24.874 Y-60.849 E21.15421
G1 X30.808 Y-58.071 E21.56281
G1 X31.013 Y-57.962 E21.57729
G1 X36.597 Y-54.608 E21.98351
G1 X36.789 Y-54.479 E21.99794
G1 X42.025 Y-50.549 E22.40622
G1 X42.202 Y-50.4 E22.42064
G1 X46.988 Y-45.97 E22.82735
G1 X47.15 Y-45.805 E22.84177
G1 X51.468 Y-40.894 E23.24958
G1 X51.615 Y-40.707 E23.26441
G1 X55.549 Y-35.141 E23.68947
G1 X55.675 Y-34.942 E23.70416
G1 X58.871 Y-29.238 E24.11191
G1 X58.973 Y-29.03 E24.12636
G1 X61.557 Y-23.049 E24.53267
G1 X61.638 Y-22.833 E24.54706
G1 X63.601 Y-16.604 E24.95435
G1 X63.658 Y-16.386 E24.9684
G1 X64.939 Y-10.219 E25.3612
G1 X64.974 Y-9.995 E25.37534
G1 X65.58 Y-4.211 E25.73802
G1 X65.59 Y-4.073 E25.74665
G1 F2700 E22.24665
G1 Z1.3
G0 F9000 X0.35 Y-.2 Z1.3
;TYPE:WALL-INNER
G1 Z0.3
G1 F2700 E25.74665
G1 F1500 X0.35 Y-0.029 E25.75731
G0 X0.277 Y-0.071
G1 X-0.076 Y-.275 E25.78077
G1 X-.149 Y-.317 E25.78602
G0 X-0.001 Y-.404
G1 X0.35 Y-.2 E25.78813
G0 F9000 X-.201 Y-.201
G1 F1500 X-.201 Y0.201 E25.80787
G1 X-.201 Y0.287 E25.81323
G0 X-.35 Y0.201
G0 X-.35 Y-.201
G1 X-.201 Y-.287 E25.82201
G0 X-.201 Y-.201
G1 F2700 E22.32201
G1 Z1.3
G0 F9000 X-0.011 Y-32.632 Z1.3
G1 Z0.3
G1 F2700 E25.82201
G1 F1500 X-1.062 Y-32.815 E25.88854
G1 X-1.262 Y-32.849 E25.90119
G1 X-2.005 Y-33.109 E25.95028
G1 X-2.122 Y-33.173 E25.95859
G1 X-2.225 Y-33.229 E25.96591
G0 X-2.093 Y-33.292
G0 X-2.046 Y-33.314
G0 X-2.005 Y-33.314
G1 X-1.262 Y-33.314 E25.99672
G1 X-1.059 Y-33.314 E26.00894
G1 X0.934 Y-33.314 E26.13323
G1 X1.233 Y-33.314 E26.15188
G1 X1.696 Y-33.314 E26.18075
G1 X1.805 Y-33.08 E26.19685
G0 X1.785 Y-33.073
G1 X1.233 Y-32.871 E26.22379
G1 X0.94 Y-32.815 E26.24134
G1 X-0.011 Y-32.632 E26.30173
G1 F2700 E22.80173
G1 Z1.3
G0 F9000 X0.943 Y-41.737 Z1.3
G1 Z0.3
G1 F2700 E26.30173
G1 F1500 X-1.055 Y-41.737 E26.42633
G1 X-1.252 Y-41.737 E26.43862
G1 X-1.686 Y-41.737 E26.46568
G1 X-1.814 Y-42.011 E26.48454
G0 X-1.784 Y-42.021
G1 X-1.252 Y-42.203 E26.51244
G1 X-1.058 Y-42.236 E26.52429
G1 X-0.01 Y-42.418 E26.59063
G1 X0.948 Y-42.236 E26.65144
G1 X1.224 Y-42.184 E26.66896
G1 X1.766 Y-41.988 E26.7049
G1 X1.944 Y-41.923 E26.71672
G1 X1.995 Y-41.895 E26.72034
G0 X1.966 Y-41.881
G0 X1.675 Y-41.737
G1 X1.224 Y-41.737 E26.73941
G1 X0.943 Y-41.737 E26.75601
G0 F9000 X0.299 Y-42.868
;TYPE:WALL-OUTER
G1 F1500 X1.357 Y-42.667 E26.82317
G1 X2.15 Y-42.38 E26.87577
G1 X2.894 Y-41.968 E26.9288
G1 X3.558 Y-41.448 E26.9814
G1 X4.139 Y-40.819 E27.0348
G1 X4.603 Y-40.123 E27.08696
G1 X4.957 Y-39.349 E27.14004
G1 X5.183 Y-38.529 E27.19309
G1 X5.298 Y-37.489 E27.25834
G1 X10.184 Y-36.452 E27.56983
G1 X14.701 Y-34.877 E27.86816
G1 X18.998 Y-32.735 E28.16758
G1 X22.981 Y-30.073 E28.46634
G1 X26.6 Y-26.926 E28.76542
G1 X29.791 Y-23.346 E29.0645
G1 X32.642 Y-19.192 E29.3787
G1 X53.888 Y-31.459 E30.90865
G1 X54.117 Y-31.591 E30.92513
G1 X53.971 Y-31.812 E30.93563
G1 X50.423 Y-37.181 E31.33696
G1 X46.335 Y-42.166 E31.739
G1 X41.756 Y-46.706 E32.14112
G1 X36.735 Y-50.75 E32.54318
G1 X31.325 Y-54.256 E32.94521
G1 X25.582 Y-57.189 E33.34737
G1 X19.569 Y-59.515 E33.74943
G1 X13.349 Y-61.211 E34.15149
G1 X6.988 Y-62.259 E34.55353
G1 X0.563 Y-62.648 E34.95494
G1 X0.299 Y-62.663 E34.97143
G1 X0.299 Y-62.399 E34.98191
G1 X0.299 Y-62.398 E34.98197
G1 X0.299 Y-42.868 E36.19992
G0 F9000 X0.544 Y-42.822
G1 F2700 E32.69992
G1 Z1.3
G0 F9000 X-1.451 Y-41.237 Z1.3
G1 Z0.3
G1 F2700 E36.19992
G1 F1500 X-1.286 Y-40.882 E36.22433
G1 X2.061 Y-33.715 E36.71762
G1 X2.191 Y-33.436 E36.73682
G1 X2.437 Y-33.621 E36.74854
G1 X3.039 Y-34.075 E36.79556
G1 X3.57 Y-34.639 E36.84387
G1 X4 Y-35.282 E36.89211
G1 X4.318 Y-35.989 E36.94045
G1 X4.512 Y-36.738 E36.9887
G1 X4.58 Y-37.51 E37.03703
G1 X4.518 Y-38.282 E37.08533
G1 X4.328 Y-39.033 E37.13364
G1 X4.016 Y-39.741 E37.18189
G1 X3.59 Y-40.388 E37.2302
G1 X3.063 Y-40.955 E37.27848
G1 X2.341 Y-41.508 E37.33519
G1 X2.062 Y-41.37 E37.3546
G1 X2.062 Y-41.237 E37.3629
G1 X-1.059 Y-41.237 E37.55753
G1 X-1.06 Y-41.237 E37.5576
G1 X-1.451 Y-41.237 E37.5717
G0 F9000 X-1.346 Y-41.011
G1 F2700 E34.0717
G1 Z1.3
G0 F9000 X-.3 Y-42.875 Z1.3
G1 Z0.3
G1 F2700 E37.5717
G1 F1500 X-.3 Y-62.398 E38.78921
G1 X-.3 Y-62.399 E38.78928
G1 X-.3 Y-62.663 E38.80574
G1 X-.564 Y-62.648 E38.81623
G1 X-6.988 Y-62.259 E39.21758
G1 X-13.349 Y-61.211 E39.61962
G1 X-19.569 Y-59.515 E40.02168
G1 X-25.582 Y-57.189 E40.42375
G1 X-31.325 Y-54.256 E40.8259
G1 X-36.735 Y-50.75 E41.22793
G1 X-41.757 Y-46.706 E41.63004
G1 X-46.335 Y-42.166 E42.03212
G1 X-50.423 Y-37.181 E42.43416
G1 X-53.971 Y-31.812 E42.83549
G1 X-54.117 Y-31.591 E42.85201
G1 X-53.888 Y-31.459 E42.86248
G1 X-32.642 Y-19.192 E44.39243
G1 X-29.801 Y-23.334 E44.70566
G1 X-26.618 Y-26.908 E45.00413
G1 X-23.023 Y-30.042 E45.30155
G1 X-19.051 Y-32.704 E45.59974
G1 X-14.774 Y-34.846 E45.89805
G1 X-10.263 Y-36.432 E46.19624
G1 X-5.403 Y-37.474 E46.50622
G1 X-5.288 Y-38.531 E46.57252
G1 X-5.059 Y-39.358 E46.62604
G1 X-4.699 Y-40.141 E46.67978
G1 X-4.218 Y-40.853 E46.73337
G1 X-3.628 Y-41.481 E46.7871
G1 X-2.946 Y-42.004 E46.8407
G1 X-2.188 Y-42.411 E46.89435
G1 X-1.375 Y-42.69 E46.94796
G1 X-.3 Y-42.875 E47.01598
G0 F9000 X-.3 Y-43.125
G1 F2700 E43.51598
G1 Z1.3
G0 F9000 X-2.204 Y-41.665 Z1.3
G1 Z0.3
G1 F2700 E47.01598
G1 F1500 X-2.448 Y-41.49 E47.03471
G1 X-3.059 Y-41.051 E47.08163
G1 X-3.602 Y-40.503 E47.12974
G1 X-4.047 Y-39.873 E47.17784
G1 X-4.381 Y-39.177 E47.22598
G1 X-4.595 Y-38.436 E47.27408
G1 X-4.683 Y-37.67 E47.32217
G1 X-4.643 Y-36.9 E47.37025
G1 X-4.476 Y-36.146 E47.41841
G1 X-4.186 Y-35.432 E47.46647
G1 X-3.781 Y-34.775 E47.5146
G1 X-3.272 Y-34.195 E47.56273
G1 X-2.569 Y-33.619 E47.6194
G1 X-2.283 Y-33.755 E47.63915
G1 X-2.283 Y-33.814 E47.64283
G1 X1.458 Y-33.814 E47.87613
G1 X-2.077 Y-41.393 E48.39766
G1 X-2.204 Y-41.665 E48.40918
G0 F9000 X-2.407 Y-41.52
G1 F2700 E44.90918
G1 Z1.3
G0 F9000 X-5.372 Y-36.875 Z1.3
G1 Z0.3
G1 F2700 E48.40918
G1 F1500 X-10.173 Y-35.834 E48.71554
G1 X-14.594 Y-34.271 E49.00797
G1 X-18.784 Y-32.167 E49.30036
G1 X-22.676 Y-29.553 E49.59274
G1 X-26.208 Y-26.47 E49.88511
G1 X-29.326 Y-22.968 E50.17753
G1 X-31.971 Y-19.115 E50.46898
G1 X-32.123 Y-18.893 E50.48576
G1 X-31.89 Y-18.758 E50.4964
G1 X-.707 Y-.754 E52.74191
G1 X-.55 Y-.663 E52.75323
G1 X-.3 Y-.808 E52.77125
G1 X-.3 Y-.99 E52.7826
G1 X-.3 Y-32.175 E54.72739
G1 X-1.386 Y-32.363 E54.79612
G1 X-2.207 Y-32.65 E54.85036
G1 X-2.981 Y-33.071 E54.9053
G1 X-3.668 Y-33.607 E54.95964
G1 X-4.258 Y-34.248 E55.01397
G1 X-4.734 Y-34.977 E55.06827
G1 X-5.09 Y-35.78 E55.12305
G1 X-5.372 Y-36.875 E55.19356
G0 F9000 X-5.616 Y-36.823
G1 F2700 E51.69356
G1 Z1.3
G0 F9000 X0.299 Y-32.183 Z1.3
G1 Z0.3
G1 F2700 E55.19356
G1 F1500 X0.299 Y-.99 E57.13884
G1 X0.299 Y-.808 E57.15019
G1 X0.549 Y-.663 E57.16822
G1 X0.706 Y-.754 E57.17953
G1 X31.89 Y-18.758 E59.4251
G1 X32.123 Y-18.893 E59.44189
G1 X31.971 Y-19.115 E59.45253
G1 X29.317 Y-22.98 E59.74492
G1 X26.187 Y-26.491 E60.03825
G1 X22.64 Y-29.58 E60.33157
G1 X18.732 Y-32.198 E60.62492
G1 X14.526 Y-34.301 E60.91818
G1 X10.087 Y-35.858 E61.21154
G1 X5.268 Y-36.891 E61.51889
G1 X4.993 Y-35.804 E61.58882
G1 X4.647 Y-35.01 E61.64283
G1 X4.182 Y-34.288 E61.69639
G1 X3.603 Y-33.644 E61.75039
G1 X2.934 Y-33.109 E61.80381
G1 X2.179 Y-32.684 E61.85784
G1 X1.37 Y-32.388 E61.91157
G1 X0.299 Y-32.183 E61.97957
G0 F9000 X0.299 Y-31.933
G1 F2700 E58.47957
G1 Z1.3
G0 F9000 X-1.631 Y-63.228 Z1.3
G1 Z0.3
G1 F2700 E61.97957
G1 F1500 X4.881 Y-63.06 E62.38581
G1 X11.344 Y-62.224 E62.79222
G1 X17.675 Y-60.73 E63.19788
G1 X23.83 Y-58.589 E63.60428
G1 X29.723 Y-55.83 E64.01007
G1 X35.307 Y-52.477 E64.41626
G1 X40.518 Y-48.566 E64.82258
G1 X45.293 Y-44.147 E65.22831
G1 X49.594 Y-39.254 E65.63458
G1 X53.367 Y-33.946 E66.04071
G1 X56.577 Y-28.274 E66.44715
G1 X59.184 Y-22.31 E66.85306
G1 X61.163 Y-16.111 E67.25887
G1 X62.495 Y-9.734 E67.66514
G1 X63.165 Y-3.249 E68.07171
G1 X63.25 Y-0.007 E68.27396
G1 X63.165 Y3.249 E68.47709
G1 X62.495 Y9.734 E68.88366
G1 X61.163 Y16.111 E69.28993
G1 X59.184 Y22.31 E69.69574
G1 X56.577 Y28.274 E70.10165
G1 X53.367 Y33.946 E70.50809
G1 X49.594 Y39.254 E70.91422
G1 X45.293 Y44.147 E71.32049
G1 X40.518 Y48.566 E71.72622
G1 X35.307 Y52.477 E72.13254
G1 X29.723 Y55.83 E72.53873
G1 X23.83 Y58.589 E72.94452
G1 X17.675 Y60.73 E73.35092
G1 X11.344 Y62.224 E73.75658
G1 X4.881 Y63.06 E74.16299
G1 X-1.631 Y63.228 E74.56923
G1 X-8.117 Y62.726 E74.97492
G1 X-14.528 Y61.558 E75.38131
G1 X-20.777 Y59.739 E75.78719
G1 X-26.81 Y57.286 E76.19334
G1 X-32.565 Y54.221 E76.59996
G1 X-37.963 Y50.589 E77.0057
G1 X-42.965 Y46.416 E77.41194
G1 X-47.507 Y41.756 E77.81776
G1 X-51.55 Y36.649 E78.22396
G1 X-55.043 Y31.157 E78.62986
G1 X-57.958 Y25.324 E79.03652
G1 X-60.252 Y19.238 E79.44213
G1 X-61.913 Y12.934 E79.84868
G1 X-62.913 Y6.507 E80.25431
G1 X-63.249 Y0.00 E80.66064
G1 X-62.913 Y-6.507 E81.06698
G1 X-61.913 Y-12.934 E81.47261
G1 X-60.252 Y-19.238 E81.87916
G1 X-57.958 Y-25.324 E82.28476
G1 X-55.043 Y-31.157 E82.69142
G1 X-51.55 Y-36.649 E83.09732
G1 X-47.507 Y-41.756 E83.50353
G1 X-42.965 Y-46.416 E83.90934
G1 X-37.963 Y-50.589 E84.31558
G1 X-32.565 Y-54.221 E84.72132
G1 X-26.81 Y-57.286 E85.12795
G1 X-20.777 Y-59.739 E85.53409
G1 X-14.528 Y-61.558 E85.93997
G1 X-8.117 Y-62.726 E86.34636
G1 X-1.631 Y-63.228 E86.75205
G0 F9000 X-1.382 Y-63.222
G1 F2700 E83.25205
G1 Z1.3
G0 F9000 X-32.423 Y-18.373 Z1.3
G1 Z0.3
G1 F2700 E86.75205
G1 F1500 X-32.539 Y-18.13 E86.76885
G1 X-34.559 Y-13.898 E87.06129
G1 X-36.035 Y-9.433 E87.35456
G1 X-36.937 Y-4.816 E87.64793
G1 X-37.249 Y-.124 E87.94118
G1 X-36.969 Y4.571 E88.2345
G1 X-36.098 Y9.193 E88.52781
G1 X-34.583 Y13.882 E88.83511
G1 X-33.497 Y13.576 E88.90548
G1 X-32.649 Y13.48 E88.9587
G1 X-31.784 Y13.522 E89.0127
G1 X-30.938 Y13.702 E89.06664
G1 X-30.134 Y14.017 E89.1205
G1 X-29.396 Y14.453 E89.17395
G1 X-28.738 Y15.002 E89.22739
G1 X-28.015 Y15.828 E89.29585
G1 X-1.008 Y0.235 E91.24065
G1 X-.85 Y0.144 E91.25202
G1 X-.85 Y-.144 E91.26998
G1 X-1.008 Y-.235 E91.28135
G1 X-32.19 Y-18.238 E93.52678
G1 X-32.423 Y-18.373 E93.53741
G0 F9000 X-32.53 Y-18.148
G0 X-32.942 Y-18.672
G1 F1500 X-54.188 Y-30.939 E95.06736
G1 X-54.417 Y-31.071 E95.08384
G1 X-54.535 Y-30.834 E95.09433
G1 X-57.411 Y-25.077 E95.49566
G1 X-59.685 Y-19.044 E95.89773
G1 X-61.326 Y-12.809 E96.29981
G1 X-62.318 Y-6.439 E96.70185
G1 X-62.65 Y0.00 E97.10393
G1 X-62.318 Y6.439 E97.50602
G1 X-61.326 Y12.809 E97.90806
G1 X-59.685 Y19.044 E98.31013
G1 X-57.411 Y25.077 E98.71221
G1 X-54.535 Y30.834 E99.11354
G1 X-54.417 Y31.071 E99.13005
G1 X-54.188 Y30.939 E99.14052
G1 X-37.275 Y21.174 E100.35844
G1 X-37.63 Y20.158 E100.42556
G1 X-37.778 Y19.327 E100.4782
G1 X-37.793 Y18.481 E100.53096
G1 X-37.673 Y17.637 E100.58413
G1 X-37.423 Y16.829 E100.63687
G1 X-37.048 Y16.073 E100.6895
G1 X-36.553 Y15.379 E100.74266
G1 X-35.961 Y14.776 E100.79536
G1 X-35.116 Y14.155 E100.86076
G1 X-36.659 Y9.413 E101.17174
G1 X-37.555 Y4.701 E101.47086
G1 X-37.849 Y-0.09 E101.7702
G1 X-37.535 Y-4.866 E102.06869
G1 X-36.619 Y-9.573 E102.36774
G1 X-35.117 Y-14.116 E102.66613
G1 X-32.942 Y-18.672 E102.98098
G0 F9000 X-33.158 Y-18.797
G1 F2700 E99.48098
G1 Z1.3
G0 F9000 X-32.824 Y14.189 Z1.3
G1 Z0.3
G1 F2700 E102.98098
G1 F1500 X-33.521 Y14.296 E103.02495
G1 X-34.193 Y14.506 E103.06886
G1 X-34.814 Y14.812 E103.11203
G1 X-35.054 Y14.93 E103.12871
G1 X-35.049 Y14.939 E103.12935
G1 X-34.91 Y15.167 E103.13998
G1 X-32.686 Y18.806 E103.40595
G1 X-32.474 Y19.154 E103.43136
G1 X-32.262 Y18.806 E103.44591
G1 X-30.035 Y15.167 E103.71197
G1 X-29.896 Y14.939 E103.72862
G1 X-29.89 Y14.93 E103.7293
G1 X-30.13 Y14.812 E103.73995
G1 X-30.751 Y14.506 E103.78312
G1 X-31.423 Y14.296 E103.82703
G1 X-32.12 Y14.189 E103.871
G1 X-32.824 Y14.189 E103.91491
G0 F9000 X-33.071 Y14.226
G1 F2700 E100.41491
G1 Z1.3
G0 F9000 X-29.649 Y15.09 Z1.3
G1 Z0.3
G1 F2700 E103.91491
G1 F1500 X-29.787 Y15.317 E103.93147
G1 X-29.788 Y15.318 E103.93156
G1 X-29.789 Y15.319 E103.93165
G1 X-32.224 Y19.307 E104.22305
G1 X-32.318 Y19.46 E104.23425
G1 X-32.318 Y23.172 E104.46574
G1 X-32.318 Y23.173 E104.4658
G1 X-32.318 Y23.47 E104.48432
G1 X-32.025 Y23.418 E104.49577
G1 X-31.285 Y23.286 E104.54265
G1 X-30.557 Y23.027 E104.59083
G1 X-29.883 Y22.651 E104.63897
G1 X-29.281 Y22.168 E104.6871
G1 X-28.767 Y21.592 E104.73524
G1 X-28.357 Y20.937 E104.78343
G1 X-28.06 Y20.225 E104.83154
G1 X-27.887 Y19.473 E104.87966
G1 X-27.84 Y18.702 E104.92783
G1 X-27.922 Y17.934 E104.976
G1 X-28.13 Y17.19 E105.02418
G1 X-28.459 Y16.493 E105.07224
G1 X-28.9 Y15.858 E105.12046
G1 X-29.463 Y15.281 E105.17073
G1 X-29.649 Y15.09 E105.1808
G0 F9000 X-29.779 Y15.304
G1 F2700 E101.6808
G1 Z1.3
G0 F9000 X-35.294 Y15.09 Z1.3
G1 Z0.3
G1 F2700 E105.1808
G1 F1500 X-35.479 Y15.28 E105.19733
G1 X-36.044 Y15.858 E105.24774
G1 X-36.484 Y16.493 E105.29592
G1 X-36.813 Y17.19 E105.34398
G1 X-37.021 Y17.934 E105.39216
G1 X-37.104 Y18.702 E105.44033
G1 X-37.057 Y19.473 E105.4885
G1 X-36.883 Y20.225 E105.53664
