;FLAVOR:Repetier
;TIME:427
;Generated with Cura_SteamEngine master
M190 S60
M104 S205
M109 S205
G28
;LAYER_COUNT:3
;LAYER:0
M107
G1 F2700 E-3.5
G1 Z21
G0 F9000 X-67.569 Y4.42 Z1.3
;TYPE:SKIRT
G1 Z0.3
G1 F2700 E0
G1 F1500 X-67.588 Y4.156 E0.01651
G1 X-67.727 Y0.864 E0.22199
G1 X-67.73 Y0.603 E0.23827
G1 X-67.654 Y-3.354 E0.48508
G1 X-67.632 Y-3.71 E0.50732
G1 X-66.958 Y-10.22 E0.91548
G1 X-66.886 Y-10.674 E0.94414
G1 X-65.42 Y-17.505 E1.37984
G1 X-65.308 Y-17.923 E1.40683
G1 X-63.364 Y-23.923 E1.80015
G1 X-63.208 Y-24.331 E1.8274
G1 X-60.544 Y-30.358 E2.23834
G1 X-60.348 Y-30.747 E2.2655
G1 X-57.141 Y-36.364 E2.66886
G1 X-56.905 Y-36.733 E2.69618
G1 X-53.081 Y-42.069 E3.10558
G1 X-52.814 Y-42.403 E3.13224
G1 X-48.649 Y-47.129 E3.52509
G1 X-48.348 Y-47.438 E3.55199
G1 X-43.557 Y-51.872 E3.95909
G1 X-43.221 Y-52.152 E3.98637
G1 X-38.007 Y-56.065 E4.39291
G1 X-37.626 Y-56.32 E4.4215
G1 X-31.614 Y-59.891 E4.85758
G1 X-31.222 Y-60.097 E4.88519
G1 X-25.33 Y-62.81 E5.28972
G1 X-24.919 Y-62.974 E5.31731
G1 X-18.653 Y-65.102 E5.73
G1 X-18.242 Y-65.219 E5.75665
G1 X-12.064 Y-66.646 E6.15207
G1 X-11.637 Y-66.722 E6.17912
G1 X-5.183 Y-67.531 E6.58475
G1 X-4.757 Y-67.563 E6.6114
G1 X1.54 Y-67.716 E7.00421
G1 X1.97 Y-67.704 E7.03104
G1 X8.461 Y-67.203 E7.43704
G1 X8.895 Y-67.147 E7.46433
G1 X15.353 Y-65.971 E7.87369
G1 X15.78 Y-65.871 E7.90104
G1 X22.041 Y-64.049 E8.30769
G1 X22.474 Y-63.897 E8.33631
G1 X28.92 Y-61.238 E8.77116
G1 X29.324 Y-61.046 E8.79905
G1 X35.107 Y-57.912 E9.20925
G1 X35.469 Y-57.691 E9.2357
G1 X40.677 Y-54.155 E9.62827
G1 X41.016 Y-53.9 E9.65472
G1 X45.848 Y-49.86 E10.04751
G1 X46.166 Y-49.565 E10.07456
G1 X50.725 Y-44.886 E10.48196
G1 X51.027 Y-44.541 E10.51056
G1 X55.344 Y-39.029 E10.94718
G1 X55.599 Y-38.665 E10.9749
G1 X59.062 Y-33.138 E11.38164
G1 X59.271 Y-32.765 E11.40831
G1 X62.075 Y-27.095 E11.80278
G1 X62.247 Y-26.696 E11.82988
G1 X64.531 Y-20.571 E12.23754
G1 X64.663 Y-20.153 E12.26488
G1 X66.308 Y-13.809 E12.67359
G1 X66.396 Y-13.38 E12.7009
G1 X67.375 Y-6.937 E13.10732
G1 X67.418 Y-6.512 E13.13396
G1 X67.734 Y-.213 E13.52727
G1 X67.733 Y0.218 E13.55415
G1 X67.397 Y6.747 E13.96186
G1 X67.353 Y7.182 E13.98912
G1 X66.352 Y13.619 E14.39538
G1 X66.262 Y14.047 E14.42265
G1 X64.596 Y20.381 E14.83109
G1 X64.459 Y20.81 E14.85918
G1 X62.044 Y27.164 E15.28309
G1 X61.865 Y27.569 E15.3107
G1 X58.917 Y33.408 E15.71861
G1 X58.706 Y33.779 E15.74523
G1 X55.329 Y39.073 E16.13683
G1 X55.067 Y39.439 E16.1649
G1 X50.738 Y44.859 E16.59749
G1 X50.439 Y45.196 E16.62558
G1 X45.794 Y49.892 E17.0375
G1 X45.478 Y50.18 E17.06416
G1 X40.575 Y54.229 E17.46071
G1 X40.237 Y54.481 E17.487
G1 X35.042 Y57.966 E17.87712
G1 X34.671 Y58.189 E17.90412
G1 X28.912 Y61.254 E18.31096
G1 X28.517 Y61.439 E18.33816
G1 X22.466 Y63.901 E18.74556
G1 X22.051 Y64.045 E18.77296
G1 X15.771 Y65.872 E19.18083
G1 X15.347 Y65.972 E19.208
G1 X8.927 Y67.143 E19.61497
G1 X8.481 Y67.2 E19.64301
G1 X1.691 Y67.708 E20.06764
G1 X1.248 Y67.718 E20.09527
G1 X-5.257 Y67.525 E20.50112
G1 X-5.692 Y67.49 E20.52834
G1 X-12.184 Y66.625 E20.93677
G1 X-12.616 Y66.544 E20.96418
G1 X-19.002 Y65.009 E21.37377
G1 X-19.411 Y64.889 E21.40036
G1 X-25.322 Y62.823 E21.79085
G1 X-25.722 Y62.66 E21.81779
G1 X-31.658 Y59.881 E22.22653
G1 X-32.044 Y59.675 E22.25382
G1 X-37.626 Y56.322 E22.6599
G1 X-37.989 Y56.078 E22.68718
G1 X-43.226 Y52.147 E23.09554
G1 X-43.562 Y51.867 E23.12282
G1 X-48.349 Y47.435 E23.52965
G1 X-48.654 Y47.122 E23.5569
G1 X-52.98 Y42.202 E23.96547
G1 X-53.252 Y41.858 E23.99281
G1 X-57.036 Y36.535 E24.4001
G1 X-57.271 Y36.166 E24.42738
G1 X-60.487 Y30.484 E24.83455
G1 X-60.682 Y30.093 E24.8618
G1 X-63.297 Y24.111 E25.26894
G1 X-63.452 Y23.701 E25.29627
G1 X-65.45 Y17.442 E25.70601
G1 X-65.561 Y17.019 E25.73328
G1 X-66.896 Y10.63 E26.14032
G1 X-66.963 Y10.204 E26.16721
G1 X-67.569 Y4.42 E26.52989
G0 F9000 X-67.072 Y4.368
G1 F1500 X-67.089 Y4.135 E26.54446
G1 X-67.228 Y0.843 E26.74994
G1 X-67.23 Y0.613 E26.76429
G1 X-67.154 Y-3.344 E27.0111
G1 X-67.135 Y-3.658 E27.03072
G1 X-66.461 Y-10.168 E27.43887
G1 X-66.398 Y-10.569 E27.46419
G1 X-64.932 Y-17.4 E27.89989
G1 X-64.832 Y-17.769 E27.92373
G1 X-62.888 Y-23.769 E28.31705
G1 X-62.751 Y-24.129 E28.34108
G1 X-60.087 Y-30.156 E28.75202
G1 X-59.914 Y-30.499 E28.77597
G1 X-56.707 Y-36.116 E29.17934
G1 X-56.498 Y-36.441 E29.20344
G1 X-52.674 Y-41.777 E29.61283
G1 X-52.439 Y-42.072 E29.63635
G1 X-48.274 Y-46.798 E30.0292
G1 X-48.008 Y-47.071 E30.05297
G1 X-43.217 Y-51.505 E30.46007
G1 X-42.921 Y-51.752 E30.48411
G1 X-37.707 Y-55.665 E30.89065
G1 X-37.371 Y-55.89 E30.91587
G1 X-31.359 Y-59.461 E31.35195
G1 X-31.012 Y-59.643 E31.37638
G1 X-25.12 Y-62.356 E31.78091
G1 X-24.758 Y-62.501 E31.80523
G1 X-18.492 Y-64.629 E32.21791
G1 X-18.13 Y-64.732 E32.24138
G1 X-11.952 Y-66.159 E32.6368
G1 X-11.574 Y-66.226 E32.66074
G1 X-5.12 Y-67.035 E33.06638
G1 X-4.745 Y-67.063 E33.08983
G1 X1.552 Y-67.216 E33.48265
G1 X1.932 Y-67.206 E33.50635
G1 X8.423 Y-66.705 E33.91235
G1 X8.806 Y-66.655 E33.93644
G1 X15.264 Y-65.479 E34.3458
G1 X15.64 Y-65.391 E34.36989
G1 X21.901 Y-63.569 E34.77654
G1 X22.283 Y-63.435 E34.80178
G1 X28.729 Y-60.776 E35.23663
G1 X29.086 Y-60.606 E35.26129
G1 X34.869 Y-57.472 E35.67149
G1 X35.188 Y-57.277 E35.6948
G1 X40.396 Y-53.741 E36.08738
G1 X40.695 Y-53.516 E36.11071
G1 X45.527 Y-49.476 E36.5035
G1 X45.808 Y-49.216 E36.52737
G1 X50.367 Y-44.537 E36.93478
G1 X50.633 Y-44.232 E36.96001
G1 X54.95 Y-38.72 E37.39664
G1 X55.176 Y-38.399 E37.42112
G1 X58.639 Y-32.872 E37.82786
G1 X58.822 Y-32.543 E37.85134
G1 X61.626 Y-26.873 E38.24582
G1 X61.779 Y-26.521 E38.26975
G1 X64.063 Y-20.396 E38.67742
G1 X64.179 Y-20.027 E38.70154
G1 X65.824 Y-13.683 E39.11025
G1 X65.901 Y-13.305 E39.13431
G1 X66.88 Y-6.862 E39.54072
G1 X66.918 Y-6.487 E39.56423
G1 X67.234 Y-.188 E39.95755
G1 X67.234 Y0.193 E39.98131
G1 X66.898 Y6.722 E40.38901
G1 X66.858 Y7.105 E40.41303
G1 X65.857 Y13.542 E40.81928
G1 X65.779 Y13.92 E40.84335
G1 X64.113 Y20.254 E41.25179
G1 X63.991 Y20.632 E41.27656
G1 X61.576 Y26.986 E41.70047
G1 X61.419 Y27.344 E41.72485
G1 X58.471 Y33.183 E42.13276
G1 X58.285 Y33.51 E42.15622
G1 X54.908 Y38.804 E42.54782
G1 X54.676 Y39.127 E42.57262
G1 X50.347 Y44.547 E43.00521
G1 X50.083 Y44.844 E43.02999
G1 X45.438 Y49.54 E43.44191
G1 X45.16 Y49.794 E43.46539
G1 X40.257 Y53.843 E43.86194
G1 X39.958 Y54.066 E43.8852
G1 X34.763 Y57.551 E44.27532
G1 X34.436 Y57.747 E44.2991
G1 X28.677 Y60.812 E44.70594
G1 X28.328 Y60.975 E44.72996
G1 X22.277 Y63.437 E45.13736
G1 X21.912 Y63.565 E45.16148
G1 X15.632 Y65.392 E45.56936
G1 X15.257 Y65.48 E45.59338
G1 X8.837 Y66.651 E46.00035
G1 X8.444 Y66.702 E46.02507
G1 X1.654 Y67.21 E46.44969
G1 X1.263 Y67.218 E46.47408
G1 X-5.242 Y67.025 E46.87993
G1 X-5.626 Y66.994 E46.90396
G1 X-12.118 Y66.129 E47.31239
G1 X-12.499 Y66.058 E47.33656
G1 X-18.885 Y64.523 E47.74615
G1 X-19.246 Y64.417 E47.76962
G1 X-25.157 Y62.351 E48.16011
G1 X-25.51 Y62.207 E48.18389
G1 X-31.446 Y59.428 E48.59263
G1 X-31.787 Y59.247 E48.61671
G1 X-37.369 Y55.894 E49.02279
G1 X-37.689 Y55.678 E49.04687
G1 X-42.926 Y51.747 E49.45523
G1 X-43.223 Y51.5 E49.47932
G1 X-48.01 Y47.068 E49.88615
G1 X-48.278 Y46.792 E49.91014
G1 X-52.604 Y41.872 E50.31871
G1 X-52.844 Y41.569 E50.34281
G1 X-56.628 Y36.246 E50.7501
G1 X-56.836 Y35.92 E50.77421
G1 X-60.052 Y30.238 E51.18138
G1 X-60.224 Y29.893 E51.20542
G1 X-62.839 Y23.911 E51.61256
G1 X-62.975 Y23.549 E51.63668
G1 X-64.973 Y17.29 E52.04641
G1 X-65.072 Y16.917 E52.07048
G1 X-66.407 Y10.528 E52.47752
G1 X-66.466 Y10.152 E52.50126
G1 X-67.072 Y4.368 E52.86394
G0 F9000 X-66.574 Y4.316
G1 F1500 X-66.589 Y4.114 E52.87657
G1 X-66.728 Y0.822 E53.08205
G1 X-66.73 Y0.623 E53.09446
G1 X-66.654 Y-3.334 E53.34127
G1 X-66.638 Y-3.607 E53.35833
G1 X-65.964 Y-10.117 E53.76648
G1 X-65.909 Y-10.464 E53.78839
G1 X-64.443 Y-17.295 E54.22409
G1 X-64.357 Y-17.615 E54.24475
G1 X-62.413 Y-23.615 E54.63808
G1 X-62.294 Y-23.927 E54.65891
G1 X-59.63 Y-29.954 E55.06984
G1 X-59.479 Y-30.251 E55.09062
G1 X-56.272 Y-35.868 E55.49399
G1 X-56.092 Y-36.15 E55.51485
G1 X-52.268 Y-41.486 E55.92425
G1 X-52.064 Y-41.742 E55.94466
G1 X-47.899 Y-46.468 E56.33751
G1 X-47.669 Y-46.704 E56.35806
G1 X-42.878 Y-51.138 E56.76516
G1 X-42.621 Y-51.352 E56.78602
G1 X-37.407 Y-55.265 E57.19256
G1 X-37.116 Y-55.46 E57.2144
G1 X-31.104 Y-59.031 E57.65048
G1 X-30.803 Y-59.189 E57.67168
G1 X-24.911 Y-61.902 E58.0762
G1 X-24.597 Y-62.027 E58.09728
G1 X-18.331 Y-64.155 E58.50996
G1 X-18.017 Y-64.245 E58.53033
G1 X-11.839 Y-65.672 E58.92576
G1 X-11.512 Y-65.73 E58.94647
G1 X-5.058 Y-66.539 E59.35211
G1 X-4.733 Y-66.563 E59.37243
G1 X1.564 Y-66.716 E59.76524
G1 X1.893 Y-66.707 E59.78577
G1 X8.384 Y-66.206 E60.19177
G1 X8.716 Y-66.163 E60.21265
G1 X15.174 Y-64.987 E60.62201
G1 X15.5 Y-64.911 E60.64288
G1 X21.761 Y-63.089 E61.04953
G1 X22.092 Y-62.972 E61.07143
G1 X28.538 Y-60.313 E61.50628
G1 X28.848 Y-60.166 E61.52767
G1 X34.631 Y-57.032 E61.93787
G1 X34.908 Y-56.864 E61.95807
G1 X40.116 Y-53.328 E62.35064
G1 X40.375 Y-53.132 E62.3709
G1 X45.207 Y-49.092 E62.76369
G1 X45.45 Y-48.867 E62.78434
G1 X50.009 Y-44.188 E63.19174
G1 X50.24 Y-43.924 E63.21362
G1 X54.557 Y-38.412 E63.65024
G1 X54.752 Y-38.134 E63.67142
G1 X58.215 Y-32.607 E64.07816
G1 X58.374 Y-32.322 E64.09852
G1 X61.178 Y-26.652 E64.49299
G1 X61.31 Y-26.347 E64.51371
G1 X63.594 Y-20.222 E64.92138
G1 X63.695 Y-19.902 E64.94231
G1 X65.34 Y-13.558 E65.35102
G1 X65.407 Y-13.23 E65.3719
G1 X66.386 Y-6.787 E65.77831
G1 X66.419 Y-6.462 E65.79868
G1 X66.735 Y-.163 E66.192
G1 X66.735 Y0.167 E66.21258
G1 X66.399 Y6.696 E66.62029
G1 X66.364 Y7.028 E66.6411
G1 X65.363 Y13.465 E67.04736
G1 X65.295 Y13.793 E67.06825
G1 X63.629 Y20.127 E67.47669
G1 X63.524 Y20.455 E67.49817
G1 X61.109 Y26.809 E67.92208
G1 X60.972 Y27.119 E67.94321
G1 X58.024 Y32.958 E68.35113
G1 X57.863 Y33.241 E68.37143
G1 X54.486 Y38.535 E68.76303
G1 X54.285 Y38.815 E68.78453
G1 X49.956 Y44.235 E69.21711
G1 X49.728 Y44.493 E69.23858
G1 X45.083 Y49.189 E69.6505
G1 X44.841 Y49.409 E69.6709
G1 X39.938 Y53.458 E70.06745
G1 X39.68 Y53.651 E70.08754
G1 X34.485 Y57.136 E70.47766
G1 X34.201 Y57.306 E70.4983
G1 X28.442 Y60.371 E70.90515
G1 X28.14 Y60.512 E70.92593
G1 X22.089 Y62.974 E71.33333
G1 X21.772 Y63.085 E71.35427
G1 X15.492 Y64.912 E71.76215
G1 X15.167 Y64.988 E71.78296
G1 X8.747 Y66.159 E72.18994
G1 X8.406 Y66.203 E72.21138
G1 X1.616 Y66.711 E72.63601
G1 X1.278 Y66.719 E72.65709
G1 X-5.227 Y66.526 E73.06294
G1 X-5.56 Y66.499 E73.08377
G1 X-12.052 Y65.634 E73.49221
G1 X-12.383 Y65.572 E73.51321
G1 X-18.769 Y64.037 E73.9228
G1 X-19.081 Y63.945 E73.94309
G1 X-24.992 Y61.879 E74.33358
G1 X-25.298 Y61.754 E74.3542
G1 X-31.234 Y58.975 E74.76294
G1 X-31.53 Y58.818 E74.78384
G1 X-37.112 Y55.465 E75.18992
G1 X-37.389 Y55.278 E75.21076
G1 X-42.626 Y51.347 E75.61913
G1 X-42.883 Y51.133 E75.63998
G1 X-47.67 Y46.701 E76.04681
G1 X-47.903 Y46.462 E76.06763
G1 X-52.229 Y41.542 E76.47619
G1 X-52.437 Y41.279 E76.4971
G1 X-56.221 Y35.956 E76.90439
G1 X-56.4 Y35.674 E76.92522
G1 X-59.616 Y29.992 E77.33239
G1 X-59.766 Y29.693 E77.35325
G1 X-62.381 Y23.711 E77.76039
G1 X-62.499 Y23.397 E77.78131
G1 X-64.497 Y17.138 E78.19104
G1 X-64.582 Y16.815 E78.21187
G1 X-65.917 Y10.426 E78.61891
G1 X-65.968 Y10.1 E78.63949
G1 X-66.574 Y4.316 E79.00217
G1 F2700 E75.50217
G1 Z1.3
G0 F9000 X-.35 Y0.2 Z1.3
;TYPE:WALL-INNER
G1 Z0.3
G1 F2700 E79.00217
G1 F1500 X-.35 Y-.2 E79.02711
G1 X-.2 Y-.287 E79.03793
G0 X-.2 Y-.2
G0 X-.2 Y0.2
G1 X-.2 Y0.287 E79.04335
G0 X-.35 Y0.2
G0 F9000 X-0.075 Y0.275
G1 F1500 X0.275 Y0.073 E79.06313
G1 X0.35 Y0.029 E79.06855
G0 X0.35 Y0.201
G0 X0.001 Y0.404
G1 X-.148 Y0.317 E79.0773
G0 X-0.075 Y0.275
G1 F2700 E75.5773
G1 Z1.3
G0 F9000 X0.011 Y32.632 Z1.3
G1 Z0.3
G1 F2700 E79.0773
G1 F1500 X1.062 Y32.815 E79.14383
G1 X1.262 Y32.849 E79.15648
G1 X2.005 Y33.109 E79.20557
G1 X2.122 Y33.173 E79.21389
G1 X2.225 Y33.229 E79.2212
G0 X2.093 Y33.292
G0 X2.046 Y33.314
G0 X2.005 Y33.314
G1 X1.262 Y33.314 E79.25202
G1 X1.059 Y33.314 E79.26424
G1 X-.934 Y33.314 E79.38853
G1 X-1.233 Y33.314 E79.40717
G1 X-1.696 Y33.314 E79.43605
G1 X-1.805 Y33.08 E79.45215
G0 X-1.785 Y33.073
G1 X-1.233 Y32.871 E79.47908
G1 X-.94 Y32.815 E79.49663
G1 X0.011 Y32.632 E79.55703
G1 F2700 E76.05703
G1 Z1.3
G0 F9000 X-.943 Y41.737 Z1.3
G1 Z0.3
G1 F2700 E79.55703
G1 F1500 X1.055 Y41.737 E79.68163
G1 X1.252 Y41.737 E79.69391
G1 X1.686 Y41.737 E79.72098
G1 X1.814 Y42.011 E79.73984
G0 X1.784 Y42.021
G1 X1.252 Y42.203 E79.76773
G1 X1.058 Y42.236 E79.77959
G1 X0.01 Y42.418 E79.84592
G1 X-.948 Y42.236 E79.90674
G1 X-1.224 Y42.184 E79.92425
G1 X-1.766 Y41.988 E79.96019
G1 X-1.944 Y41.923 E79.97201
G1 X-1.995 Y41.895 E79.97564
G0 X-1.966 Y41.881
G0 X-1.675 Y41.737
G1 X-1.224 Y41.737 E79.99471
G1 X-.943 Y41.737 E80.01131
G0 F9000 X-.299 Y42.868
;TYPE:WALL-OUTER
G1 F1500 X-1.357 Y42.667 E80.07847
G1 X-2.15 Y42.38 E80.13106
G1 X-2.894 Y41.968 E80.1841
G1 X-3.558 Y41.448 E80.23669
G1 X-4.139 Y40.819 E80.29009
G1 X-4.605 Y40.12 E80.34248
G1 X-4.957 Y39.349 E80.39534
G1 X-5.183 Y38.529 E80.44838
G1 X-5.298 Y37.489 E80.51364
G1 X-10.184 Y36.452 E80.82513
G1 X-14.701 Y34.877 E81.12345
G1 X-18.998 Y32.735 E81.42287
G1 X-22.981 Y30.073 E81.72163
G1 X-26.6 Y26.926 E82.02072
G1 X-29.791 Y23.346 E82.31979
G1 X-32.642 Y19.192 E82.63399
G1 X-53.888 Y31.459 E84.16394
G1 X-54.117 Y31.591 E84.18043
G1 X-53.971 Y31.812 E84.19092
G1 X-50.423 Y37.181 E84.59225
G1 X-46.335 Y42.166 E84.9943
G1 X-41.756 Y46.706 E85.39642
G1 X-36.735 Y50.75 E85.79848
G1 X-31.324 Y54.256 E86.20056
G1 X-25.582 Y57.189 E86.60266
G1 X-19.569 Y59.515 E87.00473
G1 X-13.349 Y61.211 E87.40678
G1 X-6.987 Y62.259 E87.80888
G1 X-.563 Y62.648 E88.21024
G1 X-.299 Y62.663 E88.22673
G1 X-.299 Y62.399 E88.2372
G1 X-.299 Y62.398 E88.23727
G1 X-.299 Y42.868 E89.45521
G0 F9000 X-.544 Y42.822
G1 F2700 E85.95521
G1 Z1.3
G0 F9000 X1.451 Y41.237 Z1.3
G1 Z0.3
G1 F2700 E89.45521
G1 F1500 X-2.061 Y33.715 E89.97291
G1 X-2.191 Y33.436 E89.99211
G1 X-2.437 Y33.621 E90.00383
G1 X-3.039 Y34.075 E90.05085
G1 X-3.57 Y34.639 E90.09916
G1 X-4 Y35.282 E90.1474
G1 X-4.318 Y35.989 E90.19575
G1 X-4.512 Y36.738 E90.244
G1 X-4.58 Y37.51 E90.29233
G1 X-4.518 Y38.282 E90.34063
G1 X-4.328 Y39.033 E90.38894
G1 X-4.016 Y39.741 E90.43719
G1 X-3.59 Y40.388 E90.4855
G1 X-3.063 Y40.955 E90.53377
G1 X-2.341 Y41.508 E90.59049
G1 X-2.062 Y41.37 E90.6099
G1 X-2.062 Y41.237 E90.61819
G1 X1.451 Y41.237 E90.83727
G0 F9000 X1.346 Y41.011
G1 F2700 E87.33727
G1 Z1.3
G0 F9000 X0.3 Y42.875 Z1.3
G1 Z0.3
G1 F2700 E90.83727
G1 F1500 X0.3 Y62.398 E92.05478
G1 X0.3 Y62.399 E92.05484
G1 X0.3 Y62.663 E92.07131
G1 X0.564 Y62.648 E92.0818
G1 X6.988 Y62.259 E92.48315
G1 X13.349 Y61.211 E92.88519
G1 X19.569 Y59.515 E93.28725
G1 X25.582 Y57.189 E93.68931
G1 X31.325 Y54.256 E94.09147
G1 X36.735 Y50.75 E94.4935
G1 X41.757 Y46.706 E94.8956
G1 X46.335 Y42.166 E95.29769
G1 X50.423 Y37.181 E95.69973
G1 X53.971 Y31.812 E96.10106
G1 X54.117 Y31.591 E96.11758
G1 X53.888 Y31.459 E96.12805
G1 X32.642 Y19.192 E97.658
G1 X29.801 Y23.334 E97.97123
G1 X26.618 Y26.908 E98.26969
G1 X23.023 Y30.042 E98.56712
G1 X19.051 Y32.704 E98.86531
G1 X14.774 Y34.846 E99.16361
G1 X10.263 Y36.432 E99.46181
G1 X5.403 Y37.474 E99.77178
G1 X5.288 Y38.531 E99.83809
G1 X5.059 Y39.358 E99.8916
G1 X4.699 Y40.141 E99.94535
G1 X4.218 Y40.853 E99.99893
G1 X3.628 Y41.481 E100.05267
G1 X2.947 Y42.004 E100.10622
G1 X2.188 Y42.411 E100.15993
G1 X1.375 Y42.69 E100.21353
G1 X0.3 Y42.875 E100.28156
G0 F9000 X0.3 Y43.125
G1 F2700 E96.78156
G1 Z1.3
G0 F9000 X2.204 Y41.665 Z1.3
G1 Z0.3
G1 F2700 E100.28156
G1 F1500 X2.448 Y41.49 E100.30028
G1 X3.059 Y41.051 E100.3472
G1 X3.602 Y40.503 E100.39531
G1 X4.047 Y39.873 E100.44341
G1 X4.381 Y39.177 E100.49156
G1 X4.595 Y38.436 E100.53966
G1 X4.683 Y37.67 E100.58774
G1 X4.643 Y36.9 E100.63582
G1 X4.476 Y36.146 E100.68398
G1 X4.186 Y35.432 E100.73204
G1 X3.781 Y34.775 E100.78018
G1 X3.272 Y34.195 E100.8283
G1 X2.569 Y33.619 E100.88498
G1 X2.283 Y33.755 E100.90473
G1 X2.283 Y33.814 E100.90841
G1 X-1.066 Y33.814 E101.11726
G1 X-1.067 Y33.814 E101.11732
G1 X-1.458 Y33.814 E101.1417
