;FLAVOR:Repetier
;TIME:389
;Generated with Cura_SteamEngine master
M190 S60
M104 S200
M109 S200
G28
;LAYER_COUNT:3
;LAYER:0
M107
G1 Z21
G0 F9000 X-65.58 Y4.211 Z1.3
G0 X-65.59 Y4.072 Z1.3
;TYPE:SKIRT
G1 Z0.3
G1 F1500 X-65.729 Y0.78 E0.20548
G1 X-65.731 Y0.642 E0.21409
G1 X-65.655 Y-3.315 E0.4609
G1 X-65.643 Y-3.504 E0.47271
G1 X-64.969 Y-10.014 E0.88086
G1 X-64.931 Y-10.254 E0.89602
G1 X-63.465 Y-17.085 E1.33172
G1 X-63.405 Y-17.307 E1.34606
G1 X-61.461 Y-23.307 E1.73939
G1 X-61.379 Y-23.523 E1.75379
G1 X-58.715 Y-29.55 E2.16473
G1 X-58.611 Y-29.756 E2.17913
G1 X-55.404 Y-35.373 E2.58249
G1 X-55.279 Y-35.568 E2.59693
G1 X-51.455 Y-40.904 E3.00633
G1 X-51.314 Y-41.081 E3.02044
G1 X-47.149 Y-45.807 E3.41329
G1 X-46.989 Y-45.97 E3.42753
G1 X-42.198 Y-50.404 E3.83463
G1 X-42.021 Y-50.553 E3.84906
G1 X-36.807 Y-54.466 E4.25561
G1 X-36.605 Y-54.6 E4.27072
G1 X-30.593 Y-58.171 E4.7068
G1 X-30.385 Y-58.281 E4.72147
G1 X-24.493 Y-60.994 E5.126
G1 X-24.276 Y-61.08 E5.14055
G1 X-18.01 Y-63.208 E5.55324
G1 X-17.792 Y-63.27 E5.56737
G1 X-11.614 Y-64.697 E5.96279
G1 X-11.388 Y-64.738 E5.97712
G1 X-4.934 Y-65.547 E6.38276
G1 X-4.709 Y-65.563 E6.39682
G1 X1.588 Y-65.716 E6.78964
G1 X1.816 Y-65.71 E6.80386
G1 X8.307 Y-65.209 E7.20986
G1 X8.537 Y-65.18 E7.22432
G1 X14.995 Y-64.004 E7.63368
G1 X15.221 Y-63.95 E7.64817
G1 X21.482 Y-62.128 E8.05482
G1 X21.711 Y-62.048 E8.06995
G1 X28.157 Y-59.389 E8.5048
G1 X28.371 Y-59.287 E8.51958
G1 X34.154 Y-56.153 E8.92978
G1 X34.346 Y-56.036 E8.9438
G1 X39.554 Y-52.5 E9.33637
G1 X39.733 Y-52.365 E9.35035
G1 X44.565 Y-48.325 E9.74314
G1 X44.734 Y-48.169 E9.75748
G1 X49.293 Y-43.49 E10.16489
G1 X49.452 Y-43.307 E10.18
G1 X53.769 Y-37.795 E10.61663
G1 X53.905 Y-37.603 E10.6313
G1 X57.368 Y-32.076 E11.03805
G1 X57.478 Y-31.878 E11.05217
G1 X60.282 Y-26.208 E11.44664
G1 X60.373 Y-25.997 E11.46097
G1 X62.657 Y-19.872 E11.86864
G1 X62.727 Y-19.651 E11.8831
G1 X64.372 Y-13.307 E12.29181
G1 X64.418 Y-13.08 E12.30625
G1 X65.397 Y-6.637 E12.71267
G1 X65.42 Y-6.412 E12.72677
G1 X65.736 Y-.113 E13.12009
G1 X65.736 Y0.116 E13.13437
G1 X65.4 Y6.645 E13.54208
G1 X65.376 Y6.875 E13.5565
G1 X64.375 Y13.312 E13.96275
G1 X64.328 Y13.538 E13.97715
G1 X62.662 Y19.872 E14.38559
G1 X62.589 Y20.099 E14.40046
G1 X60.174 Y26.453 E14.82437
G1 X60.08 Y26.668 E14.839
G1 X57.132 Y32.507 E15.24692
G1 X57.02 Y32.703 E15.26099
G1 X53.643 Y37.997 E15.65259
G1 X53.504 Y38.191 E15.66748
G1 X49.175 Y43.611 E16.10006
G1 X49.017 Y43.789 E16.11491
G1 X44.372 Y48.485 E16.52682
G1 X44.205 Y48.638 E16.54095
G1 X39.302 Y52.687 E16.9375
G1 X39.122 Y52.821 E16.95149
G1 X33.927 Y56.306 E17.34161
G1 X33.731 Y56.423 E17.35585
G1 X27.972 Y59.488 E17.76269
G1 X27.763 Y59.586 E17.77709
G1 X21.712 Y62.048 E18.18448
G1 X21.493 Y62.124 E18.19894
G1 X15.213 Y63.951 E18.60681
G1 X14.988 Y64.004 E18.62123
G1 X8.568 Y65.175 E19.0282
G1 X8.332 Y65.206 E19.04305
G1 X1.541 Y65.714 E19.46774
G1 X1.306 Y65.719 E19.48239
G1 X-5.198 Y65.526 E19.88818
G1 X-5.428 Y65.507 E19.90257
G1 X-11.92 Y64.642 E20.31101
G1 X-12.149 Y64.6 E20.32553
G1 X-18.535 Y63.065 E20.73512
G1 X-18.751 Y63.001 E20.74917
G1 X-24.662 Y60.935 E21.13966
G1 X-24.874 Y60.849 E21.15393
G1 X-30.81 Y58.07 E21.56268
G1 X-31.015 Y57.961 E21.57716
G1 X-36.597 Y54.608 E21.98324
G1 X-36.789 Y54.478 E21.9977
G1 X-42.026 Y50.547 E22.40606
G1 X-42.204 Y50.399 E22.4205
G1 X-46.991 Y45.967 E22.82733
G1 X-47.152 Y45.802 E22.84171
G1 X-51.478 Y40.882 E23.25027
G1 X-51.622 Y40.7 E23.26474
G1 X-55.406 Y35.377 E23.67203
G1 X-55.53 Y35.181 E23.68649
G1 X-58.746 Y29.499 E24.09366
G1 X-58.85 Y29.292 E24.10811
G1 X-61.47 Y23.299 E24.516
G1 X-61.552 Y23.082 E24.53047
G1 X-63.544 Y16.837 E24.93926
G1 X-63.602 Y16.613 E24.95369
G1 X-64.938 Y10.221 E25.36092
G1 X-64.974 Y9.995 E25.37519
G1 X-65.58 Y4.211 E25.73788
G1 X-65.59 Y4.072 E25.74657
G1 F2700 E22.24657
G1 Z1.3
G0 F9000 X-.35 Y0.2 Z1.3
;TYPE:WALL-INNER
G1 Z0.3
G1 F2700 E25.74657
G1 F1500 X-.35 Y0.029 E25.75723
G0 X-.277 Y0.071
G1 X0.075 Y0.274 E25.7806
G1 X0.149 Y0.317 E25.78594
G0 X0.001 Y0.404
G0 X-.35 Y0.2
G0 F9000 X0.201 Y0.201
G1 F1500 X0.201 Y-.201 E25.80564
G1 X0.201 Y-.287 E25.811
G0 X0.35 Y-.201
G0 X0.35 Y0.201
G1 X0.201 Y0.287 E25.81978
G0 X0.201 Y0.201
G1 F2700 E22.31978
G1 Z1.3
G0 F9000 X0.011 Y32.632 Z1.3
G1 Z0.3
G1 F2700 E25.81978
G1 F1500 X1.062 Y32.815 E25.8863
G1 X1.262 Y32.849 E25.89896
G1 X2.005 Y33.109 E25.94805
G1 X2.122 Y33.173 E25.95636
G1 X2.225 Y33.229 E25.96367
G0 X2.093 Y33.292
G0 X2.046 Y33.314
G0 X2.005 Y33.314
G1 X1.262 Y33.314 E25.99449
G1 X1.059 Y33.314 E26.00671
G1 X-.934 Y33.314 E26.131
G1 X-1.233 Y33.314 E26.14965
G1 X-1.696 Y33.314 E26.17852
G1 X-1.805 Y33.08 E26.19462
G0 X-1.785 Y33.073
G1 X-1.233 Y32.871 E26.22156
G1 X-.94 Y32.815 E26.2391
G1 X0.011 Y32.632 E26.2995
G1 F2700 E22.7995
G1 Z1.3
G0 F9000 X-.943 Y41.737 Z1.3
G1 Z0.3
G1 F2700 E26.2995
G1 F1500 X1.055 Y41.737 E26.4241
G1 X1.252 Y41.737 E26.43639
G1 X1.686 Y41.737 E26.46345
G1 X1.814 Y42.011 E26.48231
G0 X1.784 Y42.021
G1 X1.252 Y42.203 E26.51021
G1 X1.058 Y42.236 E26.52206
G1 X0.01 Y42.418 E26.5884
G1 X-.948 Y42.236 E26.64921
G1 X-1.224 Y42.184 E26.66672
G1 X-1.766 Y41.988 E26.70267
G1 X-1.944 Y41.923 E26.71448
G1 X-1.995 Y41.895 E26.71811
G0 X-1.966 Y41.881
G0 X-1.675 Y41.737
G1 X-1.224 Y41.737 E26.73718
G1 X-.943 Y41.737 E26.75378
G0 F9000 X-.299 Y42.868
;TYPE:WALL-OUTER
G1 F1500 X-1.357 Y42.667 E26.82094
G1 X-2.15 Y42.38 E26.87353
G1 X-2.894 Y41.968 E26.92657
G1 X-3.558 Y41.448 E26.97917
G1 X-4.139 Y40.819 E27.03257
G1 X-4.605 Y40.12 E27.08496
G1 X-4.957 Y39.349 E27.13781
G1 X-5.183 Y38.529 E27.19086
G1 X-5.298 Y37.489 E27.25611
G1 X-10.184 Y36.452 E27.5676
G1 X-14.701 Y34.877 E27.86593
G1 X-18.998 Y32.735 E28.16535
G1 X-22.981 Y30.073 E28.46411
G1 X-26.6 Y26.926 E28.76319
G1 X-29.791 Y23.346 E29.06227
G1 X-32.642 Y19.192 E29.37647
G1 X-53.888 Y31.459 E30.90642
G1 X-54.117 Y31.591 E30.9229
G1 X-53.971 Y31.812 E30.9334
G1 X-50.423 Y37.181 E31.33473
G1 X-46.335 Y42.166 E31.73677
G1 X-41.756 Y46.706 E32.1389
G1 X-36.735 Y50.75 E32.54095
G1 X-31.324 Y54.256 E32.94304
G1 X-25.582 Y57.189 E33.34514
G1 X-19.569 Y59.515 E33.7472
G1 X-13.349 Y61.211 E34.14926
G1 X-6.988 Y62.259 E34.5513
G1 X-.563 Y62.648 E34.95271
G1 X-.299 Y62.663 E34.9692
G1 X-.299 Y62.399 E34.97968
G1 X-.299 Y62.398 E34.97974
G1 X-.299 Y42.868 E36.19768
G0 F9000 X-.544 Y42.822
G1 F2700 E32.69768
G1 Z1.3
G0 F9000 X1.451 Y41.237 Z1.3
G1 Z0.3
G1 F2700 E36.19768
G1 F1500 X-2.061 Y33.715 E36.71539
G1 X-2.191 Y33.436 E36.73458
G1 X-2.437 Y33.621 E36.74631
G1 X-3.039 Y34.075 E36.79333
G1 X-3.57 Y34.639 E36.84164
G1 X-4 Y35.282 E36.88988
G1 X-4.318 Y35.989 E36.93822
G1 X-4.512 Y36.738 E36.98647
G1 X-4.58 Y37.51 E37.0348
G1 X-4.518 Y38.282 E37.0831
G1 X-4.328 Y39.033 E37.13141
G1 X-4.016 Y39.741 E37.17966
G1 X-3.59 Y40.388 E37.22797
G1 X-3.063 Y40.955 E37.27625
G1 X-2.341 Y41.508 E37.33296
G1 X-2.062 Y41.37 E37.35237
G1 X-2.062 Y41.237 E37.36067
G1 X1.451 Y41.237 E37.57975
G0 F9000 X1.346 Y41.011
G1 F2700 E34.07975
G1 Z1.3
G0 F9000 X0.3 Y42.875 Z1.3
G1 Z0.3
G1 F2700 E37.57975
G1 F1500 X0.3 Y62.398 E38.79726
G1 X0.3 Y62.399 E38.79732
G1 X0.3 Y62.663 E38.81378
G1 X0.564 Y62.648 E38.82428
G1 X6.988 Y62.259 E39.22563
G1 X13.349 Y61.211 E39.62766
G1 X19.569 Y59.515 E40.02972
G1 X25.582 Y57.189 E40.43179
G1 X31.324 Y54.256 E40.83389
G1 X36.735 Y50.75 E41.23597
G1 X41.756 Y46.706 E41.63803
G1 X46.335 Y42.166 E42.04015
G1 X50.423 Y37.181 E42.4422
G1 X53.971 Y31.812 E42.84353
G1 X54.117 Y31.591 E42.86004
G1 X53.888 Y31.459 E42.87052
G1 X32.642 Y19.192 E44.40047
G1 X29.801 Y23.334 E44.7137
G1 X26.618 Y26.908 E45.01216
G1 X23.023 Y30.042 E45.30959
G1 X19.051 Y32.704 E45.60778
G1 X14.774 Y34.846 E45.90608
G1 X10.263 Y36.432 E46.20428
G1 X5.403 Y37.474 E46.51425
G1 X5.288 Y38.531 E46.58056
G1 X5.059 Y39.358 E46.63407
G1 X4.699 Y40.141 E46.68782
G1 X4.218 Y40.853 E46.7414
G1 X3.628 Y41.481 E46.79514
G1 X2.946 Y42.004 E46.84873
G1 X2.188 Y42.411 E46.90239
G1 X1.375 Y42.69 E46.95599
G1 X0.3 Y42.875 E47.02402
G0 F9000 X0.3 Y43.125
G1 F2700 E43.52402
G1 Z1.3
G0 F9000 X2.204 Y41.665 Z1.3
G1 Z0.3
G1 F2700 E47.02402
G1 F1500 X2.448 Y41.49 E47.04274
G1 X3.059 Y41.051 E47.08966
G1 X3.602 Y40.503 E47.13777
G1 X4.047 Y39.873 E47.18587
G1 X4.381 Y39.177 E47.23402
G1 X4.595 Y38.436 E47.28212
G1 X4.683 Y37.67 E47.3302
G1 X4.643 Y36.9 E47.37829
G1 X4.476 Y36.146 E47.42645
G1 X4.186 Y35.432 E47.47451
G1 X3.781 Y34.775 E47.52264
G1 X3.272 Y34.195 E47.57076
G1 X2.569 Y33.619 E47.62744
G1 X2.283 Y33.755 E47.64719
G1 X2.283 Y33.814 E47.65087
G1 X-1.066 Y33.814 E47.85972
G1 X-1.067 Y33.814 E47.85978
G1 X-1.458 Y33.814 E47.88417
G1 X-1.293 Y34.169 E47.89829
G1 X2.077 Y41.393 E48.39541
G1 X2.204 Y41.665 E48.40692
G0 F9000 X2.407 Y41.52
G1 F2700 E44.90692
G1 Z1.3
G0 F9000 X5.372 Y36.875 Z1.3
G1 Z0.3
G1 F2700 E48.40692
G1 F1500 X10.173 Y35.834 E48.71329
G1 X14.594 Y34.271 E49.00571
G1 X18.783 Y32.167 E49.29805
G1 X22.675 Y29.553 E49.59043
G1 X26.208 Y26.47 E49.88285
G1 X29.326 Y22.968 E50.17527
G1 X31.971 Y19.115 E50.46672
G1 X32.123 Y18.893 E50.4835
G1 X31.89 Y18.758 E50.49414
G1 X0.707 Y0.754 E52.73965
G1 X0.55 Y0.663 E52.75097
G1 X0.3 Y0.808 E52.76899
G1 X0.3 Y0.99 E52.78034
G1 X0.3 Y32.175 E54.72513
G1 X1.386 Y32.363 E54.79386
G1 X2.207 Y32.65 E54.8481
G1 X2.981 Y33.071 E54.90304
G1 X3.668 Y33.607 E54.95738
G1 X4.258 Y34.248 E55.01171
G1 X4.734 Y34.977 E55.06601
G1 X5.09 Y35.78 E55.12079
G1 X5.372 Y36.875 E55.1913
G0 F9000 X5.616 Y36.823
G1 F2700 E51.6913
G1 Z1.3
G0 F9000 X-.299 Y32.183 Z1.3
G1 Z0.3
G1 F2700 E55.1913
G1 F1500 X-.299 Y0.99 E57.13658
G1 X-.299 Y0.808 E57.14793
G1 X-.549 Y0.663 E57.16596
G1 X-.706 Y0.754 E57.17727
G1 X-31.89 Y18.758 E59.42284
G1 X-32.123 Y18.893 E59.43963
G1 X-31.971 Y19.115 E59.45027
G1 X-29.317 Y22.98 E59.74266
G1 X-26.187 Y26.491 E60.03599
G1 X-22.64 Y29.58 E60.32931
G1 X-18.732 Y32.198 E60.62266
G1 X-14.526 Y34.301 E60.91592
G1 X-10.087 Y35.858 E61.20928
G1 X-5.268 Y36.891 E61.51663
G1 X-4.993 Y35.804 E61.58656
G1 X-4.647 Y35.01 E61.64057
G1 X-4.182 Y34.288 E61.69413
G1 X-3.603 Y33.644 E61.74813
G1 X-2.934 Y33.109 E61.80155
G1 X-2.179 Y32.684 E61.85558
G1 X-1.37 Y32.388 E61.90931
G1 X-.299 Y32.183 E61.97731
G0 F9000 X-.299 Y31.933
G1 F2700 E58.47731
G1 Z1.3
G0 F9000 X1.631 Y63.228 Z1.3
G1 Z0.3
G1 F2700 E61.97731
G1 F1500 X-4.881 Y63.06 E62.38355
G1 X-11.344 Y62.224 E62.78996
G1 X-17.675 Y60.73 E63.19562
G1 X-23.83 Y58.589 E63.60202
G1 X-29.723 Y55.83 E64.00781
G1 X-35.307 Y52.477 E64.414
G1 X-40.518 Y48.566 E64.82032
G1 X-45.293 Y44.147 E65.22605
G1 X-49.594 Y39.254 E65.63232
G1 X-53.367 Y33.946 E66.03845
G1 X-56.577 Y28.274 E66.44489
G1 X-59.184 Y22.31 E66.8508
G1 X-61.163 Y16.111 E67.25661
G1 X-62.495 Y9.734 E67.66288
G1 X-63.166 Y3.242 E68.06989
G1 X-63.249 Y0.006 E68.27177
G1 X-63.166 Y-3.242 E68.47439
G1 X-62.495 Y-9.734 E68.8814
G1 X-61.163 Y-16.111 E69.28767
G1 X-59.184 Y-22.31 E69.69348
G1 X-56.577 Y-28.274 E70.09939
G1 X-53.367 Y-33.946 E70.50583
G1 X-49.594 Y-39.254 E70.91196
G1 X-45.293 Y-44.147 E71.31823
G1 X-40.518 Y-48.566 E71.72396
G1 X-35.307 Y-52.477 E72.13028
G1 X-29.723 Y-55.83 E72.53647
G1 X-23.83 Y-58.589 E72.94226
G1 X-17.675 Y-60.73 E73.34866
G1 X-11.344 Y-62.224 E73.75432
G1 X-4.881 Y-63.06 E74.16073
G1 X1.631 Y-63.228 E74.56697
G1 X8.117 Y-62.726 E74.97267
G1 X14.528 Y-61.558 E75.37905
G1 X20.777 Y-59.739 E75.78493
G1 X26.81 Y-57.286 E76.19108
G1 X32.565 Y-54.221 E76.5977
G1 X37.963 Y-50.589 E77.00344
G1 X42.965 Y-46.416 E77.40968
G1 X47.507 Y-41.756 E77.8155
G1 X51.55 Y-36.649 E78.22171
G1 X55.043 Y-31.157 E78.62761
G1 X57.958 Y-25.324 E79.03426
G1 X60.252 Y-19.238 E79.43987
G1 X61.913 Y-12.934 E79.84642
G1 X62.913 Y-6.507 E80.25205
G1 X63.248 Y0.00 E80.65838
G1 X62.913 Y6.507 E81.06471
G1 X61.913 Y12.934 E81.47034
G1 X60.252 Y19.238 E81.87689
G1 X57.958 Y25.324 E82.2825
G1 X55.043 Y31.157 E82.68916
G1 X51.55 Y36.649 E83.09506
G1 X47.507 Y41.756 E83.50126
G1 X42.965 Y46.416 E83.90708
G1 X37.963 Y50.589 E84.31332
G1 X32.565 Y54.221 E84.71906
G1 X26.81 Y57.286 E85.12568
G1 X20.777 Y59.739 E85.53183
G1 X14.528 Y61.558 E85.93771
G1 X8.117 Y62.726 E86.34409
G1 X1.631 Y63.228 E86.74979
G0 F9000 X1.382 Y63.222
G1 F2700 E83.24979
G1 Z1.3
G0 F9000 X32.423 Y18.373 Z1.3
G1 Z0.3
G1 F2700 E86.74979
G1 F1500 X32.539 Y18.13 E86.76658
G1 X34.559 Y13.898 E87.05902
G1 X36.035 Y9.433 E87.35229
G1 X36.937 Y4.816 E87.64567
G1 X37.249 Y0.124 E87.93892
G1 X36.969 Y-4.571 E88.23223
G1 X36.098 Y-9.193 E88.52555
G1 X34.583 Y-13.882 E88.83285
G1 X33.497 Y-13.576 E88.90321
G1 X32.649 Y-13.48 E88.95643
G1 X31.784 Y-13.522 E89.01044
G1 X30.938 Y-13.702 E89.06438
G1 X30.134 Y-14.017 E89.11823
G1 X29.396 Y-14.453 E89.17169
G1 X28.738 Y-15.002 E89.22513
G1 X28.015 Y-15.828 E89.29359
G1 X1.008 Y-.235 E91.23838
G1 X0.85 Y-.144 E91.24975
G1 X0.85 Y0.144 E91.26771
G1 X1.008 Y0.235 E91.27909
G1 X32.19 Y18.238 E93.52451
G1 X32.423 Y18.373 E93.53514
G0 F9000 X32.53 Y18.148
G0 X32.942 Y18.672
G1 F1500 X54.188 Y30.939 E95.06509
G1 X54.417 Y31.071 E95.08157
G1 X54.535 Y30.834 E95.09207
G1 X57.411 Y25.077 E95.4934
G1 X59.685 Y19.044 E95.89547
G1 X61.326 Y12.809 E96.29754
G1 X62.318 Y6.439 E96.69958
G1 X62.649 Y0.00 E97.10167
G1 X62.318 Y-6.439 E97.50375
G1 X61.326 Y-12.809 E97.90579
G1 X59.685 Y-19.044 E98.30786
G1 X57.411 Y-25.077 E98.70994
G1 X54.535 Y-30.834 E99.11126
G1 X54.417 Y-31.071 E99.12778
G1 X54.188 Y-30.939 E99.13825
G1 X37.275 Y-21.174 E100.35617
G1 X37.63 Y-20.158 E100.42329
G1 X37.778 Y-19.329 E100.4758
G1 X37.793 Y-18.481 E100.52869
G1 X37.673 Y-17.637 E100.58186
G1 X37.423 Y-16.829 E100.6346
G1 X37.048 Y-16.073 E100.68723
G1 X36.553 Y-15.379 E100.74039
G1 X35.961 Y-14.776 E100.79309
G1 X35.116 Y-14.155 E100.85849
G1 X36.659 Y-9.413 E101.16947
G1 X37.555 Y-4.701 E101.46859
G1 X37.849 Y0.09 E101.76793
G1 X37.535 Y4.866 E102.06642
G1 X36.619 Y9.573 E102.36547
G1 X35.117 Y14.116 E102.66387
G1 X32.942 Y18.672 E102.97871
G0 F9000 X33.158 Y18.797
G1 F2700 E99.47871
G1 Z1.3
G0 F9000 X32.824 Y-14.189 Z1.3
G1 Z0.3
G1 F2700 E102.97871
G1 F1500 X33.521 Y-14.296 E103.02268
G1 X34.193 Y-14.506 E103.06659
G1 X34.814 Y-14.812 E103.10976
G1 X35.054 Y-14.93 E103.12644
G1 X35.049 Y-14.939 E103.12708
G1 X34.91 Y-15.167 E103.13771
G1 X32.686 Y-18.806 E103.40368
G1 X32.474 Y-19.154 E103.42909
G1 X32.262 Y-18.806 E103.44364
G1 X30.035 Y-15.167 E103.7097
G1 X29.896 Y-14.939 E103.72635
G1 X29.89 Y-14.93 E103.72703
G1 X30.13 Y-14.812 E103.73768
G1 X30.751 Y-14.506 E103.78085
G1 X31.423 Y-14.296 E103.82476
G1 X32.12 Y-14.189 E103.86873
G1 X32.824 Y-14.189 E103.91264
G0 F9000 X33.071 Y-14.226
G1 F2700 E100.41264
G1 Z1.3
G0 F9000 X29.649 Y-15.09 Z1.3
G1 Z0.3
G1 F2700 E103.91264
G1 F1500 X29.787 Y-15.316 E103.92915
G1 X29.788 Y-15.317 E103.92924
G1 X29.789 Y-15.318 E103.92933
G1 X32.224 Y-19.307 E104.22078
G1 X32.318 Y-19.46 E104.23198
G1 X32.318 Y-23.172 E104.46347
G1 X32.318 Y-23.173 E104.46353
G1 X32.318 Y-23.47 E104.48205
G1 X32.025 Y-23.418 E104.4935
G1 X31.285 Y-23.286 E104.54038
G1 X30.557 Y-23.027 E104.58857
G1 X29.883 Y-22.651 E104.6367
G1 X29.281 Y-22.168 E104.68483
G1 X28.767 Y-21.592 E104.73297
G1 X28.357 Y-20.937 E104.78116
G1 X28.06 Y-20.225 E104.82927
G1 X27.887 Y-19.472 E104.87746
G1 X27.84 Y-18.702 E104.92556
G1 X27.922 Y-17.934 E104.97373
G1 X28.13 Y-17.19 E105.02191
G1 X28.459 Y-16.493 E105.06997
G1 X28.9 Y-15.858 E105.11819
G1 X29.464 Y-15.28 E105.16855
G1 X29.649 Y-15.09 E105.17857
G0 F9000 X29.779 Y-15.304
G1 F2700 E101.67857
G1 Z1.3
G0 F9000 X35.294 Y-15.09 Z1.3
G1 Z0.3
G1 F2700 E105.17857
G1 F1500 X35.479 Y-15.28 E105.1951
G1 X36.044 Y-15.858 E105.24551
G1 X36.484 Y-16.493 E105.29369
G1 X36.813 Y-17.19 E105.34175
G1 X37.021 Y-17.934 E105.38993
G1 X37.104 Y-18.702 E105.4381
G1 X37.057 Y-19.472 E105.48621
G1 X36.883 Y-20.225 E105.53441
G1 X36.587 Y-20.937 E105.5825
G1 X36.176 Y-21.592 E105.63072
G1 X35.663 Y-22.168 E105.67882
G1 X35.06 Y-22.651 E105.727
G1 X34.386 Y-23.027 E105.77513
G1 X33.659 Y-23.286 E105.82326
G1 X32.919 Y-23.418 E105.87014
G1 X32.626 Y-23.47 E105.8887
G1 X32.626 Y-23.173 E105.90012
G1 X32.626 Y-23.172 E105.90019
G1 X32.626 Y-19.46 E106.13168
G1 X32.72 Y-19.306 E106.14293
