; generated by Slic3r 1.34.1-prusa3d-win64 on 2017-04-26 at 17:00:04

; external perimeters extrusion width = 0.50mm
; perimeters extrusion width = 0.85mm
; infill extrusion width = 1.02mm
; solid infill extrusion width = 0.85mm
; top infill extrusion width = 0.85mm

M107
M190 S60 ; set bed temperature and wait for it to be reached
M104 S210 ; set temperature
G28 ; home all axes


M109 S210 ; set temperature and wait for it to be reached
G21 ; set units to millimeters
G90 ; use absolute coordinates
M82 ; use absolute distances for extrusion
G92 E0
G1 Z0.300 F9000.000
G1 E-2.00000 F2400.00000
G92 E0
G1 Z1.300 F9000.000
G1 X40.319 Y54.068 F9000.000
G1 Z0.300 F9000.000
G1 E2.10000 F2400.00000
G1 F540
G1 X34.713 Y57.833 E2.50065
G1 X28.411 Y61.171 E2.92365
G1 X22.158 Y63.708 E3.32397
G1 X15.485 Y65.650 E3.73623
G1 X8.658 Y66.893 E4.14791
G1 X1.636 Y67.430 E4.56569
G1 X-5.208 Y67.250 E4.97183
G1 X-12.095 Y66.358 E5.38380
G1 X-18.850 Y64.764 E5.79548
G1 X-25.409 Y62.483 E6.20744
G1 X-31.699 Y59.539 E6.61941
G1 X-37.652 Y55.964 E7.03138
G1 X-43.207 Y51.796 E7.44335
G1 X-48.234 Y47.148 E7.84949
G1 X-52.889 Y41.863 E8.26727
G1 X-56.910 Y36.207 E8.67895
G1 X-60.333 Y30.159 E9.09121
G1 X-63.077 Y23.892 E9.49706
G1 X-65.225 Y17.185 E9.91484
G1 X-66.630 Y10.484 E10.32099
G1 X-67.355 Y3.577 E10.73295
G1 X-67.451 Y-0.001 E10.94532
G1 X-67.355 Y-3.577 E11.15749
G1 X-66.630 Y-10.485 E11.56953
G1 X-65.225 Y-17.185 E11.97567
G1 X-63.077 Y-23.892 E12.39346
G1 X-60.333 Y-30.159 E12.79931
G1 X-56.910 Y-36.207 E13.21157
G1 X-52.888 Y-41.863 E13.62324
G1 X-48.234 Y-47.149 E14.04103
G1 X-43.207 Y-51.796 E14.44717
G1 X-37.652 Y-55.964 E14.85914
G1 X-31.702 Y-59.537 E15.27081
G1 X-25.413 Y-62.481 E15.68278
G1 X-18.854 Y-64.763 E16.09475
G1 X-12.095 Y-66.358 E16.50672
G1 X-5.208 Y-67.250 E16.91869
G1 X1.641 Y-67.430 E17.32512
G1 X8.658 Y-66.893 E17.74261
G1 X15.486 Y-65.649 E18.15429
G1 X22.154 Y-63.709 E18.56626
G1 X28.412 Y-61.170 E18.96687
G1 X34.713 Y-57.833 E19.38988
G1 X40.319 Y-54.068 E19.79048
G1 X45.961 Y-49.363 E20.22626
G1 X50.667 Y-44.526 E20.62658
G1 X54.976 Y-39.080 E21.03855
G1 X58.701 Y-33.225 E21.45023
G1 X61.810 Y-27.004 E21.86278
G1 X64.256 Y-20.515 E22.27416
G1 X66.025 Y-13.799 E22.68613
G1 X67.094 Y-6.938 E23.09810
G1 X67.451 Y0.003 E23.51036
G1 X67.094 Y6.933 E23.92203
G1 X66.025 Y13.795 E24.33400
G1 X64.257 Y20.511 E24.74597
G1 X61.810 Y27.005 E25.15764
G1 X58.703 Y33.221 E25.56990
G1 X54.979 Y39.077 E25.98158
G1 X50.669 Y44.523 E26.39355
G1 X45.964 Y49.359 E26.79387
G1 X40.377 Y54.020 E27.22545
G1 X40.074 Y53.657 F9000.000
G1 F540
G1 X34.470 Y57.424 E27.62602
G1 X28.231 Y60.730 E28.04489
G1 X21.999 Y63.259 E28.44385
G1 X15.378 Y65.186 E28.85291
G1 X8.599 Y66.421 E29.26170
G1 X1.636 Y66.955 E29.67595
G1 X-5.169 Y66.776 E30.07982
G1 X-12.008 Y65.890 E30.48888
G1 X-18.719 Y64.306 E30.89795
G1 X-25.232 Y62.041 E31.30701
G1 X-31.478 Y59.118 E31.71607
G1 X-37.385 Y55.570 E32.12486
G1 X-42.901 Y51.432 E32.53392
G1 X-47.903 Y46.807 E32.93807
G1 X-52.514 Y41.569 E33.35204
G1 X-56.510 Y35.949 E33.76110
G1 X-59.907 Y29.948 E34.17017
G1 X-62.637 Y23.711 E34.57404
G1 X-64.766 Y17.061 E34.98828
G1 X-66.163 Y10.397 E35.39216
G1 X-66.881 Y3.539 E35.80122
G1 X-66.976 Y0.002 E36.01112
G1 X-66.881 Y-3.538 E36.22118
G1 X-66.162 Y-10.398 E36.63039
G1 X-64.766 Y-17.062 E37.03426
G1 X-62.636 Y-23.712 E37.44851
G1 X-59.909 Y-29.945 E37.85211
G1 X-56.510 Y-35.950 E38.26145
G1 X-52.517 Y-41.566 E38.67023
G1 X-47.902 Y-46.808 E39.08448
G1 X-42.904 Y-51.430 E39.48835
G1 X-37.388 Y-55.568 E39.89741
G1 X-31.476 Y-59.118 E40.30648
G1 X-25.231 Y-62.041 E40.71554
G1 X-18.718 Y-64.307 E41.12460
G1 X-12.011 Y-65.890 E41.53339
G1 X-5.173 Y-66.776 E41.94245
G1 X1.638 Y-66.955 E42.34660
G1 X8.596 Y-66.422 E42.76057
G1 X15.375 Y-65.187 E43.16936
G1 X22.001 Y-63.259 E43.57870
G1 X28.228 Y-60.732 E43.97738
G1 X34.630 Y-57.323 E44.40762
G1 X40.208 Y-53.564 E44.80665
G1 X45.621 Y-49.030 E45.22552
G1 X50.311 Y-44.210 E45.62447
G1 X54.590 Y-38.803 E46.03354
G1 X58.288 Y-32.988 E46.44233
G1 X61.373 Y-26.816 E46.85166
G1 X63.804 Y-20.368 E47.26045
G1 X65.560 Y-13.699 E47.66952
G1 X66.621 Y-6.886 E48.07858
G1 X66.976 Y0.001 E48.48764
G1 X66.621 Y6.887 E48.89670
G1 X65.559 Y13.701 E49.30576
G1 X63.803 Y20.369 E49.71483
G1 X61.372 Y26.817 E50.12362
G1 X58.288 Y32.989 E50.53295
G1 X54.589 Y38.804 E50.94174
G1 X50.310 Y44.211 E51.35080
G1 X45.623 Y49.028 E51.74949
G1 X40.131 Y53.609 E52.17372
G1 F7200
G1 X35.156 Y56.962 E50.27372
G1 E50.17372 F2400.00000
G92 E0
G1 Z1.300 F9000.000
G1 X36.863 Y50.127 F9000.000
G1 Z0.300 F9000.000
G1 E2.10000 F2400.00000
G1 F360
G1 X37.349 Y49.770 E2.13867
G1 X39.946 Y47.648 E2.35404
G1 F360
G1 X41.245 Y46.587 E2.44717
G1 X41.932 Y45.967 E2.49858
G1 F360
G1 X42.266 Y45.665 E2.52778
G1 X44.565 Y43.360 E2.73859
G1 F360
G1 X45.715 Y42.207 E2.82871
G1 X46.401 Y41.447 E2.88543
G1 F360
G1 X46.736 Y41.075 E2.91808
G1 X48.727 Y38.625 E3.12408
G1 F360
G1 X49.722 Y37.400 E3.21123
G1 X50.386 Y36.495 E3.27324
G1 F360
G1 X50.710 Y36.051 E3.30936
G1 X52.244 Y33.713 E3.49314
G1 F360
G1 X53.778 Y31.374 E3.64972
G1 X53.836 Y31.164 E3.66196
G1 F360
G1 X53.855 Y31.093 E3.66688
G1 X53.731 Y31.021 E3.67659
G1 X53.731 Y31.021 F9000.000
G1 F360
G1 X32.157 Y18.566 E5.13307
G1 F360
G1 X32.068 Y18.514 E5.14012
G1 F360
G1 X31.979 Y18.463 E5.14823
G1 X32.052 Y18.337 E5.15975
G1 F360
G1 X32.101 Y18.253 E5.16630
G1 F360
G1 X33.218 Y15.790 E5.31835
G1 F360
G1 X34.313 Y13.373 E5.48737
G1 X34.595 Y12.636 E5.53761
G1 F360
G1 X34.953 Y11.468 E5.60256
G1 F360
G1 X35.646 Y9.195 E5.75077
G1 X35.882 Y8.217 E5.81357
G1 F360
G1 X36.007 Y7.695 E5.84363
G1 X36.165 Y6.761 E5.89680
G1 F360
G1 X36.480 Y4.891 E6.01555
G1 X36.660 Y3.228 E6.12035
G1 F360
G1 X36.722 Y2.642 E6.15251
G1 X36.763 Y1.581 E6.21041
G1 F360
G1 X36.804 Y0.520 E6.27823
G1 X36.762 Y-1.447 E6.40390
G1 F360
G1 X36.741 Y-2.430 E6.45968
G1 X36.660 Y-3.328 E6.51082
G1 F360
G1 X36.612 Y-3.860 E6.54581
G1 X36.246 Y-6.280 E6.70626
G1 F360
G1 X36.062 Y-7.490 E6.77711
G1 X35.908 Y-8.188 E6.81855
G1 X34.461 Y-13.207 E7.12096
G1 F360
G1 X34.424 Y-13.302 E7.12808
G1 F360
G1 X34.387 Y-13.397 E7.13643
G1 X34.072 Y-13.357 E7.16227
G1 F360
G1 X33.775 Y-13.301 E7.18454
G1 F360
G1 X32.919 Y-13.205 E7.24026
G1 F360
G1 X32.382 Y-13.185 E7.26995
G1 X32.064 Y-13.201 E7.28751
G1 X31.442 Y-13.279 E7.32214
G1 X31.181 Y-13.336 E7.33690
G1 X30.530 Y-13.527 E7.37433
G1 X30.365 Y-13.593 E7.38417
G1 X29.673 Y-13.925 E7.42654
G1 X29.194 Y-14.205 E7.45717
G1 F360
G1 X29.030 Y-14.335 E7.46721
G1 F360
G1 X28.889 Y-14.455 E7.47753
G1 X28.110 Y-15.235 E7.53894
G1 F360
G1 X27.810 Y-15.590 E7.56915
G1 F360
G1 X27.590 Y-15.830 E7.59395
G1 F360
G1 X27.520 Y-15.893 E7.60212
G1 X27.428 Y-15.839 E7.61138
G1 F360
G1 X27.337 Y-15.784 E7.61943
G1 F360
G1 X0.364 Y-0.210 E9.61715
G1 F360
G1 X0.291 Y-0.168 E9.62307
G1 F360
G1 X0.218 Y-0.126 E9.63001
G1 F360
G1 X0.145 Y-0.084 E9.63796
G1 F360
G1 X0.073 Y-0.042 E9.64693
G1 F360
G1 X0.000 Y-0.000 E9.65691
G1 X0.000 Y-0.000 F9000.000
G1 F360
G1 X0.000 Y-0.084 E9.66740
G1 F360
G1 X0.000 Y-0.168 E9.67687
G1 F360
G1 X0.000 Y-0.252 E9.68534
G1 F360
G1 X0.000 Y-0.336 E9.69278
G1 F360
G1 X0.000 Y-0.420 E9.69921
G1 F360
G1 X0.000 Y-36.772 E12.04435
G1 F360
G1 X0.000 Y-36.875 E12.05193
G1 F360
G1 X-0.000 Y-36.926 E12.05626
G1 X0.000 Y-36.926 F9000.000
G1 F360
G1 X0.097 Y-36.926 E12.06390
G1 F360
G1 X0.194 Y-36.926 E12.07044
G1 F360
G1 X5.561 Y-36.405 E12.38151
G1 X6.371 Y-36.275 E12.42884
G1 X7.524 Y-36.009 E12.49714
G1 F360
G1 X9.831 Y-35.476 E12.65581
G1 X10.313 Y-35.335 E12.68943
G1 F360
G1 X11.275 Y-35.052 E12.74623
G1 X12.192 Y-34.713 E12.80152
G1 F360
G1 X13.963 Y-34.056 E12.92232
G1 X14.981 Y-33.608 E12.99340
G1 F360
G1 X15.998 Y-33.160 E13.05575
G1 X16.651 Y-32.818 E13.09710
G1 F360
G1 X17.900 Y-32.162 E13.18543
G1 X19.579 Y-31.148 E13.30819
G1 F360
G1 X20.445 Y-30.624 E13.35977
G1 F360
G1 X21.589 Y-29.820 E13.44681
G1 X23.498 Y-28.302 E13.59869
G1 F360
G1 X24.479 Y-27.521 E13.66604
G1 F360
G1 X24.980 Y-27.063 E13.70939
G1 X28.606 Y-23.316 E14.04223
G1 F360
G1 X28.667 Y-23.237 E14.04986
G1 F360
G1 X28.729 Y-23.157 E14.05869
G1 X28.820 Y-23.198 E14.06745
G1 F360
G1 X29.039 Y-23.321 E14.08631
G1 F360
G1 X29.295 Y-23.483 E14.10656
G1 F360
G1 X30.129 Y-23.921 E14.16232
G1 X30.404 Y-24.039 E14.18001
G1 X31.010 Y-24.240 E14.21783
G1 X31.242 Y-24.298 E14.23196
G1 X32.110 Y-24.437 E14.28396
G1 F360
G1 X32.433 Y-24.464 E14.30103
G1 X32.750 Y-24.440 E14.31773
G1 F360
G1 X32.988 Y-24.418 E14.33261
G1 X33.854 Y-24.267 E14.38713
G1 X34.817 Y-23.924 E14.45060
G1 X35.598 Y-23.487 E14.50614
G1 X36.165 Y-23.052 E14.55055
G1 X36.361 Y-22.872 E14.56702
G1 X37.003 Y-22.183 E14.62548
G1 F360
G1 X37.223 Y-21.904 E14.65096
G1 F360
G1 X37.469 Y-21.633 E14.68089
G1 X37.565 Y-21.688 E14.68989
G1 F360
G1 X37.660 Y-21.743 E14.69762
G1 F360
G1 X53.731 Y-31.021 E15.78255
G1 X53.731 Y-31.021 F9000.000
G1 F360
G1 X53.855 Y-31.093 E15.79227
G1 X53.836 Y-31.164 E15.79719
G1 F360
G1 X53.778 Y-31.374 E15.80942
G1 X52.244 Y-33.713 E15.96601
G1 F360
G1 X50.710 Y-36.051 E16.14979
G1 X50.386 Y-36.495 E16.18591
G1 F360
G1 X49.722 Y-37.400 E16.24791
G1 X48.727 Y-38.625 E16.33507
G1 F360
G1 X46.736 Y-41.075 E16.54107
G1 X46.401 Y-41.447 E16.57372
G1 F360
G1 X45.715 Y-42.207 E16.63043
G1 X44.565 Y-43.360 E16.72056
G1 F360
G1 X42.266 Y-45.665 E16.93137
G1 X41.932 Y-45.967 E16.96057
G1 F360
G1 X41.245 Y-46.587 E17.01197
G1 X39.946 Y-47.648 E17.10511
G1 F360
G1 X37.349 Y-49.770 E17.32048
G1 X36.863 Y-50.127 E17.35915
G1 F360
G1 X36.358 Y-50.497 E17.39162
G1 F360
G1 X32.034 Y-53.349 E17.72114
G1 X31.579 Y-53.616 E17.75473
G1 F360
G1 X31.103 Y-53.896 E17.78372
G1 F360
G1 X26.380 Y-56.362 E18.11928
G1 X25.968 Y-56.551 E18.14787
G1 F360
G1 X25.532 Y-56.750 E18.17329
G1 F360
G1 X20.446 Y-58.778 E18.51448
G1 X20.087 Y-58.901 E18.53814
G1 F360
G1 X19.703 Y-59.030 E18.55992
G1 F360
G1 X14.295 Y-60.572 E18.90197
G1 X13.699 Y-60.709 E18.93913
G1 X7.991 Y-61.724 E19.29173
G1 X7.532 Y-61.781 E19.31987
G1 F360
G1 X1.603 Y-62.222 E19.64343
G1 X0.281 Y-62.251 E19.71535
G1 X0.141 Y-62.206 E19.72338
G1 F360
G1 X-0.000 Y-62.161 E19.73295
G1 X-0.000 Y-62.102 F9000.000
G1 F360
G1 X-0.000 Y-62.161 E19.73678
G1 X-0.140 Y-62.203 E19.74626
G1 F360
G1 X-0.281 Y-62.244 E19.75409
G1 F360
G1 X-1.492 Y-62.186 E19.80950
G1 X-1.492 Y-62.186 F9000.000
G1 F360
G1 X-3.698 Y-62.079 E19.93166
G1 F360
G1 X-4.801 Y-62.026 E20.00645
G1 X-6.153 Y-61.890 E20.09844
G1 F360
G1 X-7.505 Y-61.755 E20.17711
G1 F360
G1 X-8.434 Y-61.615 E20.22228
G1 F360
G1 X-10.247 Y-61.341 E20.32830
G1 F360
G1 X-11.153 Y-61.204 E20.39026
G1 X-12.412 Y-60.947 E20.47706
G1 F360
G1 X-13.670 Y-60.689 E20.55145
G1 F360
G1 X-14.616 Y-60.447 E20.59857
G1 F360
G1 X-16.464 Y-59.971 E20.70885
G1 F360
G1 X-17.387 Y-59.733 E20.77313
G1 X-18.543 Y-59.372 E20.85470
G1 F360
G1 X-19.698 Y-59.010 E20.92482
G1 F360
G1 X-20.649 Y-58.659 E20.97394
G1 F360
G1 X-22.508 Y-57.973 E21.08848
G1 F360
G1 X-23.438 Y-57.630 E21.15503
G1 X-24.830 Y-57.033 E21.25680
G1 F360
G1 X-25.547 Y-56.724 E21.29961
G1 X-28.009 Y-55.518 E21.45001
G1 F360
G1 X-29.239 Y-54.915 E21.54169
G1 X-30.478 Y-54.228 E21.63642
G1 F360
G1 X-31.116 Y-53.872 E21.67662
G1 X-33.527 Y-52.370 E21.83273
G1 F360
G1 X-34.732 Y-51.619 E21.92726
G1 X-35.812 Y-50.866 E22.01497
G1 F360
G1 X-36.371 Y-50.475 E22.05254
G1 X-38.694 Y-48.675 E22.21445
G1 F360
G1 X-39.856 Y-47.775 E22.31174
G1 X-40.780 Y-46.980 E22.39243
G1 F360
G1 X-41.259 Y-46.567 E22.42737
G1 X-43.458 Y-44.473 E22.59514
G1 F360
G1 X-44.558 Y-43.425 E22.69508
G1 X-45.328 Y-42.612 E22.76878
G1 F360
G1 X-45.729 Y-42.188 E22.80109
G1 X-47.769 Y-39.806 E22.97479
G1 F360
G1 X-48.788 Y-38.615 E23.07727
G1 X-49.412 Y-37.806 E23.14401
G1 F360
G1 X-49.737 Y-37.382 E23.17368
G1 X-51.580 Y-34.724 E23.35339
G1 F360
G1 X-52.502 Y-33.395 E23.45831
G1 X-53.131 Y-32.379 E23.53583
G1 F360
G1 X-53.761 Y-31.363 E23.59921
G1 F360
G1 X-53.791 Y-31.218 E23.60612
G1 F360
G1 X-53.822 Y-31.074 E23.61466
G1 X-53.985 Y-30.925 E23.62744
G1 F360
G1 X-54.039 Y-30.876 E23.63084
G1 X-54.642 Y-29.729 E23.69084
G1 F360
G1 X-55.245 Y-28.583 E23.76296
G1 F360
G1 X-55.648 Y-27.815 E23.81854
G1 X-56.441 Y-26.097 E23.93978
G1 F360
G1 X-57.234 Y-24.378 E24.04918
G1 F360
G1 X-57.485 Y-23.754 E24.08161
G1 F360
G1 X-57.970 Y-22.548 E24.15688
G1 F360
G1 X-58.212 Y-21.945 E24.20083
G1 X-58.803 Y-20.225 E24.32376
G1 F360
G1 X-59.393 Y-18.506 E24.42890
G1 F360
G1 X-59.590 Y-17.824 E24.46300
G1 F360
G1 X-59.970 Y-16.504 E24.54255
G1 F360
G1 X-60.160 Y-15.843 E24.58909
G1 X-60.555 Y-14.145 E24.70725
G1 F360
G1 X-60.951 Y-12.446 E24.80813
G1 F360
G1 X-61.084 Y-11.711 E24.84392
G1 F360
G1 X-61.341 Y-10.286 E24.92774
G1 F360
G1 X-61.470 Y-9.574 E24.97685
G1 X-61.681 Y-7.917 E25.09014
G1 F360
G1 X-61.893 Y-6.260 E25.18676
G1 F360
G1 X-61.954 Y-5.475 E25.22447
G1 F360
G1 X-62.071 Y-3.949 E25.31312
G1 F360
G1 X-62.129 Y-3.186 E25.36514
G1 X-62.250 Y-0.013 E25.58099
G1 F360
G1 X-62.190 Y1.600 E25.67503
G1 F360
G1 X-62.129 Y3.186 E25.78295
G1 X-62.012 Y4.712 E25.88699
G1 F360
G1 X-61.895 Y6.238 E25.97564
G1 F360
G1 X-61.787 Y7.089 E26.01669
G1 F360
G1 X-61.575 Y8.745 E26.11331
G1 F360
G1 X-61.470 Y9.574 E26.16996
G1 X-61.213 Y10.999 E26.26818
G1 F360
G1 X-60.956 Y12.424 E26.35200
G1 F360
G1 X-60.753 Y13.295 E26.39489
G1 F360
G1 X-60.358 Y14.994 E26.49577
G1 F360
G1 X-60.160 Y15.843 E26.55485
G1 X-59.780 Y17.164 E26.64793
G1 F360
G1 X-59.400 Y18.484 E26.72748
G1 F360
G1 X-59.098 Y19.365 E26.77225
G1 F360
G1 X-58.508 Y21.085 E26.87739
G1 F360
G1 X-58.212 Y21.945 E26.93886
G1 X-57.728 Y23.151 E27.02675
G1 F360
G1 X-57.243 Y24.358 E27.10202
G1 F360
G1 X-56.838 Y25.237 E27.14873
G1 F360
G1 X-56.045 Y26.956 E27.25813
G1 F360
G1 X-55.648 Y27.815 E27.32194
G1 X-55.005 Y29.039 E27.41522
G1 F360
G1 X-54.361 Y30.264 E27.49365
G1 F360
G1 X-54.039 Y30.876 E27.52544
G1 X-53.931 Y30.975 E27.53221
G1 F360
G1 X-53.822 Y31.074 E27.54070
G1 X-53.776 Y31.291 E27.55348
G1 F360
G1 X-53.761 Y31.363 E27.55693
G1 X-53.446 Y31.871 E27.58488
G1 F360
G1 X-52.817 Y32.887 E27.64826
G1 F360
G1 X-52.502 Y33.395 E27.68702
G1 X-50.659 Y36.053 E27.89686
G1 F360
G1 X-49.737 Y37.382 E27.98637
G1 X-49.100 Y38.210 E28.04418
G1 F360
G1 X-48.788 Y38.615 E28.07755
G1 X-46.749 Y40.997 E28.28252
G1 F360
G1 X-45.729 Y42.188 E28.36906
G1 X-44.943 Y43.019 E28.43216
G1 F360
G1 X-44.558 Y43.425 E28.46901
G1 X-42.359 Y45.520 E28.66889
G1 F360
G1 X-41.259 Y46.567 E28.75250
G1 X-40.318 Y47.378 E28.82088
G1 F360
G1 X-39.856 Y47.775 E28.86123
G1 X-37.533 Y49.575 E29.05580
G1 F360
G1 X-36.371 Y50.475 E29.13652
G1 X-35.272 Y51.242 E29.21017
G1 F360
G1 X-34.732 Y51.619 E29.25403
G1 X-32.321 Y53.121 E29.44309
G1 F360
G1 X-31.116 Y53.872 E29.52095
G1 X-29.858 Y54.572 E29.59988
G1 F360
G1 X-29.239 Y54.915 E29.64725
G1 X-26.778 Y56.121 E29.83060
G1 F360
G1 X-25.547 Y56.724 E29.90564
G1 X-24.830 Y57.033 E29.94836
G1 F360
G1 X-23.438 Y57.630 E30.04081
G1 X-20.649 Y58.659 E30.22218
G1 F360
G1 X-19.698 Y59.010 E30.27602
G1 X-18.543 Y59.372 E30.34030
G1 F360
G1 X-17.387 Y59.733 E30.41615
G1 X-14.616 Y60.447 E30.59546
G1 F360
G1 X-13.670 Y60.689 E30.64723
G1 X-12.412 Y60.947 E30.71532
G1 F360
G1 X-11.153 Y61.204 E30.79592
G1 X-8.434 Y61.615 E30.96850
G1 F360
G1 X-7.505 Y61.755 E31.01823
G1 X-6.153 Y61.890 E31.09016
G1 F360
G1 X-4.801 Y62.026 E31.17549
G1 X-2.089 Y62.157 E31.34604
G1 F360
G1 X-0.281 Y62.244 E31.44101
G1 X-0.140 Y62.203 E31.44869
G1 F360
G1 X0.000 Y62.161 E31.45735
