;FLAVOR:Repetier
;TIME:389
;Generated with Cura_SteamEngine master
M190 S60
M104 S200
M109 S200
G28

;LAYER_COUNT:3
;LAYER:0
M107
G1 F2700 E-3.5
G1 Z21
G0 F9000 X65.58 Y-4.211 Z1.3
G0 X65.59 Y-4.072 Z1.3
;TYPE:SKIRT
G1 Z0.3
G1 F2700 E0
G1 F1500 X65.729 Y-.78 E0.20548
G1 X65.731 Y-.642 E0.21409
G1 X65.655 Y3.311 E0.46065
G1 X65.643 Y3.499 E0.4724
G1 X64.971 Y10.002 E0.88011
G1 X64.935 Y10.231 E0.89456
G1 X63.6 Y16.624 E1.30185
G1 X63.541 Y16.849 E1.31635
G1 X61.551 Y23.079 E1.72421
G1 X61.47 Y23.295 E1.7386
G1 X58.852 Y29.285 E2.14627
G1 X58.748 Y29.492 E2.16072
G1 X55.527 Y35.185 E2.56864
G1 X55.403 Y35.381 E2.5831
G1 X51.614 Y40.709 E2.99082
G1 X51.47 Y40.89 E3.00525
G1 X47.164 Y45.789 E3.412
G1 X46.998 Y45.959 E3.42682
G1 X42.001 Y50.562 E3.85051
G1 X41.825 Y50.708 E3.86477
G1 X36.778 Y54.486 E4.25793
G1 X36.588 Y54.614 E4.27221
G1 X31.001 Y57.967 E4.67857
G1 X30.792 Y58.078 E4.69332
G1 X24.627 Y60.945 E5.11733
G1 X24.409 Y61.033 E5.13199
G1 X18.245 Y63.15 E5.53843
G1 X18.029 Y63.212 E5.55245
G1 X11.917 Y64.648 E5.94399
G1 X11.685 Y64.69 E5.95869
G1 X4.937 Y65.546 E6.38289
G1 X4.709 Y65.563 E6.39715
G1 X-1.588 Y65.716 E6.78996
G1 X-1.816 Y65.71 E6.80418
G1 X-8.307 Y65.209 E7.21018
G1 X-8.537 Y65.18 E7.22464
G1 X-14.995 Y64.004 E7.634
G1 X-15.221 Y63.95 E7.64849
G1 X-21.482 Y62.128 E8.05514
G1 X-21.711 Y62.048 E8.07027
G1 X-28.157 Y59.389 E8.50512
G1 X-28.371 Y59.287 E8.5199
G1 X-34.154 Y56.153 E8.9301
G1 X-34.346 Y56.036 E8.94412
G1 X-39.554 Y52.5 E9.3367
G1 X-39.738 Y52.361 E9.35108
G1 X-44.748 Y48.149 E9.75926
G1 X-44.914 Y47.995 E9.77338
G1 X-49.305 Y43.477 E10.16628
G1 X-49.455 Y43.306 E10.18047
G1 X-53.505 Y38.191 E10.58734
G1 X-53.643 Y37.996 E10.60223
G1 X-57.283 Y32.236 E11.02716
G1 X-57.395 Y32.037 E11.0414
G1 X-60.189 Y26.429 E11.43213
G1 X-60.247 Y26.303 E11.44078
G1 X-60.338 Y26.088 E11.45534
G1 X-60.373 Y26.002 E11.46113
G1 X-62.592 Y20.09 E11.85494
G1 X-62.661 Y19.871 E11.86925
G1 X-64.325 Y13.545 E12.27718
G1 X-64.372 Y13.319 E12.29158
G1 X-65.377 Y6.862 E12.6991
G1 X-65.401 Y6.632 E12.71352
G1 X-65.736 Y0.117 E13.12035
G1 X-65.736 Y-.12 E13.13513
G1 X-65.373 Y-6.87 E13.55669
G1 X-65.348 Y-7.104 E13.57137
G1 X-64.316 Y-13.569 E13.97965
G1 X-64.267 Y-13.796 E13.99413
G1 X-62.56 Y-20.168 E14.40551
G1 X-62.491 Y-20.383 E14.4196
G1 X-60.278 Y-26.225 E14.80918
G1 X-60.187 Y-26.434 E14.8234
G1 X-57.266 Y-32.28 E15.23095
G1 X-57.152 Y-32.481 E15.24536
G1 X-53.661 Y-37.971 E15.65109
G1 X-53.52 Y-38.168 E15.66619
G1 X-49.174 Y-43.611 E16.10056
G1 X-49.016 Y-43.789 E16.11541
G1 X-44.372 Y-48.485 E16.52728
G1 X-44.205 Y-48.638 E16.5414
G1 X-39.302 Y-52.687 E16.93795
G1 X-39.122 Y-52.821 E16.95195
G1 X-33.922 Y-56.308 E17.3424
G1 X-33.726 Y-56.425 E17.35663
G1 X-27.97 Y-59.488 E17.76325
G1 X-27.755 Y-59.588 E17.77804
G1 X-21.451 Y-62.133 E18.202
G1 X-21.23 Y-62.21 E18.2166
G1 X-14.974 Y-64.005 E18.62248
G1 X-14.754 Y-64.056 E18.63656
G1 X-8.554 Y-65.178 E19.02949
G1 X-8.327 Y-65.207 E19.04376
G1 X-1.813 Y-65.711 E19.45121
G1 X-1.581 Y-65.717 E19.46568
G1 X4.954 Y-65.549 E19.87336
G1 X5.184 Y-65.531 E19.88775
G1 X11.658 Y-64.694 E20.29484
G1 X11.887 Y-64.653 E20.30935
G1 X18.266 Y-63.147 E20.7181
G1 X18.488 Y-63.082 E20.73252
G1 X24.648 Y-60.941 E21.13922
G1 X24.868 Y-60.852 E21.15402
G1 X31.007 Y-57.961 E21.57719
G1 X31.214 Y-57.849 E21.59187
G1 X36.815 Y-54.454 E22.00032
G1 X37.007 Y-54.324 E22.01478
G1 X42.221 Y-50.379 E22.42253
G1 X42.398 Y-50.23 E22.43695
G1 X47.178 Y-45.77 E22.84466
G1 X47.335 Y-45.608 E22.85872
G1 X51.475 Y-40.885 E23.2504
G1 X51.617 Y-40.706 E23.26465
G1 X55.401 Y-35.385 E23.67184
G1 X55.525 Y-35.189 E23.6863
G1 X58.744 Y-29.503 E24.09377
G1 X58.848 Y-29.296 E24.10822
G1 X61.469 Y-23.301 E24.51626
G1 X61.551 Y-23.084 E24.53072
G1 X63.544 Y-16.837 E24.93965
G1 X63.602 Y-16.613 E24.95408
G1 X64.938 Y-10.221 E25.36131
G1 X64.974 Y-9.995 E25.37559
G1 X65.58 Y-4.211 E25.73827
G1 X65.59 Y-4.072 E25.74696
G1 F2700 E22.24696
G1 Z1.3
G0 F9000 X0.35 Y-.2 Z1.3
;TYPE:WALL-INNER
G1 Z0.3
G1 F2700 E25.74696
G1 F1500 X0.35 Y-0.029 E25.75762
G0 X0.277 Y-0.071
G1 X-0.076 Y-.275 E25.78108
G1 X-.149 Y-.317 E25.78633
G0 X-0.001 Y-.404
G1 X0.35 Y-.2 E25.78844
G0 F9000 X-.201 Y-.201
G1 F1500 X-.201 Y0.201 E25.80818
G1 X-.201 Y0.287 E25.81354
G0 X-.35 Y0.201
G0 X-.35 Y-.201
G1 X-.201 Y-.287 E25.82232
G0 X-.201 Y-.201
G1 F2700 E22.32232
G1 Z1.3
G0 F9000 X-0.011 Y-32.632 Z1.3
G1 Z0.3
G1 F2700 E25.82232
G1 F1500 X-1.062 Y-32.815 E25.88885
G1 X-1.262 Y-32.849 E25.9015
G1 X-2.005 Y-33.109 E25.95059
G1 X-2.122 Y-33.173 E25.95891
G1 X-2.225 Y-33.229 E25.96622
G0 X-2.093 Y-33.292
G0 X-2.046 Y-33.314
G0 X-2.005 Y-33.314
G1 X-1.262 Y-33.314 E25.99704
G1 X-1.059 Y-33.314 E26.00925
G1 X0.934 Y-33.314 E26.13354
G1 X1.233 Y-33.314 E26.15219
G1 X1.696 Y-33.314 E26.18106
G1 X1.805 Y-33.08 E26.19716
G0 X1.785 Y-33.073
G1 X1.233 Y-32.871 E26.2241
G1 X0.94 Y-32.815 E26.24165
G1 X-0.011 Y-32.632 E26.30204
G1 F2700 E22.80204
G1 Z1.3
G0 F9000 X0.943 Y-41.737 Z1.3
G1 Z0.3
G1 F2700 E26.30204
G1 F1500 X-1.055 Y-41.737 E26.42664
G1 X-1.252 Y-41.737 E26.43893
G1 X-1.686 Y-41.737 E26.46599
G1 X-1.814 Y-42.011 E26.48485
G0 X-1.784 Y-42.021
G1 X-1.252 Y-42.203 E26.51275
G1 X-1.058 Y-42.236 E26.5246
G1 X-0.01 Y-42.418 E26.59094
G1 X0.948 Y-42.236 E26.65175
G1 X1.224 Y-42.184 E26.66927
G1 X1.766 Y-41.988 E26.70521
G1 X1.944 Y-41.923 E26.71703
G1 X1.995 Y-41.895 E26.72065
G0 X1.966 Y-41.881
G0 X1.675 Y-41.737
G1 X1.224 Y-41.737 E26.73972
G1 X0.943 Y-41.737 E26.75632
G0 F9000 X0.299 Y-42.868
;TYPE:WALL-OUTER
G1 F1500 X1.357 Y-42.667 E26.82348
G1 X2.15 Y-42.38 E26.87608
G1 X2.894 Y-41.968 E26.92911
G1 X3.558 Y-41.448 E26.98171
G1 X4.139 Y-40.819 E27.03511
G1 X4.603 Y-40.123 E27.08727
G1 X4.957 Y-39.349 E27.14035
G1 X5.183 Y-38.529 E27.1934
G1 X5.298 Y-37.489 E27.25865
G1 X10.184 Y-36.452 E27.57014
G1 X14.701 Y-34.877 E27.86847
G1 X18.998 Y-32.735 E28.16789
G1 X22.981 Y-30.073 E28.46665
G1 X26.6 Y-26.926 E28.76573
G1 X29.791 Y-23.346 E29.06481
G1 X32.642 Y-19.192 E29.37901
G1 X53.888 Y-31.459 E30.90896
G1 X54.117 Y-31.591 E30.92544
G1 X53.971 Y-31.812 E30.93594
G1 X50.423 Y-37.181 E31.33727
G1 X46.335 Y-42.166 E31.73931
G1 X41.756 Y-46.706 E32.14143
G1 X36.735 Y-50.75 E32.54349
G1 X31.324 Y-54.256 E32.94558
G1 X25.582 Y-57.189 E33.34767
G1 X19.569 Y-59.515 E33.74974
G1 X13.349 Y-61.211 E34.1518
G1 X6.988 Y-62.259 E34.55384
G1 X0.563 Y-62.648 E34.95525
G1 X0.299 Y-62.663 E34.97174
G1 X0.299 Y-62.399 E34.98222
G1 X0.299 Y-62.398 E34.98228
G1 X0.299 Y-42.868 E36.20022
G0 F9000 X0.544 Y-42.822
G1 F2700 E32.70022
G1 Z1.3
G0 F9000 X-1.451 Y-41.237 Z1.3
G1 Z0.3
G1 F2700 E36.20022
G1 F1500 X-1.286 Y-40.882 E36.22464
G1 X2.061 Y-33.715 E36.71793
G1 X2.191 Y-33.436 E36.73712
G1 X2.437 Y-33.621 E36.74885
G1 X3.039 Y-34.075 E36.79587
G1 X3.57 Y-34.639 E36.84418
G1 X4 Y-35.282 E36.89242
G1 X4.318 Y-35.989 E36.94076
G1 X4.512 Y-36.738 E36.98901
G1 X4.58 Y-37.51 E37.03734
G1 X4.518 Y-38.282 E37.08564
G1 X4.328 Y-39.033 E37.13395
G1 X4.016 Y-39.741 E37.1822
G1 X3.59 Y-40.388 E37.23051
G1 X3.063 Y-40.955 E37.27878
G1 X2.341 Y-41.508 E37.3355
G1 X2.062 Y-41.37 E37.35491
G1 X2.062 Y-41.237 E37.36321
G1 X-1.059 Y-41.237 E37.55784
G1 X-1.06 Y-41.237 E37.5579
G1 X-1.451 Y-41.237 E37.57201
G0 F9000 X-1.346 Y-41.011
G1 F2700 E34.07201
G1 Z1.3
G0 F9000 X-.3 Y-42.875 Z1.3
G1 Z0.3
G1 F2700 E37.57201
G1 F1500 X-.3 Y-62.398 E38.78952
G1 X-.3 Y-62.399 E38.78958
G1 X-.3 Y-62.663 E38.80605
G1 X-.564 Y-62.648 E38.81654
G1 X-6.988 Y-62.259 E39.21789
G1 X-13.349 Y-61.211 E39.61993
G1 X-19.569 Y-59.515 E40.02199
G1 X-25.582 Y-57.189 E40.42405
G1 X-31.324 Y-54.256 E40.82615
G1 X-36.735 Y-50.75 E41.22824
G1 X-41.756 Y-46.706 E41.63029
G1 X-46.335 Y-42.166 E42.03242
G1 X-50.423 Y-37.181 E42.43446
G1 X-53.971 Y-31.812 E42.83579
G1 X-54.117 Y-31.591 E42.85231
G1 X-53.888 Y-31.459 E42.86278
G1 X-32.642 Y-19.192 E44.39273
G1 X-29.801 Y-23.334 E44.70596
G1 X-26.618 Y-26.908 E45.00443
G1 X-23.023 Y-30.042 E45.30185
G1 X-19.051 Y-32.704 E45.60004
G1 X-14.774 Y-34.846 E45.89835
G1 X-10.263 Y-36.432 E46.19654
G1 X-5.403 Y-37.474 E46.50652
G1 X-5.288 Y-38.531 E46.57282
G1 X-5.059 Y-39.358 E46.62634
G1 X-4.699 Y-40.141 E46.68008
G1 X-4.218 Y-40.853 E46.73367
G1 X-3.628 Y-41.481 E46.7874
G1 X-2.946 Y-42.004 E46.841
G1 X-2.188 Y-42.411 E46.89465
G1 X-1.375 Y-42.69 E46.94826
G1 X-.3 Y-42.875 E47.01628
G0 F9000 X-.3 Y-43.125
G1 F2700 E43.51628
G1 Z1.3
G0 F9000 X-2.204 Y-41.665 Z1.3
G1 Z0.3
G1 F2700 E47.01628
G1 F1500 X-2.448 Y-41.49 E47.03501
G1 X-3.059 Y-41.051 E47.08193
G1 X-3.602 Y-40.503 E47.13004
G1 X-4.047 Y-39.873 E47.17814
G1 X-4.381 Y-39.177 E47.22628
G1 X-4.595 Y-38.436 E47.27438
G1 X-4.683 Y-37.67 E47.32247
G1 X-4.643 Y-36.9 E47.37055
G1 X-4.476 Y-36.146 E47.41871
G1 X-4.186 Y-35.432 E47.46677
G1 X-3.781 Y-34.775 E47.5149
G1 X-3.272 Y-34.195 E47.56303
G1 X-2.569 Y-33.619 E47.6197
G1 X-2.283 Y-33.755 E47.63945
G1 X-2.283 Y-33.814 E47.64313
G1 X1.458 Y-33.814 E47.87643
G1 X-2.077 Y-41.393 E48.39796
G1 X-2.204 Y-41.665 E48.40948
G0 F9000 X-2.407 Y-41.52
G1 F2700 E44.90948
G1 Z1.3
G0 F9000 X-5.372 Y-36.875 Z1.3
G1 Z0.3
G1 F2700 E48.40948
G1 F1500 X-10.173 Y-35.834 E48.71584
G1 X-14.594 Y-34.271 E49.00827
G1 X-18.783 Y-32.167 E49.3006
G1 X-22.675 Y-29.553 E49.59298
G1 X-26.208 Y-26.47 E49.8854
G1 X-29.326 Y-22.968 E50.17782
G1 X-31.971 Y-19.115 E50.46927
G1 X-32.123 Y-18.893 E50.48605
G1 X-31.89 Y-18.758 E50.49669
G1 X-.707 Y-.754 E52.7422
G1 X-.55 Y-.663 E52.75352
G1 X-.3 Y-.808 E52.77154
G1 X-.3 Y-.99 E52.78289
G1 X-.3 Y-32.175 E54.72768
G1 X-1.386 Y-32.363 E54.79641
G1 X-2.207 Y-32.65 E54.85065
G1 X-2.981 Y-33.071 E54.9056
G1 X-3.668 Y-33.607 E54.95994
G1 X-4.258 Y-34.248 E55.01427
G1 X-4.734 Y-34.977 E55.06856
G1 X-5.09 Y-35.78 E55.12334
G1 X-5.372 Y-36.875 E55.19385
G0 F9000 X-5.616 Y-36.823
G1 F2700 E51.69385
G1 Z1.3
G0 F9000 X0.299 Y-32.183 Z1.3
G1 Z0.3
G1 F2700 E55.19385
G1 F1500 X0.299 Y-.99 E57.13914
G1 X0.299 Y-.808 E57.15049
G1 X0.549 Y-.663 E57.16851
G1 X0.706 Y-.754 E57.17983
G1 X31.89 Y-18.758 E59.42539
G1 X32.123 Y-18.893 E59.44219
G1 X31.971 Y-19.115 E59.45282
G1 X29.317 Y-22.98 E59.74521
G1 X26.187 Y-26.491 E60.03854
G1 X22.64 Y-29.58 E60.33186
G1 X18.732 Y-32.198 E60.62521
G1 X14.526 Y-34.301 E60.91847
G1 X10.087 Y-35.858 E61.21183
G1 X5.268 Y-36.891 E61.51918
G1 X4.993 Y-35.804 E61.58911
G1 X4.647 Y-35.01 E61.64312
G1 X4.182 Y-34.288 E61.69668
G1 X3.603 Y-33.644 E61.75068
G1 X2.934 Y-33.109 E61.8041
G1 X2.179 Y-32.684 E61.85814
G1 X1.37 Y-32.388 E61.91186
G1 X0.299 Y-32.183 E61.97986
G0 F9000 X0.299 Y-31.933
G1 F2700 E58.47986
G1 Z1.3
G0 F9000 X-1.631 Y-63.228 Z1.3
G1 Z0.3
G1 F2700 E61.97986
G1 F1500 X4.881 Y-63.06 E62.3861
G1 X11.344 Y-62.224 E62.79251
G1 X17.675 Y-60.73 E63.19817
G1 X23.83 Y-58.589 E63.60458
G1 X29.723 Y-55.83 E64.01036
G1 X35.307 Y-52.477 E64.41655
G1 X40.518 Y-48.566 E64.82287
G1 X45.293 Y-44.147 E65.2286
G1 X49.594 Y-39.254 E65.63487
G1 X53.367 Y-33.946 E66.041
G1 X56.577 Y-28.274 E66.44744
G1 X59.184 Y-22.31 E66.85335
G1 X61.163 Y-16.111 E67.25916
G1 X62.495 Y-9.734 E67.66543
G1 X63.166 Y-3.242 E68.07245
G1 X63.249 Y-0.006 E68.27432
G1 X63.166 Y3.242 E68.47694
G1 X62.495 Y9.734 E68.88395
G1 X61.163 Y16.111 E69.29022
G1 X59.184 Y22.31 E69.69603
G1 X56.577 Y28.274 E70.10195
G1 X53.367 Y33.946 E70.50838
G1 X49.594 Y39.254 E70.91451
G1 X45.293 Y44.147 E71.32078
G1 X40.518 Y48.566 E71.72651
G1 X35.307 Y52.477 E72.13283
G1 X29.723 Y55.83 E72.53902
G1 X23.83 Y58.589 E72.94481
G1 X17.675 Y60.73 E73.35121
G1 X11.344 Y62.224 E73.75687
G1 X4.881 Y63.06 E74.16328
G1 X-1.631 Y63.228 E74.56952
G1 X-8.117 Y62.726 E74.97522
G1 X-14.528 Y61.558 E75.38161
G1 X-20.777 Y59.739 E75.78749
G1 X-26.81 Y57.286 E76.19363
G1 X-32.565 Y54.221 E76.60025
G1 X-37.963 Y50.589 E77.00599
G1 X-42.965 Y46.416 E77.41223
G1 X-47.507 Y41.756 E77.81805
G1 X-51.55 Y36.649 E78.22426
G1 X-55.043 Y31.157 E78.63016
G1 X-57.958 Y25.324 E79.03681
G1 X-60.252 Y19.238 E79.44242
G1 X-61.913 Y12.934 E79.84897
G1 X-62.913 Y6.507 E80.2546
G1 X-63.248 Y0.00 E80.66093
G1 X-62.913 Y-6.507 E81.06726
G1 X-61.913 Y-12.934 E81.47289
G1 X-60.252 Y-19.238 E81.87944
G1 X-57.958 Y-25.324 E82.28505
G1 X-55.043 Y-31.157 E82.69171
G1 X-51.55 Y-36.649 E83.09761
G1 X-47.507 Y-41.756 E83.50381
G1 X-42.965 Y-46.416 E83.90963
G1 X-37.963 Y-50.589 E84.31587
G1 X-32.565 Y-54.221 E84.72161
G1 X-26.81 Y-57.286 E85.12823
G1 X-20.777 Y-59.739 E85.53438
G1 X-14.528 Y-61.558 E85.94026
G1 X-8.117 Y-62.726 E86.34665
G1 X-1.631 Y-63.228 E86.75234
G0 F9000 X-1.382 Y-63.222
G1 F2700 E83.25234
G1 Z1.3
G0 F9000 X-32.423 Y-18.373 Z1.3
G1 Z0.3
G1 F2700 E86.75234
G1 F1500 X-32.539 Y-18.13 E86.76913
G1 X-34.559 Y-13.898 E87.06158
G1 X-36.035 Y-9.433 E87.35484
G1 X-36.937 Y-4.816 E87.64822
G1 X-37.249 Y-.124 E87.94147
G1 X-36.969 Y4.571 E88.23478
G1 X-36.098 Y9.193 E88.5281
G1 X-34.583 Y13.882 E88.8354
G1 X-33.497 Y13.576 E88.90576
G1 X-32.649 Y13.48 E88.95898
G1 X-31.784 Y13.522 E89.01299
G1 X-30.938 Y13.702 E89.06693
G1 X-30.134 Y14.017 E89.12078
G1 X-29.396 Y14.453 E89.17424
G1 X-28.738 Y15.002 E89.22768
G1 X-28.015 Y15.828 E89.29614
G1 X-1.008 Y0.235 E91.24093
G1 X-.85 Y0.144 E91.25231
G1 X-.85 Y-.144 E91.27027
G1 X-1.008 Y-.235 E91.28164
G1 X-32.19 Y-18.238 E93.52706
G1 X-32.423 Y-18.373 E93.53769
G0 F9000 X-32.53 Y-18.148
G0 X-32.942 Y-18.672
G1 F1500 X-54.188 Y-30.939 E95.06764
G1 X-54.417 Y-31.071 E95.08413
G1 X-54.535 Y-30.834 E95.09462
G1 X-57.411 Y-25.077 E95.49595
G1 X-59.685 Y-19.044 E95.89802
G1 X-61.326 Y-12.809 E96.30009
G1 X-62.318 Y-6.439 E96.70213
G1 X-62.649 Y0.00 E97.10422
G1 X-62.318 Y6.439 E97.5063
G1 X-61.326 Y12.809 E97.90834
G1 X-59.685 Y19.044 E98.31041
G1 X-57.411 Y25.077 E98.71249
G1 X-54.535 Y30.834 E99.11382
G1 X-54.417 Y31.071 E99.13033
G1 X-54.188 Y30.939 E99.1408
G1 X-37.275 Y21.174 E100.35872
G1 X-37.63 Y20.158 E100.42584
G1 X-37.778 Y19.327 E100.47848
G1 X-37.793 Y18.481 E100.53124
G1 X-37.673 Y17.637 E100.58441
G1 X-37.423 Y16.829 E100.63715
G1 X-37.048 Y16.073 E100.68978
G1 X-36.553 Y15.379 E100.74294
G1 X-35.961 Y14.776 E100.79564
G1 X-35.116 Y14.155 E100.86104
G1 X-36.659 Y9.413 E101.17202
G1 X-37.555 Y4.701 E101.47114
G1 X-37.849 Y-0.09 E101.77048
G1 X-37.535 Y-4.866 E102.06897
G1 X-36.619 Y-9.573 E102.36802
G1 X-35.117 Y-14.116 E102.66641
G1 X-32.942 Y-18.672 E102.98126
G0 F9000 X-33.158 Y-18.797
G1 F2700 E99.48126
G1 Z1.3
G0 F9000 X-32.824 Y14.189 Z1.3
G1 Z0.3
G1 F2700 E102.98126
G1 F1500 X-33.521 Y14.296 E103.02523
G1 X-34.193 Y14.506 E103.06914
G1 X-34.814 Y14.812 E103.11231
G1 X-35.054 Y14.93 E103.12899
G1 X-35.049 Y14.939 E103.12963
G1 X-34.91 Y15.167 E103.14026
G1 X-32.686 Y18.806 E103.40623
G1 X-32.474 Y19.154 E103.43164
G1 X-32.262 Y18.806 E103.44619
G1 X-30.035 Y15.167 E103.71225
G1 X-29.896 Y14.939 E103.7289
G1 X-29.89 Y14.93 E103.72958
G1 X-30.13 Y14.812 E103.74023
G1 X-30.751 Y14.506 E103.7834
G1 X-31.423 Y14.296 E103.82731
G1 X-32.12 Y14.189 E103.87128
G1 X-32.824 Y14.189 E103.91519
G0 F9000 X-33.071 Y14.226
G1 F2700 E100.41519
G1 Z1.3
G0 F9000 X-29.649 Y15.09 Z1.3
G1 Z0.3
G1 F2700 E103.91519
G1 F1500 X-29.787 Y15.317 E103.93175
G1 X-29.788 Y15.318 E103.93184
G1 X-29.789 Y15.319 E103.93193
G1 X-32.224 Y19.307 E104.22333
G1 X-32.318 Y19.46 E104.23453
G1 X-32.318 Y23.172 E104.46602
G1 X-32.318 Y23.173 E104.46608
G1 X-32.318 Y23.47 E104.4846
G1 X-32.025 Y23.418 E104.49605
G1 X-31.285 Y23.286 E104.54293
G1 X-30.557 Y23.027 E104.59111
G1 X-29.883 Y22.651 E104.63925
G1 X-29.281 Y22.168 E104.68738
G1 X-28.767 Y21.592 E104.73552
G1 X-28.357 Y20.937 E104.78371
G1 X-28.06 Y20.225 E104.83182
G1 X-27.887 Y19.472 E104.88
G1 X-27.84 Y18.702 E104.92811
G1 X-27.922 Y17.934 E104.97628
G1 X-28.13 Y17.19 E105.02446
G1 X-28.459 Y16.493 E105.07252
G1 X-28.9 Y15.858 E105.12074
G1 X-29.463 Y15.281 E105.17101
G1 X-29.649 Y15.09 E105.18107
G0 F9000 X-29.779 Y15.304
G1 F2700 E101.68107
G1 Z1.3
G0 F9000 X-35.294 Y15.09 Z1.3
G1 Z0.3
G1 F2700 E105.18107
G1 F1500 X-35.479 Y15.28 E105.19761
G1 X-36.044 Y15.858 E105.24802
G1 X-36.484 Y16.493 E105.2962
G1 X-36.813 Y17.19 E105.34426
G1 X-37.021 Y17.934 E105.39244
G1 X-37.104 Y18.702 E105.44061
G1 X-37.057 Y19.472 E105.48872
