;FLAVOR:Repetier
;TIME:1449
;Generated with Cura_SteamEngine 2.4.0-BETA2
M190 S60
M104 S210
M109 S210
G28 ;Home
G1 Z15.0 F6000 ;Move the platform down 15mm
G92 E0
;LAYER_COUNT:31
;LAYER:0
M107
G1 F2700 E-3.5
G1 Z21
G0 F6000 X-36.413 Y123.981 Z1.3
;TYPE:SKIRT
G1 Z0.3
G1 F2700 E0
G1 F1500 X-36.825 Y123.86 E0.02678
G1 X-48.705 Y119.7 E0.81176
G1 X-49.104 Y119.537 E0.83864
G1 X-60.585 Y114.153 E1.62944
G1 X-60.97 Y113.948 E1.65664
G1 X-71.967 Y107.341 E2.4567
G1 X-72.329 Y107.097 E2.48393
G1 X-82.636 Y99.362 E3.28757
G1 X-82.972 Y99.082 E3.31485
G1 X-92.392 Y90.36 E4.11545
G1 X-92.697 Y90.047 E4.1427
G1 X-101.197 Y80.377 E4.94561
G1 X-101.476 Y80.024 E4.97367
G1 X-109.171 Y69.136 E5.80513
G1 X-109.407 Y68.762 E5.83271
G1 X-115.715 Y57.512 E6.63705
G1 X-115.909 Y57.119 E6.66439
G1 X-121.018 Y45.301 E7.46731
G1 X-121.171 Y44.892 E7.49454
G1 X-125.027 Y32.655 E8.29467
G1 X-125.135 Y32.238 E8.32153
G1 X-127.696 Y19.845 E9.11072
G1 X-127.762 Y19.417 E9.13773
G1 X-129.063 Y6.682 E9.93605
G1 X-129.084 Y6.342 E9.95729
G1 X-129.233 Y-.51 E10.3847
G1 X-129.232 Y-.739 E10.39899
G1 X-129.027 Y-7.106 E10.79626
G1 X-129.005 Y-7.421 E10.81595
G1 X-127.649 Y-20.102 E11.61128
G1 X-127.58 Y-20.536 E11.63868
G1 X-124.876 Y-33.218 E12.44734
G1 X-124.763 Y-33.641 E12.47465
G1 X-120.81 Y-45.855 E13.27525
G1 X-120.654 Y-46.263 E13.30249
G1 X-115.459 Y-58.025 E14.10436
G1 X-115.262 Y-58.415 E14.13161
G1 X-108.893 Y-69.571 E14.93272
G1 X-108.657 Y-69.939 E14.95998
G1 X-101.173 Y-80.388 E15.76151
G1 X-100.9 Y-80.73 E15.7888
G1 X-92.37 Y-90.366 E16.59136
G1 X-92.069 Y-90.674 E16.61821
G1 X-82.765 Y-99.251 E17.40736
G1 X-82.432 Y-99.528 E17.43438
G1 X-72.3 Y-107.117 E18.22383
G1 X-71.939 Y-107.359 E18.25093
G1 X-60.929 Y-113.968 E19.05175
G1 X-60.538 Y-114.176 E19.07937
G1 X-48.633 Y-119.728 E19.89856
G1 X-48.226 Y-119.893 E19.92595
G1 X-36.096 Y-124.087 E20.72635
G1 X-35.681 Y-124.207 E20.75329
G1 X-23.398 Y-127.099 E21.54024
G1 X-22.96 Y-127.178 E21.568
G1 X-9.765 Y-128.854 E22.39748
G1 X-9.329 Y-128.887 E22.42475
G1 X3.387 Y-129.185 E23.21797
G1 X3.824 Y-129.173 E23.24524
G1 X16.659 Y-128.151 E24.0482
G1 X17.092 Y-128.094 E24.07543
G1 X29.716 Y-125.767 E24.87596
G1 X30.137 Y-125.667 E24.90295
G1 X42.261 Y-122.129 E25.69057
G1 X42.671 Y-121.986 E25.71765
G1 X54.582 Y-117.141 E26.51955
G1 X54.988 Y-116.95 E26.54753
G1 X66.723 Y-110.663 E27.37777
G1 X67.096 Y-110.438 E27.40494
G1 X77.569 Y-103.361 E28.1932
G1 X77.914 Y-103.102 E28.2201
G1 X87.648 Y-94.971 E29.01106
G1 X87.976 Y-94.666 E29.03899
G1 X97.244 Y-85.096 E29.8698
G1 X97.534 Y-84.763 E29.89734
G1 X105.491 Y-74.627 E30.70095
G1 X105.741 Y-74.273 E30.72798
G1 X112.553 Y-63.488 E31.52349
G1 X112.769 Y-63.104 E31.55096
G1 X118.516 Y-51.497 E32.35868
G1 X118.689 Y-51.097 E32.38586
G1 X123.169 Y-39.091 E33.18501
G1 X123.301 Y-38.672 E33.21241
G1 X126.54 Y-26.188 E34.01672
G1 X126.627 Y-25.766 E34.04359
G1 X128.549 Y-13.249 E34.83333
G1 X128.593 Y-12.82 E34.86023
G1 X129.234 Y-.216 E35.64726
G1 X129.233 Y0.218 E35.67433
G1 X128.573 Y13.049 E36.47556
G1 X128.528 Y13.485 E36.5029
G1 X126.544 Y26.228 E37.30716
G1 X126.455 Y26.657 E37.33448
G1 X123.18 Y39.09 E38.13629
G1 X123.047 Y39.506 E38.16353
G1 X118.508 Y51.549 E38.96613
G1 X118.33 Y51.955 E38.99378
G1 X112.455 Y63.671 E39.81114
G1 X112.24 Y64.05 E39.83831
G1 X105.437 Y74.728 E40.62788
G1 X105.185 Y75.082 E40.65498
G1 X97.227 Y85.136 E41.45462
G1 X96.934 Y85.469 E41.48228
G1 X87.714 Y94.9 E42.30479
G1 X87.391 Y95.198 E42.33219
G1 X77.535 Y103.386 E43.13128
G1 X77.189 Y103.645 E43.15823
G1 X66.686 Y110.7 E43.94727
G1 X66.302 Y110.929 E43.97516
G1 X54.54 Y117.146 E44.80483
G1 X54.152 Y117.327 E44.83153
G1 X42.66 Y121.99 E45.60495
G1 X42.25 Y122.133 E45.63203
G1 X29.906 Y125.726 E46.43378
G1 X29.48 Y125.826 E46.46107
G1 X16.821 Y128.134 E47.26354
G1 X16.377 Y128.191 E47.29145
G1 X3.117 Y129.185 E48.1207
G1 X2.676 Y129.195 E48.14821
G1 X-10.176 Y128.822 E48.95004
G1 X-10.614 Y128.787 E48.97744
G1 X-23.404 Y127.085 E49.78209
G1 X-23.836 Y127.004 E49.8095
G1 X-36.413 Y123.981 E50.61617
G0 F6000 X-36.296 Y123.495
G1 F1500 X-36.659 Y123.388 E50.63977
G1 X-48.539 Y119.228 E51.42475
G1 X-48.892 Y119.084 E51.44853
G1 X-60.373 Y113.7 E52.23933
G1 X-60.712 Y113.519 E52.2633
G1 X-71.709 Y106.912 E53.06336
G1 X-72.029 Y106.697 E53.0874
G1 X-82.336 Y98.962 E53.89104
G1 X-82.633 Y98.715 E53.91513
G1 X-92.053 Y89.993 E54.71574
G1 X-92.322 Y89.717 E54.73977
G1 X-100.822 Y80.047 E55.54268
G1 X-101.067 Y79.735 E55.56741
G1 X-108.762 Y68.847 E56.39888
G1 X-108.971 Y68.517 E56.42324
G1 X-115.279 Y57.267 E57.22758
G1 X-115.45 Y56.921 E57.25165
G1 X-120.559 Y45.103 E58.05458
G1 X-120.694 Y44.742 E58.07861
G1 X-124.55 Y32.505 E58.87873
G1 X-124.645 Y32.137 E58.90244
G1 X-127.206 Y19.744 E59.69163
G1 X-127.265 Y19.366 E59.71549
G1 X-128.566 Y6.631 E60.51381
G1 X-128.584 Y6.332 E60.53249
G1 X-128.733 Y-.52 E60.9599
G1 X-128.732 Y-.723 E60.97256
G1 X-128.527 Y-7.09 E61.36983
G1 X-128.508 Y-7.368 E61.38721
G1 X-127.152 Y-20.049 E62.18254
G1 X-127.091 Y-20.432 E62.20672
G1 X-124.387 Y-33.114 E63.01539
G1 X-124.287 Y-33.487 E63.03947
G1 X-120.334 Y-45.701 E63.84007
G1 X-120.196 Y-46.061 E63.86411
G1 X-115.001 Y-57.823 E64.66598
G1 X-114.828 Y-58.167 E64.68999
G1 X-108.459 Y-69.323 E65.49111
G1 X-108.251 Y-69.648 E65.51517
G1 X-100.767 Y-80.097 E66.3167
G1 X-100.526 Y-80.399 E66.3408
G1 X-91.996 Y-90.035 E67.14335
G1 X-91.73 Y-90.306 E67.16703
G1 X-82.426 Y-98.883 E67.95618
G1 X-82.132 Y-99.127 E67.98001
G1 X-72 Y-106.716 E68.76946
G1 X-71.682 Y-106.93 E68.79336
G1 X-60.672 Y-113.539 E69.59418
G1 X-60.327 Y-113.723 E69.61856
G1 X-48.422 Y-119.275 E70.43776
G1 X-48.062 Y-119.42 E70.46196
G1 X-35.932 Y-123.614 E71.26236
G1 X-35.566 Y-123.72 E71.28613
G1 X-23.283 Y-126.612 E72.07307
G1 X-22.897 Y-126.682 E72.09754
G1 X-9.702 Y-128.358 E72.92702
G1 X-9.317 Y-128.387 E72.9511
G1 X3.399 Y-128.685 E73.74433
G1 X3.785 Y-128.674 E73.76841
G1 X16.62 Y-127.652 E74.57137
G1 X17.002 Y-127.602 E74.59539
G1 X29.626 Y-125.275 E75.39592
G1 X29.997 Y-125.187 E75.4197
G1 X42.121 Y-121.649 E76.20732
G1 X42.483 Y-121.523 E76.23123
G1 X54.394 Y-116.678 E77.03313
G1 X54.752 Y-116.51 E77.05779
G1 X66.487 Y-110.223 E77.88803
G1 X66.816 Y-110.024 E77.91201
G1 X77.289 Y-102.947 E78.70027
G1 X77.593 Y-102.718 E78.724
G1 X87.327 Y-94.587 E79.51496
G1 X87.617 Y-94.318 E79.53963
G1 X96.885 Y-84.748 E80.37044
G1 X97.141 Y-84.455 E80.3947
G1 X105.098 Y-74.319 E81.19832
G1 X105.319 Y-74.006 E81.22221
G1 X112.131 Y-63.221 E82.01772
G1 X112.321 Y-62.882 E82.04196
G1 X118.068 Y-51.275 E82.84967
G1 X118.22 Y-50.922 E82.87364
G1 X122.7 Y-38.916 E83.67279
G1 X122.817 Y-38.547 E83.69693
G1 X126.056 Y-26.063 E84.50125
G1 X126.133 Y-25.69 E84.525
G1 X128.055 Y-13.173 E85.31474
G1 X128.093 Y-12.794 E85.3385
G1 X128.734 Y-.19 E86.12553
G1 X128.734 Y0.193 E86.14942
G1 X128.074 Y13.024 E86.95065
G1 X128.034 Y13.408 E86.97473
G1 X126.05 Y26.151 E87.77899
G1 X125.971 Y26.529 E87.80307
G1 X122.696 Y38.962 E88.60488
G1 X122.579 Y39.33 E88.62896
G1 X118.04 Y51.373 E89.43157
G1 X117.883 Y51.731 E89.45595
G1 X112.008 Y63.447 E90.2733
G1 X111.819 Y63.781 E90.29724
G1 X105.016 Y74.459 E91.08681
G1 X104.793 Y74.771 E91.11073
G1 X96.835 Y84.825 E91.91036
G1 X96.576 Y85.119 E91.9348
G1 X87.356 Y94.55 E92.75731
G1 X87.071 Y94.813 E92.78149
G1 X77.215 Y103.001 E93.58057
G1 X76.91 Y103.23 E93.60436
G1 X66.407 Y110.285 E94.3934
G1 X66.068 Y110.487 E94.41801
G1 X54.306 Y116.704 E95.24768
G1 X53.964 Y116.864 E95.27123
G1 X42.472 Y121.527 E96.04465
G1 X42.11 Y121.653 E96.06856
G1 X29.766 Y125.246 E96.87031
G1 X29.391 Y125.334 E96.89433
G1 X16.732 Y127.642 E97.6968
G1 X16.339 Y127.693 E97.72151
G1 X3.079 Y128.687 E98.55076
G1 X2.69 Y128.695 E98.57502
G1 X-10.162 Y128.322 E99.37685
G1 X-10.548 Y128.291 E99.401
G1 X-23.338 Y126.589 E100.20565
G1 X-23.719 Y126.518 E100.22982
G1 X-36.296 Y123.495 E101.03649
G0 F6000 X-36.18 Y123.009
G1 F1500 X-36.494 Y122.916 E101.05691
G1 X-48.374 Y118.756 E101.84189
G1 X-48.68 Y118.632 E101.86248
G1 X-60.161 Y113.248 E102.65329
G1 X-60.455 Y113.091 E102.67407
G1 X-71.452 Y106.484 E103.47413
G1 X-71.729 Y106.297 E103.49498
G1 X-82.036 Y98.562 E104.29862
G1 X-82.293 Y98.348 E104.31948
G1 X-91.713 Y89.626 E105.12008
G1 X-91.946 Y89.387 E105.14089
G1 X-100.446 Y79.717 E105.9438
G1 X-100.659 Y79.447 E105.96524
G1 X-108.354 Y68.559 E106.79671
G1 X-108.535 Y68.272 E106.81787
G1 X-114.843 Y57.022 E107.62221
G1 X-114.991 Y56.723 E107.64302
G1 X-120.1 Y44.905 E108.44594
G1 X-120.217 Y44.592 E108.46678
G1 X-124.073 Y32.355 E109.2669
G1 X-124.156 Y32.036 E109.28746
G1 X-126.717 Y19.643 E110.07665
G1 X-126.767 Y19.315 E110.09734
G1 X-128.068 Y6.58 E110.89567
G1 X-128.084 Y6.321 E110.91185
G1 X-128.233 Y-.531 E111.33926
G1 X-128.232 Y-.707 E111.35024
G1 X-128.027 Y-7.074 E111.7475
G1 X-128.011 Y-7.315 E111.76257
G1 X-126.655 Y-19.996 E112.5579
G1 X-126.602 Y-20.328 E112.57886
G1 X-123.898 Y-33.01 E113.38753
G1 X-123.811 Y-33.333 E113.40839
G1 X-119.858 Y-45.547 E114.20899
G1 X-119.739 Y-45.859 E114.22981
G1 X-114.544 Y-57.621 E115.03168
G1 X-114.393 Y-57.919 E115.05251
G1 X-108.024 Y-69.075 E115.85363
G1 X-107.844 Y-69.356 E115.87444
G1 X-100.36 Y-79.805 E116.67597
G1 X-100.152 Y-80.067 E116.69683
G1 X-91.622 Y-89.703 E117.49938
G1 X-91.391 Y-89.939 E117.51998
G1 X-82.087 Y-98.516 E118.30913
G1 X-81.832 Y-98.727 E118.32977
G1 X-71.7 Y-106.316 E119.11922
G1 X-71.425 Y-106.502 E119.13992
G1 X-60.415 Y-113.111 E119.94074
G1 X-60.116 Y-113.269 E119.96183
G1 X-48.211 Y-118.821 E120.78103
G1 X-47.899 Y-118.948 E120.80204
G1 X-35.769 Y-123.142 E121.60244
G1 X-35.452 Y-123.233 E121.623
G1 X-23.169 Y-126.125 E122.40995
G1 X-22.834 Y-126.186 E122.43119
G1 X-9.639 Y-127.862 E123.26067
G1 X-9.305 Y-127.887 E123.28156
G1 X3.411 Y-128.185 E124.07478
G1 X3.745 Y-128.176 E124.09562
G1 X16.58 Y-127.154 E124.89858
G1 X16.911 Y-127.11 E124.9194
G1 X29.535 Y-124.783 E125.71993
G1 X29.856 Y-124.707 E125.74051
G1 X41.98 Y-121.169 E126.52813
G1 X42.295 Y-121.059 E126.54893
G1 X54.206 Y-116.214 E127.35084
G1 X54.516 Y-116.069 E127.37218
G1 X66.251 Y-109.782 E128.20242
G1 X66.536 Y-109.61 E128.22318
G1 X77.009 Y-102.533 E129.01144
G1 X77.273 Y-102.334 E129.03205
G1 X87.007 Y-94.203 E129.82301
G1 X87.258 Y-93.97 E129.84437
G1 X96.526 Y-84.4 E130.67518
G1 X96.747 Y-84.146 E130.69618
G1 X104.704 Y-74.01 E131.49979
G1 X104.896 Y-73.739 E131.5205
G1 X111.708 Y-62.954 E132.31601
G1 X111.873 Y-62.66 E132.33704
G1 X117.62 Y-51.053 E133.14475
G1 X117.752 Y-50.747 E133.16553
G1 X122.232 Y-38.741 E133.96469
G1 X122.333 Y-38.421 E133.98561
G1 X125.572 Y-25.937 E134.78993
G1 X125.638 Y-25.614 E134.81049
G1 X127.56 Y-13.097 E135.60023
G1 X127.594 Y-12.769 E135.6208
G1 X128.235 Y-.165 E136.40783
G1 X128.235 Y0.167 E136.42854
G1 X127.575 Y12.998 E137.22977
G1 X127.54 Y13.331 E137.25065
G1 X125.556 Y26.074 E138.05491
G1 X125.488 Y26.402 E138.0758
G1 X122.213 Y38.835 E138.87761
G1 X122.111 Y39.153 E138.89844
G1 X117.572 Y51.196 E139.70104
G1 X117.436 Y51.507 E139.72221
G1 X111.561 Y63.223 E140.53957
G1 X111.397 Y63.512 E140.56029
G1 X104.594 Y74.19 E141.34986
G1 X104.401 Y74.461 E141.37061
G1 X96.443 Y84.515 E142.17025
G1 X96.219 Y84.77 E142.19142
G1 X86.999 Y94.201 E143.01392
G1 X86.752 Y94.429 E143.03489
G1 X76.896 Y102.617 E143.83397
G1 X76.631 Y102.815 E143.8546
G1 X66.128 Y109.87 E144.64364
G1 X65.835 Y110.045 E144.66493
G1 X54.073 Y116.262 E145.4946
G1 X53.776 Y116.401 E145.51505
G1 X42.284 Y121.064 E146.28847
G1 X41.97 Y121.172 E146.30918
G1 X29.626 Y124.765 E147.11093
G1 X29.301 Y124.842 E147.13176
G1 X16.642 Y127.15 E147.93423
G1 X16.302 Y127.194 E147.95561
G1 X3.042 Y128.188 E148.78486
G1 X2.705 Y128.196 E148.80588
G1 X-10.147 Y127.823 E149.6077
G1 X-10.482 Y127.796 E149.62866
G1 X-23.272 Y126.094 E150.43331
G1 X-23.603 Y126.032 E150.45431
G1 X-36.18 Y123.009 E151.26099
G1 F2700 E147.76099
G1 Z1.3
G0 F6000 X-2.074 Y97.559 Z1.3
;TYPE:WALL-INNER
G1 Z0.3
G1 F2700 E151.26099
G1 F1500 X-2.178 Y97.497 E151.26854
G0 X-2.118 Y97.469
G1 X-1.993 Y97.409 E151.26933
G1 X-1.296 Y97.409 E151.3128
G1 X-.978 Y97.409 E151.33263
G1 X0.98 Y97.409 E151.45474
G1 X1.296 Y97.409 E151.47444
G1 X1.748 Y97.409 E151.50263
G1 X1.856 Y97.641 E151.51859
G0 X1.838 Y97.648
G1 X1.296 Y97.85 E151.54504
G1 X0.986 Y97.908 E151.56355
G1 X0.003 Y98.093 E151.62593
G1 X-.984 Y97.908 E151.68856
G1 X-1.296 Y97.85 E151.70718
G1 X-2.052 Y97.568 E151.73641
G0 X-2.074 Y97.559
G1 F2700 E148.23641
G1 Z1.3
G0 F6000 X-1.296 Y88.986 Z1.3
G1 Z0.3
G1 F2700 E151.73641
G1 F1500 X-1.633 Y88.986 E151.75743
G1 X-1.739 Y88.757 E151.77317
G1 X-1.741 Y88.753 E151.77345
G1 X-1.758 Y88.718 E151.77587
G0 X-1.737 Y88.71
G1 X-1.296 Y88.545 E151.79141
G1 X-1.292 Y88.545 E151.79166
G1 X-.984 Y88.487 E151.81121
G1 X0.003 Y88.302 E151.87383
G1 X0.99 Y88.487 E151.93646
G1 X1.296 Y88.544 E151.95587
G1 X1.82 Y88.741 E151.99078
G1 X2.049 Y88.827 E152.00603
G1 X1.728 Y88.986 E152.00717
G1 X1.296 Y88.986 E152.02507
G1 X0.984 Y88.986 E152.04341
G1 X-.978 Y88.986 E152.16576
G1 X-1.296 Y88.986 E152.18559
G1 F2700 E148.68559
G1 Z1.3
G0 F6000 X-0.001 Y0.577 Z1.3
G1 Z0.3
G1 F2700 E152.18559
G1 F1500 X-.501 Y0.286 E152.22167
G1 X-.501 Y-.286 E152.25734
G1 X-0.001 Y-.577 E152.29342
G1 X0.501 Y-.286 E152.32961
G1 X0.501 Y0.286 E152.36528
G1 X-0.001 Y0.577 E152.40147
G0 F6000 X-.375 Y0.938
;TYPE:WALL-OUTER
G1 F1500 X-.625 Y0.793 E152.41949
G1 X-.782 Y0.884 E152.43081
G1 X-14.973 Y9.077 E153.4527
G1 X-15.009 Y9.011 E153.45739
G1 X-53.022 Y30.959 E156.19475
G1 X-53.256 Y31.094 E156.2116
G1 X-53.102 Y31.316 E156.22225
G1 X-47.953 Y38.746 E156.786
G1 X-41.759 Y45.353 E157.35078
G1 X-34.663 Y50.982 E157.91563
G1 X-26.82 Y55.511 E158.48043
G1 X-18.398 Y58.841 E159.04522
G1 X-9.578 Y60.902 E159.61008
G1 X-.569 Y61.647 E160.17382
G1 X-.299 Y61.669 E160.19071
G1 X-.299 Y61.399 E160.20136
G1 X-.299 Y61.398 E160.20142
G1 X-.3 Y17.522 E162.93765
G1 X-.375 Y17.516 E162.94234
G1 X-.375 Y1.12 E163.96484
G1 X-.375 Y0.938 E163.97619
G0 F6000 X-.591 Y0.813
G0 X0.374 Y0.938
G1 F1500 X0.374 Y1.12 E163.98754
G1 X0.374 Y17.516 E165.01004
G1 X0.299 Y17.522 E165.01474
G1 X0.3 Y61.398 E167.75096
G1 X0.3 Y61.399 E167.75103
G1 X0.3 Y61.669 E167.76786
G1 X0.57 Y61.647 E167.77855
G1 X9.578 Y60.902 E168.34223
G1 X18.398 Y58.841 E168.90709
G1 X26.82 Y55.511 E169.47187
G1 X34.663 Y50.982 E170.03667
G1 X41.759 Y45.353 E170.60153
G1 X47.953 Y38.746 E171.16631
G1 X53.102 Y31.316 E171.73005
G1 X53.256 Y31.094 E171.7469
G1 X53.022 Y30.959 E171.75755
G1 X15.009 Y9.012 E174.49489
G1 X14.973 Y9.078 E174.49958
G1 X0.781 Y0.884 E175.52155
G1 X0.624 Y0.793 E175.53287
G1 X0.374 Y0.938 E175.55089
G0 F6000 X0.374 Y1.12
G0 X0.374 Y1.188
G0 X1.001 Y0.144
G1 F1500 X1.159 Y0.235 E175.56227
G1 X15.331 Y8.418 E176.58282
G1 X15.295 Y8.484 E176.58751
G1 X53.322 Y30.439 E179.32585
G1 X53.556 Y30.574 E179.34269
G1 X53.671 Y30.329 E179.35335
G1 X57.531 Y22.155 E179.91709
G1 X60.157 Y13.487 E180.48191
G1 X61.484 Y4.528 E181.04671
G1 X61.484 Y-4.528 E181.61147
G1 X60.157 Y-13.487 E182.17627
G1 X57.531 Y-22.155 E182.74109
G1 X53.671 Y-30.329 E183.30483
G1 X53.556 Y-30.574 E183.32171
G1 X53.322 Y-30.439 E183.33234
G1 X15.295 Y-8.484 E186.07068
G1 X15.331 Y-8.418 E186.07537
G1 X1.159 Y-.235 E187.09593
G1 X1.001 Y-.144 E187.1073
G1 X1.001 Y0.144 E187.12526
G0 F6000 X1.159 Y0.235
G0 X1.217 Y0.269
G0 X0.624 Y-.793
G1 F1500 X0.781 Y-.884 E187.13657
G1 X14.973 Y-9.078 E188.15855
G1 X15.009 Y-9.012 E188.16324
G1 X53.022 Y-30.959 E190.90057
G1 X53.256 Y-31.094 E190.91742
G1 X53.102 Y-31.316 E190.92808
G1 X47.953 Y-38.746 E191.49182
G1 X41.759 Y-45.353 E192.0566
