;FLAVOR:Repetier
;TIME:148
;Generated with Cura_SteamEngine 2.3.1
M190 S60
M104 S210
M109 S210
G28 ;Home
G1 Z15.0 F6000 ;Move the platform down 15mm
;Prime the extruder
G92 E0
;LAYER_COUNT:1
;LAYER:0
M107
G1 F2700 E-3.5
G1 Z21
G0 F9000 X-2.163 Y3.056 Z1.3
;TYPE:WALL-INNER
G1 Z.3
G1 F2700 E0
G1 F1500 X-2.662 Y2.635 E0.04071
G1 X-3.068 Y2.15 E0.08016
G1 X-3.39 Y1.591 E0.12039
G1 X-3.615 Y.975 E0.16129
G1 X-3.728 Y.348 E0.20102
G1 X-3.734 Y-.296 E0.24118
G1 X-3.629 Y-.926 E0.28101
G1 X-3.287 Y-1.9 E0.34539
G1 X-2.618 Y-2.678 E0.40938
G1 X-2.125 Y-3.084 E0.44921
G1 X-1.558 Y-3.405 E0.48984
G1 X-.962 Y-3.62 E0.52935
G1 X-.317 Y-3.731 E0.57017
G1 X.32 Y-3.731 E0.60989
G1 X.962 Y-3.62 E0.65053
G1 X1.558 Y-3.405 E0.69004
G1 X2.125 Y-3.084 E0.73067
G1 X2.618 Y-2.678 E0.7705
G1 X3.287 Y-1.9 E0.83449
G1 X3.629 Y-.926 E0.89887
G1 X3.734 Y-.296 E0.9387
G1 X3.728 Y.348 E0.97886
G1 X3.615 Y.975 E1.01859
G1 X3.39 Y1.591 E1.05949
G1 X3.068 Y2.15 E1.09972
G1 X2.661 Y2.635 E1.1392
G1 X2.165 Y3.055 E1.17974
G1 X1.606 Y3.385 E1.22022
G1 X1.01 Y3.607 E1.25988
G1 X.00 Y3.797 E1.32397
G1 X-1.001 Y3.608 E1.3875
G1 X-1.616 Y3.379 E1.42843
G1 X-2.163 Y3.056 E1.46804
G0 F9000 X-2.453 Y3.466
G1 F1500 X-3.015 Y2.991 E1.51393
G1 X-3.48 Y2.436 E1.55908
G1 X-3.846 Y1.801 E1.60479
G1 X-4.099 Y1.109 E1.65074
G1 X-4.228 Y.395 E1.69599
G1 X-4.234 Y-.334 E1.74145
G1 X-4.114 Y-1.054 E1.78697
G1 X-3.728 Y-2.153 E1.85961
G1 X-2.971 Y-3.035 E1.9321
G1 X-2.405 Y-3.5 E1.97778
G1 X-1.77 Y-3.86 E2.0233
G1 X-1.088 Y-4.106 E2.06852
G1 X-.361 Y-4.231 E2.11452
G1 X.364 Y-4.231 E2.15973
G1 X1.088 Y-4.106 E2.20555
G1 X1.77 Y-3.86 E2.25076
G1 X2.405 Y-3.5 E2.29629
G1 X2.971 Y-3.035 E2.34197
G1 X3.728 Y-2.153 E2.41445
G1 X4.114 Y-1.054 E2.48709
G1 X4.234 Y-.334 E2.53261
G1 X4.228 Y.395 E2.57808
G1 X4.099 Y1.109 E2.62333
G1 X3.846 Y1.801 E2.66928
G1 X3.48 Y2.436 E2.71498
G1 X3.015 Y2.991 E2.76014
G1 X2.456 Y3.464 E2.8058
G1 X1.825 Y3.836 E2.85148
G1 X1.145 Y4.09 E2.89675
G1 X-.001 Y4.305 E2.96947
G1 X-1.14 Y4.09 E3.04175
G1 X-1.83 Y3.833 E3.08767
G1 X-2.453 Y3.466 E3.13276
G1 F2700 E-0.36724
G1 Z1.3
G0 F9000 X-50.862 Y29.42 Z1.3
G1 Z.3
G1 F2700 E3.13276
G1 F1500 X-50.848 Y29.497 E3.13764
G1 X-50.862 Y29.582 E3.14301
G1 X-50.904 Y29.656 E3.14832
G1 X-50.936 Y29.689 E3.15119
G1 X-51.058 Y29.775 E3.1605
G0 X-51.064 Y29.765
G0 X-51.071 Y29.753
G0 X-51.092 Y29.716
G0 X-51.126 Y29.657
G0 X-51.162 Y29.594
G0 X-51.208 Y29.515
G0 X-51.244 Y29.452
G1 X-51.279 Y29.393 E3.1618
G1 X-51.292 Y29.37 E3.16249
G1 X-51.308 Y29.343 E3.16445
G1 X-51.316 Y29.33 E3.1654
G0 X-51.179 Y29.267
G1 X-51.092 Y29.253 E3.1681
G0 X-51.046 Y29.257
G0 X-50.964 Y29.29
G0 X-50.905 Y29.341
G1 X-50.862 Y29.42 E3.17108
G1 F2700 E-0.32892
G1 Z1.3
G0 F9000 X-102.865 Y59.344 Z1.3
G1 Z.3
G1 F2700 E3.17108
G1 F1500 X-102.823 Y59.418 E3.17638
G1 X-102.81 Y59.495 E3.18125
G1 X-102.823 Y59.581 E3.18668
G1 X-102.863 Y59.653 E3.19181
G1 X-102.9 Y59.69 E3.19508
G1 X-103.073 Y59.812 E3.20828
G0 X-103.086 Y59.785
G0 X-103.093 Y59.773
G0 X-103.114 Y59.733
G0 X-103.146 Y59.672
G0 X-103.181 Y59.607
G0 X-103.22 Y59.533
G1 X-103.259 Y59.46 E3.20857
G1 X-103.289 Y59.404 E3.21074
G1 X-103.297 Y59.388 E3.21141
G1 X-103.312 Y59.362 E3.21328
G1 X-103.319 Y59.349 E3.2142
G0 X-103.135 Y59.265
G1 X-103.052 Y59.253 E3.21636
G0 X-103.011 Y59.256
G0 X-102.931 Y59.286
G1 X-102.865 Y59.344 E3.21822
G1 F2700 E-0.28178
G1 Z1.3
G0 F9000 X-73.695 Y-41.615 Z1.3
G1 Z.3
G1 F2700 E3.21822
G1 F1500 X-74.366 Y-42.646 E3.29494
G1 X-73.301 Y-42.031 E3.37163
G1 X-73.695 Y-41.615 E3.40736
G1 F2700 E-0.09264
G1 Z1.3
G0 F9000 X-75.148 Y-43.676 Z1.3
G1 Z.3
G1 F2700 E3.40736
G1 F1500 X-76.211 Y-44.29 E3.48392
G1 X-75.818 Y-44.705 E3.51956
G1 X-75.148 Y-43.676 E3.59614
G1 F2700 E0.09614
G1 Z1.3
G0 F9000 X-.242 Y-58.952 Z1.3
G1 Z.3
G1 F2700 E3.59614
G1 F1500 X-.256 Y-59.106 E3.60578
G0 X-.232 Y-59.106
G0 X-.188 Y-59.106
G0 X-.123 Y-59.106
G0 X-.04 Y-59.106
G1 X.04 Y-59.106 E3.60633
G0 X.088 Y-59.106
G1 X.158 Y-59.106 E3.6087
G1 X.212 Y-59.106 E3.61125
G1 X.242 Y-59.106 E3.61312
G1 X.256 Y-59.106 E3.61399
G0 X.242 Y-58.952
G0 X.212 Y-58.873
G0 X.158 Y-58.81
G0 X.088 Y-58.769
G0 X.04 Y-58.756
G1 X-.04 Y-58.756 E3.61455
G0 X-.123 Y-58.785
G0 X-.188 Y-58.839
G0 X-.232 Y-58.915
G0 X-.242 Y-58.952
G1 F2700 E0.11455
G1 Z1.3
G0 F9000 X.00 Y-118.756 Z1.3
G1 Z.3
G1 F2700 E3.61455
G1 F1500 X-.045 Y-118.756 E3.61736
G1 X-.122 Y-118.785 E3.62249
G1 X-.195 Y-118.848 E3.6285
G1 X-.232 Y-118.915 E3.63328
G1 X-.243 Y-118.955 E3.63586
G1 X-.266 Y-119.226 E3.65283
G1 X-.268 Y-119.243 E3.65389
G0 X-.238 Y-119.243
G0 X-.204 Y-119.244
G1 X-.133 Y-119.246 E3.65505
G1 X-.058 Y-119.248 E3.65785
G1 X.00 Y-119.25 E3.66142
G0 X.05 Y-119.25
G0 X.092 Y-119.249
G1 X.163 Y-119.247 E3.66584
G1 X.221 Y-119.245 E3.66946
G1 X.25 Y-119.244 E3.67127
G1 X.269 Y-119.243 E3.67246
G0 X.268 Y-119.227
G0 X.243 Y-118.955
G1 X.212 Y-118.872 E3.67566
G1 X.153 Y-118.806 E3.67957
G1 X.084 Y-118.767 E3.68381
G1 X.045 Y-118.756 E3.68612
G1 X.00 Y-118.756 E3.68882
G1 F2700 E0.18882
G1 Z1.3
G0 F9000 X74.192 Y-42.547 Z1.3
G1 Z.3
G1 F2700 E3.68882
G1 F1500 X74.576 Y-42.768 E3.71645
G1 X74.976 Y-42.999 E3.74525
G1 X75.136 Y-43.307 E3.7669
G0 X75.227 Y-43.127
G1 X75.498 Y-42.596 E3.80407
G1 X74.976 Y-42.596 E3.8343
G1 X74.676 Y-42.596 E3.84384
G1 X74.502 Y-42.254 E3.85847
G1 X74.436 Y-42.125 E3.8675
G1 X74.068 Y-42.475 E3.88426
G0 X74.192 Y-42.547
G1 F2700 E0.38426
G1 Z1.3
G0 F9000 X51.179 Y29.267 Z1.3
G1 Z.3
G1 F2700 E3.88426
G1 F1500 X51.316 Y29.33 E3.89366
G0 X51.309 Y29.342
G0 X51.294 Y29.368
G0 X51.27 Y29.41
G0 X51.23 Y29.479
G0 X51.191 Y29.546
G1 X51.146 Y29.624 E3.89563
G1 X51.107 Y29.691 E3.89847
G1 X51.08 Y29.737 E3.90103
G1 X51.065 Y29.763 E3.9029
G1 X51.058 Y29.775 E3.90377
G0 X50.936 Y29.689
G1 X50.88 Y29.621 E3.90394
G0 X50.851 Y29.542
G0 X50.852 Y29.455
G0 X50.885 Y29.37
G0 X50.937 Y29.309
G0 X51.017 Y29.265
G0 X51.092 Y29.253
G0 X51.179 Y29.267
G1 F2700 E0.40394
G1 Z1.3
G0 F9000 X102.844 Y59.374 Z1.3
G1 Z.3
G1 F2700 E3.90394
G1 F1500 X102.904 Y59.305 E3.90964
G1 X102.972 Y59.266 E3.91453
G1 X103.052 Y59.253 E3.91958
G1 X103.105 Y59.257 E3.9229
G1 X103.319 Y59.349 E3.93742
G0 X103.311 Y59.365
G0 X103.302 Y59.383
G0 X103.278 Y59.428
G0 X103.247 Y59.486
G0 X103.205 Y59.565
G0 X103.165 Y59.64
G1 X103.129 Y59.708 E3.93815
G1 X103.101 Y59.76 E3.94183
G1 X103.086 Y59.789 E3.94387
G1 X103.073 Y59.812 E3.94552
G0 X102.9 Y59.69
G1 X102.844 Y59.625 E3.94774
G1 X102.812 Y59.541 E3.95077
G1 X102.813 Y59.454 E3.95179
G1 X102.844 Y59.374 E3.95326
G1 F2700 E0.45326
G1 Z1.3
G0 F9000 X25.198 Y54.126 Z1.3
;TYPE:WALL-OUTER
G1 Z.3
G1 F2700 E3.95326
G1 F1500 X24.574 Y54.462 E3.99746
G1 X20.552 Y55.951 E4.26492
G1 X17.686 Y57.011 E4.45548
G1 X17.262 Y57.168 E4.48368
G1 X16.821 Y57.332 E4.51302
G1 X9.214 Y59.002 E4.99871
G1 X8.741 Y59.106 E5.02892
G1 X.288 Y59.763 E5.55766
G1 X.25 Y59.766 E5.56003
G1 X.25 Y85.75 E7.18047
G1 X2.038 Y85.75 E7.29197
G1 X2.038 Y86.674 E7.3496
G1 X-.352 Y86.674 E7.49864
G1 X-.353 Y86.674 E7.49871
G1 X-.733 Y86.674 E7.5224
G1 X-.581 Y87.023 E7.53621
G1 X2.109 Y93.187 E7.95562
G1 X.25 Y93.187 E8.07156
G1 X.25 Y118.998 E9.6812
G1 X.25 Y118.999 E9.68126
G1 X.25 Y119.262 E9.69767
G1 X.513 Y119.248 E9.70814
G1 X12.289 Y118.589 E10.44367
G1 X12.503 Y118.577 E10.45704
G1 X12.813 Y118.56 E10.4764
G1 X24.409 Y116.696 E11.20884
G1 X24.671 Y116.653 E11.2254
G1 X24.989 Y116.602 E11.24549
G1 X36.284 Y113.563 E11.97492
G1 X36.554 Y113.49 E11.99237
G1 X36.897 Y113.398 E12.01451
G1 X47.761 Y109.23 E12.74017
G1 X48.056 Y109.117 E12.75987
G1 X48.412 Y108.981 E12.78364
G1 X58.745 Y103.735 E13.50632
G1 X59.053 Y103.578 E13.52788
G1 X59.408 Y103.398 E13.55271
G1 X69.096 Y97.143 E14.27186
G1 X69.412 Y96.939 E14.29532
G1 X69.768 Y96.71 E14.32171
G1 X78.718 Y89.522 E15.03758
G1 X79.028 Y89.273 E15.06238
G1 X79.383 Y88.988 E15.09077
G1 X87.501 Y80.955 E15.80299
G1 X87.801 Y80.658 E15.82932
G1 X88.149 Y80.314 E15.85983
G1 X95.359 Y71.527 E16.56868
G1 X95.65 Y71.172 E16.5973
G1 X95.971 Y70.781 E16.62885
G1 X102.207 Y61.341 E17.33441
G1 X102.477 Y60.932 E17.36497
G1 X102.895 Y60.298 E17.41233
G1 X102.863 Y60.275 E17.41479
G1 X102.575 Y60.073 E17.43672
G1 X102.481 Y59.979 E17.44501
G1 X102.407 Y59.872 E17.45313
G1 X102.351 Y59.751 E17.46144
G1 X102.318 Y59.63 E17.46926
G1 X102.307 Y59.498 E17.47752
G1 X102.319 Y59.367 E17.48573
G1 X102.352 Y59.246 E17.49355
G1 X102.408 Y59.126 E17.50181
G1 X102.482 Y59.019 E17.50992
G1 X102.577 Y58.924 E17.5183
G1 X102.681 Y58.851 E17.52622
G1 X102.799 Y58.795 E17.53437
G1 X102.922 Y58.762 E17.54231
G1 X103.056 Y58.751 E17.5507
G1 X103.185 Y58.761 E17.55876
G1 X103.31 Y58.795 E17.56684
G1 X103.609 Y58.932 E17.58735
G1 X103.669 Y58.959 E17.59146
G1 X105.847 Y54.6 E17.89534
G1 X108.583 Y49.125 E18.27704
G1 X109.283 Y47.723 E18.37476
G1 X110.917 Y43.382 E18.66402
G1 X113.061 Y37.69 E19.04334
G1 X113.629 Y36.182 E19.14383
G1 X114.802 Y31.707 E19.43233
G1 X116.345 Y25.825 E19.81156
G1 X116.757 Y24.254 E19.91284
G1 X117.454 Y19.735 E20.19799
G1 X118.387 Y13.694 E20.57919
G1 X118.638 Y12.066 E20.68192
G1 X118.861 Y7.561 E20.96321
G1 X119.167 Y1.413 E21.34709
G1 X119.249 Y-.25 E21.45092
G1 X119.008 Y-4.723 E21.73028
G1 X118.677 Y-10.865 E22.11387
G1 X118.586 Y-12.564 E22.21997
G1 X117.885 Y-16.983 E22.499
G1 X116.925 Y-23.034 E22.88108
G1 X116.654 Y-24.744 E22.98905
G1 X115.51 Y-29.033 E23.26587
G1 X113.927 Y-34.963 E23.64863
G1 X113.475 Y-36.659 E23.75809
G1 X111.904 Y-40.78 E24.03313
G1 X109.716 Y-46.519 E24.41616
G1 X109.082 Y-48.182 E24.52715
G1 X107.103 Y-52.102 E24.801
G1 X104.343 Y-57.566 E25.18275
G1 X103.528 Y-59.18 E25.29551
G1 X103.41 Y-59.415 E25.31191
G1 X103.183 Y-59.284 E25.32231
G1 X103.182 Y-59.283 E25.3224
G1 X75.848 Y-43.502 E27.29072
G1 X75.655 Y-43.391 E27.3046
G1 X77.546 Y-39.674 E27.56468
G1 X77.73 Y-39.312 E27.59
G1 X77.324 Y-39.312 E27.60453
G1 X77.323 Y-39.312 E27.6046
G1 X76.706 Y-39.312 E27.64307
G1 X75.375 Y-41.927 E27.82606
G1 X75.289 Y-42.096 E27.83789
G1 X74.983 Y-42.096 E27.85697
G1 X74.897 Y-41.927 E27.8688
G1 X73.566 Y-39.312 E28.05178
G1 X72.949 Y-39.312 E28.09026
G1 X72.948 Y-39.312 E28.09032
G1 X72.542 Y-39.312 E28.11564
G1 X72.726 Y-39.674 E28.13018
G1 X73.887 Y-41.957 E28.2899
G1 X73.617 Y-42.214 E28.31315
G1 X51.884 Y-29.666 E29.87816
G1 X51.9 Y-29.632 E29.88051
G1 X55.56 Y-21.977 E30.40965
G1 X55.704 Y-21.521 E30.43947
G1 X58.062 Y-14.098 E30.92519
G1 X58.141 Y-13.634 E30.95454
G1 X58.216 Y-13.19 E30.98262
G1 X58.737 Y-10.131 E31.17614
G1 X59.451 Y-5.952 E31.44053
G1 X59.472 Y-5.262 E31.48358
G1 X59.492 Y-4.583 E31.52594
G1 X59.586 Y-1.481 E31.71948
G1 X59.703 Y2.315 E31.95632
G1 X59.603 Y3.233 E32.01391
G1 X59.509 Y4.111 E32.06897
G1 X59.191 Y7.042 E32.25283
G1 X58.811 Y10.544 E32.47251
G1 X58.531 Y11.655 E32.54396
G1 X58.264 Y12.718 E32.61231
G1 X57.585 Y15.419 E32.78599
G1 X56.796 Y18.553 E32.98754
G1 X56.275 Y19.839 E33.07407
G1 X55.785 Y21.048 E33.15542
G1 X54.8 Y23.478 E33.31894
G1 X53.685 Y26.227 E33.50394
G1 X52.875 Y27.63 E33.60497
G1 X52.008 Y29.132 E33.71312
G1 X51.966 Y29.205 E33.71837
G1 X51.276 Y30.399 E33.80438
G1 X51.234 Y30.472 E33.80963
G1 X50.359 Y31.987 E33.91873
G1 X49.554 Y33.38 E34.01907
G1 X47.749 Y35.696 E34.20218
G1 X46.123 Y37.783 E34.36717
G1 X45.318 Y38.817 E34.44889
G1 X44.467 Y39.908 E34.53518
G1 X42.142 Y42.163 E34.73717
G1 X40.148 Y44.098 E34.91045
G1 X39.366 Y44.856 E34.97836
G1 X38.537 Y45.66 E35.05038
G1 X35.706 Y47.732 E35.26917
G1 X33.317 Y49.479 E35.45374
G1 X32.599 Y50.004 E35.50921
G1 X31.854 Y50.549 E35.56677
G1 X28.44 Y52.384 E35.80848
G1 X25.777 Y53.815 E35.99701
G1 X25.198 Y54.126 E36.038
G1 F2700 E32.538
G1 Z1.3
G0 F9000 X119.666 Y1.405 Z1.3
G1 Z.3
G1 F2700 E36.038
G1 F1500 X119.71 Y3.086 E36.14287
G1 X119.36 Y7.597 E36.42503
G1 X119.012 Y12.095 E36.67121
G1 X118.885 Y13.738 E36.76114
G1 X118.758 Y15.371 E36.86329
G1 X117.946 Y19.823 E37.14551
G1 X117.127 Y24.322 E37.39533
G1 X116.836 Y25.92 E37.48407
G1 X116.547 Y27.505 E37.58454
G1 X115.284 Y31.844 E37.86637
G1 X113.991 Y36.286 E38.11911
G1 X113.541 Y37.834 E38.20719
G1 X113.102 Y39.34 E38.30501
G1 X111.382 Y43.569 E38.58972
G1 X109.635 Y47.866 E38.844
G1 X109.045 Y49.318 E38.92992
G1 X108.456 Y50.765 E39.02735
G1 X106.289 Y54.835 E39.3149
G1 X103.999 Y59.136 E39.58048
G1 X103.968 Y59.194 E39.5842
G1 X103.291 Y60.464 E39.67396
G1 X103.273 Y60.499 E39.67628
G1 X102.916 Y61.17 E39.72027
G1 X102.662 Y61.647 E39.75397
G1 X96.346 Y71.034 E40.42568
G1 X96.064 Y71.454 E40.45571
G1 X95.78 Y71.875 E40.48738
G1 X88.498 Y80.604 E41.16298
G1 X88.185 Y80.98 E41.19206
G1 X87.881 Y81.344 E41.22164
G1 X79.702 Y89.315 E41.90252
G1 X79.376 Y89.633 E41.92968
G1 X79.055 Y89.946 E41.95764
G1 X70.054 Y97.07 E42.64415
G1 X69.722 Y97.333 E42.66949
G1 X69.386 Y97.599 E42.69621
G1 X59.656 Y103.787 E43.38727
G1 X59.32 Y104.001 E43.41115
G1 X58.986 Y104.214 E43.43585
G1 X48.619 Y109.396 E44.13189
G1 X48.277 Y109.566 E44.15483
G1 X47.95 Y109.73 E44.17764
G1 X37.061 Y113.834 E44.87794
G1 X36.728 Y113.959 E44.89935
G1 X36.42 Y114.076 E44.91989
G1 X25.108 Y117.055 E45.62605
G1 X24.796 Y117.137 E45.64552
G1 X24.491 Y117.218 E45.6652
G1 X12.885 Y119.024 E46.37499
G1 X12.578 Y119.072 E46.39377
G1 X12.316 Y119.113 E46.4103
G1 X.274 Y119.734 E47.16227
G1 X.00 Y119.749 E47.17939
G1 X-.272 Y119.735 E47.19637
G1 X-12.316 Y119.113 E47.94847
G1 X-12.578 Y119.072 E47.96501
G1 X-12.885 Y119.025 E47.98438
G1 X-24.491 Y117.218 E48.71688
G1 X-24.797 Y117.137 E48.73662
G1 X-25.108 Y117.056 E48.75666
G1 X-36.42 Y114.076 E49.48618
G1 X-36.733 Y113.958 E49.50704
G1 X-37.061 Y113.835 E49.52888
G1 X-47.95 Y109.73 E50.2546
G1 X-48.277 Y109.566 E50.27742
G1 X-48.619 Y109.396 E50.30123
G1 X-58.986 Y104.214 E51.02402
G1 X-59.316 Y104.003 E51.04844
G1 X-59.655 Y103.788 E51.07348
G1 X-69.386 Y97.599 E51.79267
G1 X-69.719 Y97.335 E51.81917
G1 X-70.053 Y97.071 E51.84572
G1 X-79.055 Y89.946 E52.56168
G1 X-79.376 Y89.633 E52.58964
G1 X-79.701 Y89.316 E52.61795
G1 X-87.881 Y81.344 E53.33027
G1 X-88.186 Y80.979 E53.35993
G1 X-88.497 Y80.606 E53.39021
G1 X-95.78 Y71.875 E54.09927
G1 X-96.065 Y71.451 E54.13113
G1 X-96.346 Y71.034 E54.16249
G1 X-102.662 Y61.647 E54.86806
G1 X-102.915 Y61.172 E54.90162
G1 X-103.273 Y60.5 E54.94911
G1 X-103.291 Y60.465 E54.95156
G1 X-103.968 Y59.194 E55.04137
G1 X-103.999 Y59.136 E55.04547
G1 X-106.285 Y54.842 E55.34884
G1 X-108.456 Y50.765 E55.63689
G1 X-109.046 Y49.315 E55.73452
G1 X-109.634 Y47.867 E55.83198
G1 X-111.378 Y43.579 E56.12066
G1 X-113.102 Y39.34 E56.40604
G1 X-113.541 Y37.831 E56.50405
G1 X-113.99 Y36.288 E56.60427
G1 X-115.281 Y31.852 E56.89239
G1 X-116.547 Y27.505 E57.17474
G1 X-116.837 Y25.918 E57.27535
G1 X-117.127 Y24.322 E57.37651
G1 X-117.948 Y19.817 E57.66208
G1 X-118.758 Y15.371 E57.94391
G1 X-118.884 Y13.746 E58.04555
G1 X-119.011 Y12.095 E58.14882
G1 X-119.36 Y7.588 E58.43073
G1 X-119.71 Y3.086 E58.71233
G1 X-119.666 Y1.4 E58.81751
G1 X-119.624 Y-.258 E58.92094
G1 X-119.509 Y-4.725 E59.19961
G1 X-119.392 Y-9.242 E59.4814
G1 X-119.175 Y-10.918 E59.58679
G1 X-118.956 Y-12.611 E59.69325
G1 X-118.379 Y-17.066 E59.97339
G1 X-117.808 Y-21.473 E60.25052
G1 X-117.412 Y-23.149 E60.35792
G1 X-117.017 Y-24.828 E60.46549
G1 X-116.001 Y-29.133 E60.74134
G1 X-114.978 Y-33.466 E61.01898
G1 X-114.399 Y-35.13 E61.12886
G1 X-113.826 Y-36.78 E61.23778
G1 X-112.385 Y-40.923 E61.51133
G1 X-110.926 Y-45.115 E61.78814
G1 X-110.169 Y-46.733 E61.89954
G1 X-109.418 Y-48.338 E62.01005
G1 X-107.567 Y-52.293 E62.28237
G1 X-105.701 Y-56.277 E62.55672
G1 X-104.773 Y-57.822 E62.66912
G1 X-103.71 Y-59.594 E62.79798
G1 X-103.453 Y-60.022 E62.82912
G1 X-101.331 Y-63.556 E63.08619
G1 X-99.354 Y-66.848 E63.32566
G1 X-97.951 Y-68.718 E63.47145
G1 X-96.549 Y-70.586 E63.61711
G1 X-94.244 Y-73.657 E63.85657
G1 X-91.951 Y-76.712 E64.09478
G1 X-90.36 Y-78.431 E64.24085
G1 X-88.742 Y-80.18 E64.38944
G1 X-86.147 Y-82.983 E64.62765
G1 X-83.581 Y-85.756 E64.86326
G1 X-81.781 Y-87.338 E65.01271
G1 X-79.987 Y-88.915 E65.16167
G1 X-77.166 Y-91.395 E65.39591
G1 X-74.319 Y-93.897 E65.63228
G1 X-72.344 Y-95.301 E65.78339
G1 X-70.376 Y-96.7 E65.93397
G1 X-67.316 Y-98.875 E66.1681
